(.../Desktop/eagle-8.3.2/ulp/pcb-gcode.ulp)
(Copyright 2005 - 2012 by John Johnson)
(See readme.txt for licensing terms.)
(This file generated from the board:)
(.../OptimuxPrime/OptimuxPrimeFlooded.brd)
(Current profile is .../eagle-8.3.2/ulp/profiles/emc.pp  )
(This file generated 10/29/17 2:40 PM)
(Settings from pcb-machine.h)
(spindle on time = 3.0000)
(spindle speed = 20000.0000)
(tool change at 0.0000 0.0000 1.0000 )
(feed rate xy = F0.00  )
(feed rate z  = F20.00 )
(Z Axis Settings)
(  High     Up        Down     Drill)
(0.5000 	0.1000 	-0.0070 	-0.0320 )
(Settings from pcb-defaults.h)
(isolate min = 0.0010)
(isolate max = 0.0200)
(isolate step = 0.0050)
(Generated top outlines, top drill, bottom outlines, bottom drill, )
(Unit of measure: inch)
( Tool|       Size       |  Min Sub |  Max Sub |   Count )
( T01 | 0.350mm 0.0138in | 0.0000in | 0.0000in |       0 )
( T02 | 0.813mm 0.0320in | 0.0000in | 0.0000in |       0 )
( T03 | 1.000mm 0.0394in | 0.0000in | 0.0000in |       0 )
( T04 | 1.016mm 0.0400in | 0.0000in | 0.0000in |       0 )
( T05 | 1.118mm 0.0440in | 0.0000in | 0.0000in |       0 )
( T06 | 3.302mm 0.1300in | 0.0000in | 0.0000in |       0 )
(Inch Mode)
G20
(Absolute Coordinates)
G90
S20000
G00 Z0.5000 
G00 X0.0000 Y0.0000 
M03
G04 P3.000000
M05
G00 Z1.0000 
M06 T01 (0.0138 )
G01 Z0.0000 F20.00 
M06 
G00 Z0.1000 
M03
G04 P3.000000
G82 X-0.6750 Y0.8875 Z-0.0320 F20.00 R0.1000 P1.000000
G82 X-0.8250 Y0.8875 
G82 X-0.6750 Y1.0750 
G82 X-0.9500 Y1.1875 
G82 X-0.8625 Y1.3750 
G82 X-0.6750 Y1.4500 
G82 X-0.7125 Y2.0125 
G82 X-0.7875 Y2.4875 
G82 X-1.6000 Y1.7500 
G82 X-1.5625 Y1.5625 
G82 X-1.6750 Y1.4125 
G82 X-1.7500 Y0.9000 
G82 X-1.9125 Y0.5875 
G82 X-2.0125 Y0.5500 
G82 X-2.1500 Y0.9625 
G82 X-2.4875 Y0.8625 
G82 X-2.8250 Y0.7875 
G82 X-2.9500 Y0.8625 
G82 X-2.8125 Y0.4500 
G82 X-2.6500 Y1.4500 
G82 X-1.9500 Y2.1250 
G82 X-1.9125 Y2.1625 
G82 X-2.3000 Y3.0000 
G82 X-1.2125 Y0.8250 
G82 X-1.1000 Y0.5875 
G82 X-1.1250 Y0.5125 
M05
G00 Z1.0000 
G00 X0.0000 Y0.0000 
M06 T02 (0.0320 )
G01 Z0.0000 F20.00 
M06 
G00 Z0.1000 
M03
G04 P3.000000
G82 X-0.4000 Y0.4000 Z-0.0320 F20.00 R0.1000 P1.000000
G82 X-0.5000 Y0.4000 
G82 X-0.6000 Y0.4000 
G82 X-0.7000 Y0.4000 
G82 X-0.8000 Y0.4000 
G82 X-0.9000 Y0.4000 
G82 X-1.0000 Y0.4000 
G82 X-1.1000 Y0.4000 
G82 X-1.2000 Y0.4000 
G82 X-1.3000 Y0.4000 
G82 X-1.3000 Y0.7000 
G82 X-1.2000 Y0.7000 
G82 X-1.1000 Y0.7000 
G82 X-1.0000 Y0.7000 
G82 X-0.9000 Y0.7000 
G82 X-0.8000 Y0.7000 
G82 X-0.7000 Y0.7000 
G82 X-0.6000 Y0.7000 
G82 X-0.5000 Y0.7000 
G82 X-0.4000 Y0.7000 
G82 X-0.9000 Y1.0000 
G82 X-1.1000 Y1.0000 
G82 X-1.3000 Y1.0000 
G82 X-1.5000 Y1.0000 
G82 X-1.5000 Y1.3000 
G82 X-1.3000 Y1.3000 
G82 X-1.1000 Y1.3000 
G82 X-0.9000 Y1.3000 
G82 X-0.9000 Y1.6000 
G82 X-1.1000 Y1.6000 
G82 X-1.3000 Y1.6000 
G82 X-1.5000 Y1.6000 
G82 X-1.5000 Y1.9000 
G82 X-1.3000 Y1.9000 
G82 X-1.1000 Y1.9000 
G82 X-0.9000 Y1.9000 
G82 X-0.9000 Y2.2000 
G82 X-1.1000 Y2.2000 
G82 X-1.3000 Y2.2000 
G82 X-1.5000 Y2.2000 
G82 X-1.5000 Y2.5000 
G82 X-1.3000 Y2.5000 
G82 X-1.1000 Y2.5000 
G82 X-0.9000 Y2.5000 
G82 X-0.9000 Y2.8000 
G82 X-1.1000 Y2.8000 
G82 X-1.3000 Y2.8000 
G82 X-1.5000 Y2.8000 
G82 X-1.5000 Y3.1000 
G82 X-1.3000 Y3.1000 
G82 X-1.1000 Y3.1000 
G82 X-0.9000 Y3.1000 
G82 X-1.8500 Y3.1000 
G82 X-2.0500 Y3.1000 
G82 X-2.2500 Y3.1000 
G82 X-2.4500 Y3.1000 
G82 X-2.4500 Y2.8000 
G82 X-2.2500 Y2.8000 
G82 X-2.0500 Y2.8000 
G82 X-1.8500 Y2.8000 
G82 X-1.8500 Y2.5000 
G82 X-2.0500 Y2.5000 
G82 X-2.2500 Y2.5000 
G82 X-2.4500 Y2.5000 
G82 X-2.4500 Y2.2000 
G82 X-2.2500 Y2.2000 
G82 X-2.0500 Y2.2000 
G82 X-1.8500 Y2.2000 
G82 X-1.8500 Y1.9000 
G82 X-2.0500 Y1.9000 
G82 X-2.2500 Y1.9000 
G82 X-2.4500 Y1.9000 
G82 X-2.4500 Y1.6000 
G82 X-2.2500 Y1.6000 
G82 X-2.0500 Y1.6000 
G82 X-1.8500 Y1.6000 
G82 X-1.8500 Y1.3000 
G82 X-2.0500 Y1.3000 
G82 X-2.2500 Y1.3000 
G82 X-2.4500 Y1.3000 
G82 X-2.4500 Y1.0000 
G82 X-2.2500 Y1.0000 
G82 X-2.0500 Y1.0000 
G82 X-1.8500 Y1.0000 
G82 X-1.8000 Y0.7000 
G82 X-1.9000 Y0.7000 
G82 X-2.0000 Y0.7000 
G82 X-2.1000 Y0.7000 
G82 X-2.2000 Y0.7000 
G82 X-2.3000 Y0.7000 
G82 X-2.4000 Y0.7000 
G82 X-2.5000 Y0.7000 
G82 X-2.6000 Y0.7000 
G82 X-2.7000 Y0.7000 
G82 X-2.7000 Y0.4000 
G82 X-2.6000 Y0.4000 
G82 X-2.5000 Y0.4000 
G82 X-2.4000 Y0.4000 
G82 X-2.3000 Y0.4000 
G82 X-2.2000 Y0.4000 
G82 X-2.1000 Y0.4000 
G82 X-2.0000 Y0.4000 
G82 X-1.9000 Y0.4000 
G82 X-1.8000 Y0.4000 
M05
G00 Z1.0000 
G00 X0.0000 Y0.0000 
M06 T03 (0.0394 )
G01 Z0.0000 F20.00 
M06 
G00 Z0.1000 
M03
G04 P3.000000
G82 X-1.0000 Y0.0319 Z-0.0320 F20.00 R0.1000 P1.000000
G82 X-1.1890 Y0.1500 
G82 X-1.0000 Y0.2720 
M05
G00 Z1.0000 
G00 X0.0000 Y0.0000 
M06 T04 (0.0400 )
G01 Z0.0000 F20.00 
M06 
G00 Z0.1000 
M03
G04 P3.000000
G82 X-0.4000 Y0.9500 Z-0.0320 F20.00 R0.1000 P1.000000
G82 X-0.5000 Y0.9500 
G82 X-0.5000 Y1.0500 
G82 X-0.5000 Y1.1500 
G82 X-0.4000 Y1.1500 
G82 X-0.4000 Y1.0500 
G82 X-0.4000 Y1.2500 
G82 X-0.5000 Y1.2500 
G82 X-0.5000 Y1.3500 
G82 X-0.5000 Y1.4500 
G82 X-0.4000 Y1.4500 
G82 X-0.4000 Y1.3500 
G82 X-0.4000 Y1.5500 
G82 X-0.4000 Y1.6500 
G82 X-0.5000 Y1.6500 
G82 X-0.5000 Y1.5500 
G82 X-0.5000 Y1.7500 
G82 X-0.4000 Y1.7500 
G82 X-0.4000 Y1.8500 
G82 X-0.4000 Y1.9500 
G82 X-0.4000 Y2.0500 
G82 X-0.5000 Y2.0500 
G82 X-0.5000 Y1.9500 
G82 X-0.5000 Y1.8500 
G82 X-0.5000 Y2.1500 
G82 X-0.4000 Y2.1500 
G82 X-0.4000 Y2.2500 
G82 X-0.5000 Y2.2500 
G82 X-0.5000 Y2.3500 
G82 X-0.4000 Y2.3500 
G82 X-0.4000 Y2.4500 
G82 X-0.4000 Y2.5500 
G82 X-0.5000 Y2.5500 
G82 X-0.5000 Y2.4500 
G82 X-0.5000 Y2.6500 
G82 X-0.4000 Y2.6500 
G82 X-0.4000 Y2.7500 
G82 X-0.5000 Y2.7500 
G82 X-0.5000 Y2.8500 
G82 X-0.4000 Y2.8500 
G82 X-0.6000 Y3.1000 
G82 X-2.8500 Y2.8500 
G82 X-2.8500 Y2.7500 
G82 X-2.8500 Y2.6500 
G82 X-2.8500 Y2.5500 
G82 X-2.8500 Y2.4500 
G82 X-2.8500 Y2.3500 
G82 X-2.8500 Y2.2500 
G82 X-2.8500 Y2.1500 
G82 X-2.8500 Y2.0500 
G82 X-2.8500 Y1.9500 
G82 X-2.8500 Y1.8500 
G82 X-2.8500 Y1.7500 
G82 X-2.8500 Y1.6500 
G82 X-2.8500 Y1.5500 
G82 X-2.8500 Y1.4500 
G82 X-2.8500 Y1.3500 
G82 X-2.8500 Y1.2500 
G82 X-2.8500 Y1.1500 
G82 X-2.8500 Y1.0500 
G82 X-2.8500 Y0.9500 
G82 X-2.9500 Y0.9500 
G82 X-2.9500 Y1.0500 
G82 X-2.9500 Y1.1500 
G82 X-2.9500 Y1.2500 
G82 X-2.9500 Y1.3500 
G82 X-2.9500 Y1.4500 
G82 X-2.9500 Y1.5500 
G82 X-2.9500 Y1.6500 
G82 X-2.9500 Y1.7500 
G82 X-2.9500 Y1.8500 
G82 X-2.9500 Y1.9500 
G82 X-2.9500 Y2.0500 
G82 X-2.9500 Y2.1500 
G82 X-2.9500 Y2.2500 
G82 X-2.9500 Y2.3500 
G82 X-2.9500 Y2.4500 
G82 X-2.9500 Y2.5500 
G82 X-2.9500 Y2.6500 
G82 X-2.9500 Y2.7500 
G82 X-2.9500 Y2.8500 
G82 X-2.9500 Y0.7000 
G82 X-2.9500 Y0.6000 
G82 X-2.9500 Y0.5000 
G82 X-2.9500 Y0.4000 
G82 X-2.8500 Y0.4000 
G82 X-2.8500 Y0.5000 
G82 X-2.8500 Y0.6000 
G82 X-2.8500 Y0.7000 
G82 X-1.5500 Y0.7000 
G82 X-1.5500 Y0.6000 
G82 X-1.5500 Y0.5000 
G82 X-1.5500 Y0.4000 
G82 X-1.4500 Y0.4000 
G82 X-1.4500 Y0.5000 
G82 X-1.4500 Y0.6000 
G82 X-1.4500 Y0.7000 
M05
G00 Z1.0000 
G00 X0.0000 Y0.0000 
M06 T05 (0.0440 )
G01 Z0.0000 F20.00 
M06 
G00 Z0.1000 
M03
G04 P3.000000
G82 X-2.2500 Y0.0000 Z-0.0320 F20.00 R0.1000 P1.000000
G82 X-2.2500 Y0.1000 
G82 X-2.2500 Y0.2000 
M05
G00 Z1.0000 
G00 X0.0000 Y0.0000 
M06 T06 (0.1300 )
G01 Z0.0000 F20.00 
M06 
G00 Z0.1000 
M03
G04 P3.000000
G82 X-2.8400 Y0.1000 Z-0.0320 F20.00 R0.1000 P1.000000
T01 
G00 Z0.5000 
M05
M02
