(.../Desktop/eagle-8.3.2/ulp/pcb-gcode.ulp)
(Copyright 2005 - 2012 by John Johnson)
(See readme.txt for licensing terms.)
(This file generated from the board:)
(.../OptimuxPrime/OptimuxPrimeFlooded.brd)
(Current profile is .../eagle-8.3.2/ulp/profiles/emc.pp  )
(This file generated 10/29/17 2:36 PM)
(Settings from pcb-machine.h)
(spindle on time = 3.0000)
(  Tool Size)
(0.0070 )
(spindle speed = 30000.0000)
(tool change at 0.0000 0.0000 1.0000 )
(feed rate xy = F20.00 )
(feed rate z  = F10.00 )
(Z Axis Settings)
(  High     Up        Down     Drill)
(0.5000 	0.1000 	-0.0070 	-0.0320 )
(Settings from pcb-defaults.h)
(isolate min = 0.0010)
(isolate max = 0.0200)
(isolate step = 0.0050)
(Generated top outlines, top drill, bottom outlines, bottom drill, )
(Unit of measure: inch)
(Inch Mode)
G20
(Absolute Coordinates)
G90
S30000
G00 Z0.5000 
G00 X0.0000 Y0.0000 
M03
G04 P3.000000
G00 Z0.1000 
G00 X-0.1855 Y-0.1019 
G01 Z-0.0070 F10.00 
G01 X-0.1865 Y-0.1056 F20.00 
G01 X-0.1884 Y-0.1089 
G01 X-0.1911 Y-0.1116 
G01 X-0.1944 Y-0.1135 
G01 X-0.1981 Y-0.1145 
G01 X-3.1519 Y-0.1145 
G01 X-3.1556 Y-0.1135 
G01 X-3.1589 Y-0.1116 
G01 X-3.1616 Y-0.1089 
G01 X-3.1635 Y-0.1056 
G01 X-3.1645 Y-0.1019 
G01 X-3.1645 Y2.8519 
G01 X-3.1635 Y2.8556 
G01 X-3.1616 Y2.8589 
G01 X-3.1589 Y2.8616 
G01 X-2.6616 Y3.3589 
G01 X-2.6589 Y3.3616 
G01 X-2.6556 Y3.3635 
G01 X-2.6519 Y3.3645 
G01 X-0.1981 Y3.3645 
G01 X-0.1944 Y3.3635 
G01 X-0.1911 Y3.3616 
G01 X-0.1884 Y3.3589 
G01 X-0.1865 Y3.3556 
G01 X-0.1855 Y3.3519 
G01 X-0.1855 Y3.3481 
G01 X-0.1855 Y-0.1019 
G00 Z0.1000 
G00 X-0.3795 Y0.3500 
G01 Z-0.0070 F10.00 
G01 X-0.3760 Y0.3535 F20.00 
G01 X-0.3731 Y0.3575 
G01 X-0.3708 Y0.3619 
G01 X-0.3693 Y0.3666 
G01 X-0.3685 Y0.3715 
G01 X-0.3685 Y0.3855 
G01 X-0.3695 Y0.3855 
G01 X-0.3695 Y0.3710 
G01 X-0.3707 Y0.3651 
G01 X-0.3730 Y0.3596 
G01 X-0.3763 Y0.3546 
G01 X-0.3806 Y0.3503 
G01 X-0.3855 Y0.3470 
G01 X-0.3855 Y0.3460 
G01 X-0.3835 Y0.3471 
G01 X-0.3795 Y0.3500 
G00 Z0.1000 
G00 X-0.4145 Y0.3470 
G01 Z-0.0070 F10.00 
G01 X-0.4194 Y0.3503 F20.00 
G01 X-0.4237 Y0.3546 
G01 X-0.4270 Y0.3596 
G01 X-0.4293 Y0.3651 
G01 X-0.4305 Y0.3710 
G01 X-0.4305 Y0.3855 
G01 X-0.4315 Y0.3855 
G01 X-0.4315 Y0.3715 
G01 X-0.4307 Y0.3666 
G01 X-0.4292 Y0.3619 
G01 X-0.4269 Y0.3575 
G01 X-0.4240 Y0.3535 
G01 X-0.4205 Y0.3500 
G01 X-0.4165 Y0.3471 
G01 X-0.4145 Y0.3460 
G01 X-0.4145 Y0.3470 
G00 Z0.1000 
G00 X-0.4822 Y0.3473 
G01 Z-0.0070 F10.00 
G01 X-0.4733 Y0.3562 F20.00 
G01 X-0.4685 Y0.3677 
G01 X-0.4685 Y0.4323 
G01 X-0.4733 Y0.4438 
G01 X-0.4822 Y0.4527 
G01 X-0.4937 Y0.4575 
G01 X-0.5063 Y0.4575 
G01 X-0.5136 Y0.4545 
G01 X-0.5144 Y0.4540 
G01 X-0.5153 Y0.4537 
G01 X-0.5162 Y0.4534 
G01 X-0.5172 Y0.4533 
G01 X-0.5181 Y0.4530 
G01 X-0.5190 Y0.4530 
G01 X-0.5200 Y0.4529 
G01 X-0.5210 Y0.4530 
G01 X-0.5219 Y0.4530 
G01 X-0.5228 Y0.4533 
G01 X-0.5238 Y0.4534 
G01 X-0.5247 Y0.4537 
G01 X-0.5256 Y0.4540 
G01 X-0.5264 Y0.4545 
G01 X-0.5273 Y0.4548 
G01 X-0.5281 Y0.4554 
G01 X-0.5289 Y0.4559 
G01 X-0.5296 Y0.4566 
G01 X-0.5303 Y0.4572 
G01 X-0.5309 Y0.4579 
G01 X-0.5316 Y0.4586 
G01 X-0.5321 Y0.4594 
G01 X-0.5327 Y0.4602 
G01 X-0.5330 Y0.4611 
G01 X-0.5335 Y0.4619 
G01 X-0.5338 Y0.4628 
G01 X-0.5341 Y0.4637 
G01 X-0.5343 Y0.4647 
G01 X-0.5345 Y0.4656 
G01 X-0.5345 Y0.4666 
G01 X-0.5346 Y0.4675 
G01 X-0.5345 Y0.4685 
G01 X-0.5345 Y0.5156 
G01 X-0.5369 Y0.5213 
G01 X-0.5412 Y0.5256 
G01 X-0.5469 Y0.5280 
G01 X-1.1053 Y0.5280 
G01 X-1.1063 Y0.5279 
G01 X-1.1072 Y0.5280 
G01 X-1.1082 Y0.5280 
G01 X-1.1091 Y0.5282 
G01 X-1.1100 Y0.5284 
G01 X-1.1109 Y0.5287 
G01 X-1.1119 Y0.5290 
G01 X-1.1127 Y0.5295 
G01 X-1.1209 Y0.5329 
G01 X-1.1291 Y0.5329 
G01 X-1.1365 Y0.5298 
G01 X-1.1423 Y0.5240 
G01 X-1.1454 Y0.5166 
G01 X-1.1454 Y0.5078 
G01 X-1.1452 Y0.5069 
G01 X-1.1452 Y0.5060 
G01 X-1.1450 Y0.5050 
G01 X-1.1452 Y0.5041 
G01 X-1.1452 Y0.5031 
G01 X-1.1454 Y0.5022 
G01 X-1.1455 Y0.5012 
G01 X-1.1459 Y0.5003 
G01 X-1.1461 Y0.4994 
G01 X-1.1466 Y0.4986 
G01 X-1.1470 Y0.4977 
G01 X-1.1476 Y0.4969 
G01 X-1.1481 Y0.4961 
G01 X-1.1487 Y0.4954 
G01 X-1.1493 Y0.4947 
G01 X-1.1501 Y0.4941 
G01 X-1.1508 Y0.4934 
G01 X-1.1516 Y0.4929 
G01 X-1.1523 Y0.4923 
G01 X-1.1532 Y0.4920 
G01 X-1.1541 Y0.4915 
G01 X-1.1550 Y0.4912 
G01 X-1.1559 Y0.4909 
G01 X-1.1568 Y0.4907 
G01 X-1.1577 Y0.4905 
G01 X-1.1587 Y0.4905 
G01 X-1.1597 Y0.4904 
G01 X-1.1606 Y0.4905 
G01 X-1.4019 Y0.4905 
G01 X-1.4056 Y0.4915 
G01 X-1.4089 Y0.4934 
G01 X-1.4116 Y0.4961 
G01 X-1.4135 Y0.4994 
G01 X-1.4145 Y0.5031 
G01 X-1.4145 Y0.5147 
G01 X-1.4289 Y0.5291 
G01 X-1.4312 Y0.5315 
G01 X-1.4316 Y0.5318 
G01 X-1.4335 Y0.5351 
G01 X-1.4345 Y0.5388 
G01 X-1.4345 Y0.5594 
G01 X-1.4335 Y0.5631 
G01 X-1.4316 Y0.5664 
G01 X-1.4289 Y0.5691 
G01 X-1.4256 Y0.5710 
G01 X-1.4219 Y0.5720 
G01 X-1.1197 Y0.5720 
G01 X-1.1187 Y0.5721 
G01 X-1.1178 Y0.5720 
G01 X-1.1168 Y0.5720 
G01 X-1.1159 Y0.5718 
G01 X-1.1150 Y0.5716 
G01 X-1.1141 Y0.5713 
G01 X-1.1131 Y0.5710 
G01 X-1.1123 Y0.5705 
G01 X-1.1041 Y0.5671 
G01 X-1.0959 Y0.5671 
G01 X-1.0884 Y0.5702 
G01 X-1.0827 Y0.5759 
G01 X-1.0796 Y0.5834 
G01 X-1.0796 Y0.5922 
G01 X-1.0798 Y0.5931 
G01 X-1.0798 Y0.5940 
G01 X-1.0800 Y0.5950 
G01 X-1.0798 Y0.5959 
G01 X-1.0798 Y0.5969 
G01 X-1.0796 Y0.5978 
G01 X-1.0795 Y0.5988 
G01 X-1.0791 Y0.5997 
G01 X-1.0789 Y0.6006 
G01 X-1.0784 Y0.6014 
G01 X-1.0780 Y0.6023 
G01 X-1.0774 Y0.6031 
G01 X-1.0769 Y0.6039 
G01 X-1.0763 Y0.6046 
G01 X-1.0757 Y0.6053 
G01 X-1.0749 Y0.6059 
G01 X-1.0742 Y0.6066 
G01 X-1.0734 Y0.6071 
G01 X-1.0727 Y0.6077 
G01 X-1.0718 Y0.6080 
G01 X-1.0709 Y0.6085 
G01 X-1.0700 Y0.6088 
G01 X-1.0691 Y0.6091 
G01 X-1.0682 Y0.6093 
G01 X-1.0673 Y0.6095 
G01 X-1.0663 Y0.6095 
G01 X-1.0653 Y0.6096 
G01 X-1.0644 Y0.6095 
G01 X-0.5719 Y0.6095 
G01 X-0.5662 Y0.6119 
G01 X-0.5585 Y0.6196 
G01 X-0.5345 Y0.6436 
G01 X-0.5339 Y0.6443 
G01 X-0.5332 Y0.6449 
G01 X-0.5325 Y0.6456 
G01 X-0.5317 Y0.6461 
G01 X-0.5309 Y0.6466 
G01 X-0.5300 Y0.6470 
G01 X-0.5292 Y0.6475 
G01 X-0.5283 Y0.6477 
G01 X-0.5274 Y0.6481 
G01 X-0.5264 Y0.6482 
G01 X-0.5255 Y0.6485 
G01 X-0.5245 Y0.6485 
G01 X-0.5236 Y0.6486 
G01 X-0.5226 Y0.6485 
G01 X-0.5217 Y0.6485 
G01 X-0.5208 Y0.6482 
G01 X-0.5198 Y0.6481 
G01 X-0.5189 Y0.6477 
G01 X-0.5180 Y0.6475 
G01 X-0.5172 Y0.6470 
G01 X-0.5063 Y0.6425 
G01 X-0.4937 Y0.6425 
G01 X-0.4822 Y0.6473 
G01 X-0.4733 Y0.6562 
G01 X-0.4685 Y0.6677 
G01 X-0.4685 Y0.7323 
G01 X-0.4733 Y0.7438 
G01 X-0.4822 Y0.7527 
G01 X-0.4937 Y0.7575 
G01 X-0.5063 Y0.7575 
G01 X-0.5178 Y0.7527 
G01 X-0.5267 Y0.7438 
G01 X-0.5315 Y0.7323 
G01 X-0.5315 Y0.6945 
G01 X-0.5318 Y0.6935 
G01 X-0.5325 Y0.6908 
G01 X-0.5344 Y0.6875 
G01 X-0.5346 Y0.6874 
G01 X-0.5424 Y0.6795 
G01 X-0.5451 Y0.6768 
G01 X-0.5476 Y0.6754 
G01 X-0.5484 Y0.6749 
G01 X-0.5521 Y0.6739 
G01 X-0.5559 Y0.6739 
G01 X-0.5584 Y0.6746 
G01 X-0.5596 Y0.6749 
G01 X-0.5629 Y0.6768 
G01 X-0.5656 Y0.6795 
G01 X-0.5671 Y0.6821 
G01 X-0.5675 Y0.6828 
G01 X-0.5685 Y0.6865 
G01 X-0.5685 Y0.7323 
G01 X-0.5733 Y0.7438 
G01 X-0.5822 Y0.7527 
G01 X-0.5937 Y0.7575 
G01 X-0.6063 Y0.7575 
G01 X-0.6172 Y0.7530 
G01 X-0.6180 Y0.7525 
G01 X-0.6189 Y0.7523 
G01 X-0.6198 Y0.7519 
G01 X-0.6208 Y0.7518 
G01 X-0.6217 Y0.7515 
G01 X-0.6226 Y0.7515 
G01 X-0.6236 Y0.7514 
G01 X-0.6245 Y0.7515 
G01 X-0.6255 Y0.7515 
G01 X-0.6264 Y0.7518 
G01 X-0.6274 Y0.7519 
G01 X-0.6283 Y0.7523 
G01 X-0.6292 Y0.7525 
G01 X-0.6300 Y0.7530 
G01 X-0.6309 Y0.7534 
G01 X-0.6317 Y0.7539 
G01 X-0.6325 Y0.7544 
G01 X-0.6332 Y0.7551 
G01 X-0.6339 Y0.7557 
G01 X-0.6345 Y0.7564 
G01 X-0.6737 Y0.7956 
G01 X-0.6787 Y0.8006 
G01 X-0.6844 Y0.8030 
G01 X-1.1769 Y0.8030 
G01 X-1.1778 Y0.8029 
G01 X-1.1788 Y0.8030 
G01 X-1.1798 Y0.8030 
G01 X-1.1807 Y0.8032 
G01 X-1.1816 Y0.8034 
G01 X-1.1825 Y0.8037 
G01 X-1.1834 Y0.8040 
G01 X-1.1843 Y0.8045 
G01 X-1.1852 Y0.8048 
G01 X-1.1859 Y0.8054 
G01 X-1.1867 Y0.8059 
G01 X-1.1874 Y0.8066 
G01 X-1.1882 Y0.8072 
G01 X-1.1888 Y0.8079 
G01 X-1.1894 Y0.8086 
G01 X-1.1899 Y0.8094 
G01 X-1.1905 Y0.8102 
G01 X-1.1909 Y0.8111 
G01 X-1.1914 Y0.8119 
G01 X-1.1916 Y0.8128 
G01 X-1.1920 Y0.8137 
G01 X-1.1921 Y0.8147 
G01 X-1.1923 Y0.8156 
G01 X-1.1923 Y0.8166 
G01 X-1.1925 Y0.8175 
G01 X-1.1923 Y0.8185 
G01 X-1.1923 Y0.8194 
G01 X-1.1921 Y0.8203 
G01 X-1.1921 Y0.8291 
G01 X-1.1952 Y0.8365 
G01 X-1.2009 Y0.8423 
G01 X-1.2092 Y0.8457 
G01 X-1.2101 Y0.8460 
G01 X-1.2110 Y0.8464 
G01 X-1.2119 Y0.8468 
G01 X-1.2126 Y0.8474 
G01 X-1.2134 Y0.8479 
G01 X-1.2141 Y0.8485 
G01 X-1.2149 Y0.8491 
G01 X-1.2155 Y0.8499 
G01 X-1.2362 Y0.8706 
G01 X-1.2412 Y0.8756 
G01 X-1.2469 Y0.8780 
G01 X-1.7144 Y0.8780 
G01 X-1.7153 Y0.8779 
G01 X-1.7163 Y0.8780 
G01 X-1.7173 Y0.8780 
G01 X-1.7182 Y0.8782 
G01 X-1.7191 Y0.8784 
G01 X-1.7200 Y0.8787 
G01 X-1.7209 Y0.8790 
G01 X-1.7218 Y0.8795 
G01 X-1.7227 Y0.8798 
G01 X-1.7234 Y0.8804 
G01 X-1.7242 Y0.8809 
G01 X-1.7249 Y0.8816 
G01 X-1.7257 Y0.8822 
G01 X-1.7263 Y0.8829 
G01 X-1.7269 Y0.8836 
G01 X-1.7274 Y0.8844 
G01 X-1.7280 Y0.8852 
G01 X-1.7284 Y0.8861 
G01 X-1.7289 Y0.8869 
G01 X-1.7291 Y0.8878 
G01 X-1.7295 Y0.8887 
G01 X-1.7296 Y0.8897 
G01 X-1.7298 Y0.8906 
G01 X-1.7298 Y0.8916 
G01 X-1.7300 Y0.8925 
G01 X-1.7298 Y0.8935 
G01 X-1.7298 Y0.8944 
G01 X-1.7296 Y0.8953 
G01 X-1.7296 Y0.9041 
G01 X-1.7327 Y0.9115 
G01 X-1.7384 Y0.9173 
G01 X-1.7467 Y0.9207 
G01 X-1.7476 Y0.9210 
G01 X-1.7485 Y0.9214 
G01 X-1.7494 Y0.9218 
G01 X-1.7501 Y0.9224 
G01 X-1.7509 Y0.9229 
G01 X-1.7516 Y0.9235 
G01 X-1.7524 Y0.9241 
G01 X-1.7530 Y0.9249 
G01 X-1.7612 Y0.9331 
G01 X-1.7662 Y0.9381 
G01 X-1.7719 Y0.9405 
G01 X-1.8071 Y0.9405 
G01 X-1.8081 Y0.9404 
G01 X-1.8090 Y0.9405 
G01 X-1.8100 Y0.9405 
G01 X-1.8109 Y0.9407 
G01 X-1.8119 Y0.9409 
G01 X-1.8128 Y0.9412 
G01 X-1.8137 Y0.9415 
G01 X-1.8145 Y0.9420 
G01 X-1.8154 Y0.9423 
G01 X-1.8162 Y0.9429 
G01 X-1.8170 Y0.9434 
G01 X-1.8177 Y0.9441 
G01 X-1.8184 Y0.9447 
G01 X-1.8190 Y0.9454 
G01 X-1.8197 Y0.9461 
G01 X-1.8202 Y0.9469 
G01 X-1.8207 Y0.9477 
G01 X-1.8211 Y0.9486 
G01 X-1.8216 Y0.9494 
G01 X-1.8218 Y0.9503 
G01 X-1.8222 Y0.9512 
G01 X-1.8223 Y0.9522 
G01 X-1.8226 Y0.9531 
G01 X-1.8226 Y0.9540 
G01 X-1.8227 Y0.9550 
G01 X-1.8226 Y0.9560 
G01 X-1.8226 Y0.9569 
G01 X-1.8223 Y0.9578 
G01 X-1.8222 Y0.9588 
G01 X-1.8218 Y0.9597 
G01 X-1.8216 Y0.9606 
G01 X-1.8211 Y0.9614 
G01 X-1.8185 Y0.9677 
G01 X-1.8185 Y1.0323 
G01 X-1.8211 Y1.0386 
G01 X-1.8216 Y1.0394 
G01 X-1.8218 Y1.0403 
G01 X-1.8222 Y1.0412 
G01 X-1.8223 Y1.0422 
G01 X-1.8226 Y1.0431 
G01 X-1.8226 Y1.0440 
G01 X-1.8227 Y1.0450 
G01 X-1.8226 Y1.0460 
G01 X-1.8226 Y1.0469 
G01 X-1.8223 Y1.0478 
G01 X-1.8222 Y1.0488 
G01 X-1.8218 Y1.0497 
G01 X-1.8216 Y1.0506 
G01 X-1.8211 Y1.0514 
G01 X-1.8207 Y1.0523 
G01 X-1.8202 Y1.0531 
G01 X-1.8197 Y1.0539 
G01 X-1.8190 Y1.0546 
G01 X-1.8184 Y1.0553 
G01 X-1.8177 Y1.0559 
G01 X-1.8170 Y1.0566 
G01 X-1.8162 Y1.0571 
G01 X-1.8154 Y1.0577 
G01 X-1.8145 Y1.0580 
G01 X-1.8137 Y1.0585 
G01 X-1.8128 Y1.0588 
G01 X-1.8119 Y1.0591 
G01 X-1.8109 Y1.0593 
G01 X-1.8100 Y1.0595 
G01 X-1.8090 Y1.0595 
G01 X-1.8081 Y1.0596 
G01 X-1.8071 Y1.0595 
G01 X-1.5429 Y1.0595 
G01 X-1.5419 Y1.0596 
G01 X-1.5410 Y1.0595 
G01 X-1.5400 Y1.0595 
G01 X-1.5391 Y1.0593 
G01 X-1.5381 Y1.0591 
G01 X-1.5372 Y1.0588 
G01 X-1.5363 Y1.0585 
G01 X-1.5355 Y1.0580 
G01 X-1.5346 Y1.0577 
G01 X-1.5338 Y1.0571 
G01 X-1.5330 Y1.0566 
G01 X-1.5323 Y1.0559 
G01 X-1.5316 Y1.0553 
G01 X-1.5310 Y1.0546 
G01 X-1.5303 Y1.0539 
G01 X-1.5298 Y1.0531 
G01 X-1.5293 Y1.0523 
G01 X-1.5289 Y1.0514 
G01 X-1.5284 Y1.0506 
G01 X-1.5282 Y1.0497 
G01 X-1.5278 Y1.0488 
G01 X-1.5277 Y1.0478 
G01 X-1.5274 Y1.0469 
G01 X-1.5274 Y1.0460 
G01 X-1.5273 Y1.0450 
G01 X-1.5274 Y1.0440 
G01 X-1.5274 Y1.0431 
G01 X-1.5277 Y1.0422 
G01 X-1.5278 Y1.0412 
G01 X-1.5282 Y1.0403 
G01 X-1.5284 Y1.0394 
G01 X-1.5289 Y1.0386 
G01 X-1.5315 Y1.0323 
G01 X-1.5315 Y0.9677 
G01 X-1.5267 Y0.9562 
G01 X-1.5178 Y0.9473 
G01 X-1.5063 Y0.9425 
G01 X-1.4937 Y0.9425 
G01 X-1.4828 Y0.9470 
G01 X-1.4820 Y0.9475 
G01 X-1.4811 Y0.9477 
G01 X-1.4802 Y0.9481 
G01 X-1.4792 Y0.9482 
G01 X-1.4783 Y0.9485 
G01 X-1.4774 Y0.9485 
G01 X-1.4764 Y0.9486 
G01 X-1.4755 Y0.9485 
G01 X-1.4745 Y0.9485 
G01 X-1.4736 Y0.9482 
G01 X-1.4726 Y0.9481 
G01 X-1.4717 Y0.9477 
G01 X-1.4708 Y0.9475 
G01 X-1.4700 Y0.9470 
G01 X-1.4691 Y0.9466 
G01 X-1.4683 Y0.9461 
G01 X-1.4675 Y0.9456 
G01 X-1.4668 Y0.9449 
G01 X-1.4661 Y0.9443 
G01 X-1.4655 Y0.9436 
G01 X-1.4388 Y0.9169 
G01 X-1.4338 Y0.9119 
G01 X-1.4281 Y0.9095 
G01 X-0.8606 Y0.9095 
G01 X-0.8597 Y0.9096 
G01 X-0.8587 Y0.9095 
G01 X-0.8577 Y0.9095 
G01 X-0.8568 Y0.9093 
G01 X-0.8559 Y0.9091 
G01 X-0.8550 Y0.9088 
G01 X-0.8541 Y0.9085 
G01 X-0.8532 Y0.9080 
G01 X-0.8523 Y0.9077 
G01 X-0.8516 Y0.9071 
G01 X-0.8508 Y0.9066 
G01 X-0.8501 Y0.9059 
G01 X-0.8493 Y0.9053 
G01 X-0.8487 Y0.9046 
G01 X-0.8481 Y0.9039 
G01 X-0.8476 Y0.9031 
G01 X-0.8470 Y0.9023 
G01 X-0.8466 Y0.9014 
G01 X-0.8461 Y0.9006 
G01 X-0.8459 Y0.8997 
G01 X-0.8455 Y0.8988 
G01 X-0.8454 Y0.8978 
G01 X-0.8452 Y0.8969 
G01 X-0.8452 Y0.8959 
G01 X-0.8450 Y0.8950 
G01 X-0.8452 Y0.8940 
G01 X-0.8452 Y0.8931 
G01 X-0.8454 Y0.8922 
G01 X-0.8454 Y0.8834 
G01 X-0.8423 Y0.8759 
G01 X-0.8365 Y0.8702 
G01 X-0.8283 Y0.8668 
G01 X-0.8274 Y0.8665 
G01 X-0.8265 Y0.8661 
G01 X-0.8256 Y0.8657 
G01 X-0.8249 Y0.8651 
G01 X-0.8241 Y0.8646 
G01 X-0.8234 Y0.8640 
G01 X-0.8226 Y0.8634 
G01 X-0.8220 Y0.8626 
G01 X-0.8013 Y0.8419 
G01 X-0.7963 Y0.8369 
G01 X-0.7906 Y0.8345 
G01 X-0.3594 Y0.8345 
G01 X-0.3537 Y0.8369 
G01 X-0.2919 Y0.8987 
G01 X-0.2869 Y0.9037 
G01 X-0.2845 Y0.9094 
G01 X-0.2845 Y1.2531 
G01 X-0.2869 Y1.2588 
G01 X-0.2912 Y1.2631 
G01 X-0.2969 Y1.2655 
G01 X-0.3498 Y1.2655 
G01 X-0.3507 Y1.2654 
G01 X-0.3517 Y1.2655 
G01 X-0.3526 Y1.2655 
G01 X-0.3536 Y1.2657 
G01 X-0.3545 Y1.2659 
G01 X-0.3554 Y1.2662 
G01 X-0.3563 Y1.2665 
G01 X-0.3572 Y1.2670 
G01 X-0.3580 Y1.2673 
G01 X-0.3588 Y1.2679 
G01 X-0.3596 Y1.2684 
G01 X-0.3603 Y1.2691 
G01 X-0.3611 Y1.2697 
G01 X-0.3617 Y1.2704 
G01 X-0.3623 Y1.2711 
G01 X-0.3628 Y1.2719 
G01 X-0.3634 Y1.2727 
G01 X-0.3638 Y1.2736 
G01 X-0.3642 Y1.2743 
G01 X-0.3759 Y1.2860 
G01 X-0.3772 Y1.2866 
G01 X-0.3785 Y1.2870 
G01 X-0.3790 Y1.2873 
G01 X-0.3795 Y1.2875 
G01 X-0.3806 Y1.2883 
G01 X-0.3817 Y1.2891 
G01 X-0.3821 Y1.2895 
G01 X-0.3826 Y1.2898 
G01 X-0.3834 Y1.2909 
G01 X-0.3843 Y1.2919 
G01 X-0.3845 Y1.2924 
G01 X-0.3849 Y1.2929 
G01 X-0.3854 Y1.2941 
G01 X-0.3860 Y1.2953 
G01 X-0.3861 Y1.2959 
G01 X-0.3863 Y1.2964 
G01 X-0.3865 Y1.2977 
G01 X-0.3868 Y1.2990 
G01 X-0.3868 Y1.2996 
G01 X-0.3868 Y1.3002 
G01 X-0.3867 Y1.3015 
G01 X-0.3866 Y1.3029 
G01 X-0.3864 Y1.3034 
G01 X-0.3863 Y1.3040 
G01 X-0.3858 Y1.3052 
G01 X-0.3854 Y1.3065 
G01 X-0.3851 Y1.3070 
G01 X-0.3849 Y1.3075 
G01 X-0.3841 Y1.3086 
G01 X-0.3833 Y1.3097 
G01 X-0.3829 Y1.3101 
G01 X-0.3826 Y1.3105 
G01 X-0.3815 Y1.3113 
G01 X-0.3805 Y1.3122 
G01 X-0.3800 Y1.3125 
G01 X-0.3795 Y1.3129 
G01 X-0.3783 Y1.3134 
G01 X-0.3777 Y1.3137 
G01 X-0.3723 Y1.3176 
G01 X-0.3676 Y1.3223 
G01 X-0.3637 Y1.3277 
G01 X-0.3606 Y1.3337 
G01 X-0.3600 Y1.3355 
G01 X-0.3611 Y1.3355 
G01 X-0.3615 Y1.3341 
G01 X-0.3645 Y1.3282 
G01 X-0.3683 Y1.3230 
G01 X-0.3730 Y1.3183 
G01 X-0.3782 Y1.3145 
G01 X-0.3841 Y1.3115 
G01 X-0.3903 Y1.3095 
G01 X-0.3967 Y1.3085 
G01 X-0.4033 Y1.3085 
G01 X-0.4097 Y1.3095 
G01 X-0.4159 Y1.3115 
G01 X-0.4218 Y1.3145 
G01 X-0.4270 Y1.3183 
G01 X-0.4317 Y1.3230 
G01 X-0.4355 Y1.3282 
G01 X-0.4385 Y1.3341 
G01 X-0.4405 Y1.3403 
G01 X-0.4415 Y1.3467 
G01 X-0.4415 Y1.3533 
G01 X-0.4405 Y1.3597 
G01 X-0.4385 Y1.3659 
G01 X-0.4355 Y1.3718 
G01 X-0.4317 Y1.3770 
G01 X-0.4270 Y1.3817 
G01 X-0.4218 Y1.3855 
G01 X-0.4159 Y1.3885 
G01 X-0.4097 Y1.3905 
G01 X-0.4033 Y1.3915 
G01 X-0.3967 Y1.3915 
G01 X-0.3903 Y1.3905 
G01 X-0.3841 Y1.3885 
G01 X-0.3782 Y1.3855 
G01 X-0.3730 Y1.3817 
G01 X-0.3683 Y1.3770 
G01 X-0.3645 Y1.3718 
G01 X-0.3615 Y1.3659 
G01 X-0.3611 Y1.3645 
G01 X-0.3600 Y1.3645 
G01 X-0.3606 Y1.3663 
G01 X-0.3637 Y1.3723 
G01 X-0.3676 Y1.3777 
G01 X-0.3723 Y1.3824 
G01 X-0.3777 Y1.3863 
G01 X-0.3783 Y1.3866 
G01 X-0.3795 Y1.3871 
G01 X-0.3800 Y1.3875 
G01 X-0.3805 Y1.3878 
G01 X-0.3815 Y1.3887 
G01 X-0.3826 Y1.3895 
G01 X-0.3829 Y1.3899 
G01 X-0.3833 Y1.3903 
G01 X-0.3841 Y1.3914 
G01 X-0.3849 Y1.3925 
G01 X-0.3851 Y1.3930 
G01 X-0.3854 Y1.3935 
G01 X-0.3858 Y1.3948 
G01 X-0.3863 Y1.3960 
G01 X-0.3864 Y1.3966 
G01 X-0.3866 Y1.3971 
G01 X-0.3867 Y1.3985 
G01 X-0.3868 Y1.3998 
G01 X-0.3868 Y1.4004 
G01 X-0.3868 Y1.4010 
G01 X-0.3865 Y1.4023 
G01 X-0.3863 Y1.4036 
G01 X-0.3861 Y1.4041 
G01 X-0.3860 Y1.4047 
G01 X-0.3854 Y1.4059 
G01 X-0.3849 Y1.4071 
G01 X-0.3845 Y1.4076 
G01 X-0.3843 Y1.4081 
G01 X-0.3834 Y1.4091 
G01 X-0.3826 Y1.4102 
G01 X-0.3821 Y1.4105 
G01 X-0.3817 Y1.4109 
G01 X-0.3806 Y1.4117 
G01 X-0.3795 Y1.4125 
G01 X-0.3790 Y1.4127 
G01 X-0.3785 Y1.4130 
G01 X-0.3772 Y1.4134 
G01 X-0.3759 Y1.4140 
G01 X-0.3640 Y1.4259 
G01 X-0.3575 Y1.4415 
G01 X-0.3575 Y1.4585 
G01 X-0.3640 Y1.4741 
G01 X-0.3759 Y1.4860 
G01 X-0.3772 Y1.4866 
G01 X-0.3785 Y1.4870 
G01 X-0.3790 Y1.4873 
G01 X-0.3795 Y1.4875 
G01 X-0.3806 Y1.4883 
G01 X-0.3817 Y1.4891 
G01 X-0.3821 Y1.4895 
G01 X-0.3826 Y1.4898 
G01 X-0.3834 Y1.4909 
G01 X-0.3843 Y1.4919 
G01 X-0.3845 Y1.4924 
G01 X-0.3849 Y1.4929 
G01 X-0.3854 Y1.4941 
G01 X-0.3860 Y1.4953 
G01 X-0.3861 Y1.4959 
G01 X-0.3863 Y1.4964 
G01 X-0.3865 Y1.4977 
G01 X-0.3868 Y1.4990 
G01 X-0.3868 Y1.4996 
G01 X-0.3868 Y1.5002 
G01 X-0.3867 Y1.5015 
G01 X-0.3866 Y1.5029 
G01 X-0.3864 Y1.5034 
G01 X-0.3863 Y1.5040 
G01 X-0.3858 Y1.5052 
G01 X-0.3854 Y1.5065 
G01 X-0.3851 Y1.5070 
G01 X-0.3849 Y1.5075 
G01 X-0.3841 Y1.5086 
G01 X-0.3833 Y1.5097 
G01 X-0.3829 Y1.5101 
G01 X-0.3826 Y1.5105 
G01 X-0.3815 Y1.5113 
G01 X-0.3805 Y1.5122 
G01 X-0.3800 Y1.5125 
G01 X-0.3795 Y1.5129 
G01 X-0.3783 Y1.5134 
G01 X-0.3777 Y1.5137 
G01 X-0.3723 Y1.5176 
G01 X-0.3676 Y1.5223 
G01 X-0.3637 Y1.5277 
G01 X-0.3606 Y1.5337 
G01 X-0.3600 Y1.5355 
G01 X-0.3611 Y1.5355 
G01 X-0.3615 Y1.5341 
G01 X-0.3645 Y1.5282 
G01 X-0.3683 Y1.5230 
G01 X-0.3730 Y1.5183 
G01 X-0.3782 Y1.5145 
G01 X-0.3841 Y1.5115 
G01 X-0.3903 Y1.5095 
G01 X-0.3967 Y1.5085 
G01 X-0.4033 Y1.5085 
G01 X-0.4097 Y1.5095 
G01 X-0.4159 Y1.5115 
G01 X-0.4218 Y1.5145 
G01 X-0.4270 Y1.5183 
G01 X-0.4317 Y1.5230 
G01 X-0.4355 Y1.5282 
G01 X-0.4385 Y1.5341 
G01 X-0.4405 Y1.5403 
G01 X-0.4415 Y1.5467 
G01 X-0.4415 Y1.5533 
G01 X-0.4405 Y1.5597 
G01 X-0.4385 Y1.5659 
G01 X-0.4355 Y1.5718 
G01 X-0.4317 Y1.5770 
G01 X-0.4270 Y1.5817 
G01 X-0.4218 Y1.5855 
G01 X-0.4159 Y1.5885 
G01 X-0.4097 Y1.5905 
G01 X-0.4033 Y1.5915 
G01 X-0.3967 Y1.5915 
G01 X-0.3903 Y1.5905 
G01 X-0.3841 Y1.5885 
G01 X-0.3782 Y1.5855 
G01 X-0.3730 Y1.5817 
G01 X-0.3683 Y1.5770 
G01 X-0.3645 Y1.5718 
G01 X-0.3615 Y1.5659 
G01 X-0.3611 Y1.5645 
G01 X-0.3600 Y1.5645 
G01 X-0.3606 Y1.5663 
G01 X-0.3637 Y1.5723 
G01 X-0.3676 Y1.5777 
G01 X-0.3723 Y1.5824 
G01 X-0.3777 Y1.5863 
G01 X-0.3783 Y1.5866 
G01 X-0.3795 Y1.5871 
G01 X-0.3800 Y1.5875 
G01 X-0.3805 Y1.5878 
G01 X-0.3815 Y1.5887 
G01 X-0.3826 Y1.5895 
G01 X-0.3829 Y1.5899 
G01 X-0.3833 Y1.5903 
G01 X-0.3841 Y1.5914 
G01 X-0.3849 Y1.5925 
G01 X-0.3851 Y1.5930 
G01 X-0.3854 Y1.5935 
G01 X-0.3858 Y1.5948 
G01 X-0.3863 Y1.5960 
G01 X-0.3864 Y1.5966 
G01 X-0.3866 Y1.5971 
G01 X-0.3867 Y1.5985 
G01 X-0.3868 Y1.5998 
G01 X-0.3868 Y1.6004 
G01 X-0.3868 Y1.6010 
G01 X-0.3865 Y1.6023 
G01 X-0.3863 Y1.6036 
G01 X-0.3861 Y1.6041 
G01 X-0.3860 Y1.6047 
G01 X-0.3854 Y1.6059 
G01 X-0.3849 Y1.6071 
G01 X-0.3845 Y1.6076 
G01 X-0.3843 Y1.6081 
G01 X-0.3834 Y1.6091 
G01 X-0.3826 Y1.6102 
G01 X-0.3821 Y1.6105 
G01 X-0.3817 Y1.6109 
G01 X-0.3806 Y1.6117 
G01 X-0.3795 Y1.6125 
G01 X-0.3790 Y1.6127 
G01 X-0.3785 Y1.6130 
G01 X-0.3772 Y1.6134 
G01 X-0.3759 Y1.6140 
G01 X-0.3640 Y1.6259 
G01 X-0.3575 Y1.6415 
G01 X-0.3575 Y1.6585 
G01 X-0.3640 Y1.6741 
G01 X-0.3759 Y1.6860 
G01 X-0.3772 Y1.6866 
G01 X-0.3785 Y1.6870 
G01 X-0.3790 Y1.6873 
G01 X-0.3795 Y1.6875 
G01 X-0.3806 Y1.6883 
G01 X-0.3817 Y1.6891 
G01 X-0.3821 Y1.6895 
G01 X-0.3826 Y1.6898 
G01 X-0.3834 Y1.6909 
G01 X-0.3843 Y1.6919 
G01 X-0.3845 Y1.6924 
G01 X-0.3849 Y1.6929 
G01 X-0.3854 Y1.6941 
G01 X-0.3860 Y1.6953 
G01 X-0.3861 Y1.6959 
G01 X-0.3863 Y1.6964 
G01 X-0.3865 Y1.6977 
G01 X-0.3868 Y1.6990 
G01 X-0.3868 Y1.6996 
G01 X-0.3868 Y1.7002 
G01 X-0.3867 Y1.7015 
G01 X-0.3866 Y1.7029 
G01 X-0.3864 Y1.7034 
G01 X-0.3863 Y1.7040 
G01 X-0.3858 Y1.7052 
G01 X-0.3854 Y1.7065 
G01 X-0.3851 Y1.7070 
G01 X-0.3849 Y1.7075 
G01 X-0.3841 Y1.7086 
G01 X-0.3833 Y1.7097 
G01 X-0.3829 Y1.7101 
G01 X-0.3826 Y1.7105 
G01 X-0.3815 Y1.7113 
G01 X-0.3805 Y1.7122 
G01 X-0.3800 Y1.7125 
G01 X-0.3795 Y1.7129 
G01 X-0.3783 Y1.7134 
G01 X-0.3777 Y1.7137 
G01 X-0.3723 Y1.7176 
G01 X-0.3676 Y1.7223 
G01 X-0.3637 Y1.7277 
G01 X-0.3606 Y1.7337 
G01 X-0.3600 Y1.7355 
G01 X-0.3611 Y1.7355 
G01 X-0.3615 Y1.7341 
G01 X-0.3645 Y1.7282 
G01 X-0.3683 Y1.7230 
G01 X-0.3730 Y1.7183 
G01 X-0.3782 Y1.7145 
G01 X-0.3841 Y1.7115 
G01 X-0.3903 Y1.7095 
G01 X-0.3967 Y1.7085 
G01 X-0.4033 Y1.7085 
G01 X-0.4097 Y1.7095 
G01 X-0.4159 Y1.7115 
G01 X-0.4218 Y1.7145 
G01 X-0.4270 Y1.7183 
G01 X-0.4317 Y1.7230 
G01 X-0.4355 Y1.7282 
G01 X-0.4385 Y1.7341 
G01 X-0.4405 Y1.7403 
G01 X-0.4415 Y1.7467 
G01 X-0.4415 Y1.7533 
G01 X-0.4405 Y1.7597 
G01 X-0.4385 Y1.7659 
G01 X-0.4355 Y1.7718 
G01 X-0.4317 Y1.7770 
G01 X-0.4270 Y1.7817 
G01 X-0.4218 Y1.7855 
G01 X-0.4159 Y1.7885 
G01 X-0.4097 Y1.7905 
G01 X-0.4033 Y1.7915 
G01 X-0.3967 Y1.7915 
G01 X-0.3903 Y1.7905 
G01 X-0.3841 Y1.7885 
G01 X-0.3782 Y1.7855 
G01 X-0.3730 Y1.7817 
G01 X-0.3683 Y1.7770 
G01 X-0.3645 Y1.7718 
G01 X-0.3615 Y1.7659 
G01 X-0.3611 Y1.7645 
G01 X-0.3600 Y1.7645 
G01 X-0.3606 Y1.7663 
G01 X-0.3637 Y1.7723 
G01 X-0.3676 Y1.7777 
G01 X-0.3723 Y1.7824 
G01 X-0.3777 Y1.7863 
G01 X-0.3783 Y1.7866 
G01 X-0.3795 Y1.7871 
G01 X-0.3800 Y1.7875 
G01 X-0.3805 Y1.7878 
G01 X-0.3815 Y1.7887 
G01 X-0.3826 Y1.7895 
G01 X-0.3829 Y1.7899 
G01 X-0.3833 Y1.7903 
G01 X-0.3841 Y1.7914 
G01 X-0.3849 Y1.7925 
G01 X-0.3851 Y1.7930 
G01 X-0.3854 Y1.7935 
G01 X-0.3858 Y1.7948 
G01 X-0.3863 Y1.7960 
G01 X-0.3864 Y1.7966 
G01 X-0.3866 Y1.7971 
G01 X-0.3867 Y1.7985 
G01 X-0.3868 Y1.7998 
G01 X-0.3868 Y1.8004 
G01 X-0.3868 Y1.8010 
G01 X-0.3865 Y1.8023 
G01 X-0.3863 Y1.8036 
G01 X-0.3861 Y1.8041 
G01 X-0.3860 Y1.8047 
G01 X-0.3854 Y1.8059 
G01 X-0.3849 Y1.8071 
G01 X-0.3845 Y1.8076 
G01 X-0.3843 Y1.8081 
G01 X-0.3834 Y1.8091 
G01 X-0.3826 Y1.8102 
G01 X-0.3821 Y1.8105 
G01 X-0.3817 Y1.8109 
G01 X-0.3806 Y1.8117 
G01 X-0.3795 Y1.8125 
G01 X-0.3790 Y1.8127 
G01 X-0.3785 Y1.8130 
G01 X-0.3772 Y1.8134 
G01 X-0.3759 Y1.8140 
G01 X-0.3640 Y1.8259 
G01 X-0.3575 Y1.8415 
G01 X-0.3575 Y1.8585 
G01 X-0.3640 Y1.8741 
G01 X-0.3759 Y1.8860 
G01 X-0.3772 Y1.8866 
G01 X-0.3785 Y1.8870 
G01 X-0.3790 Y1.8873 
G01 X-0.3795 Y1.8875 
G01 X-0.3806 Y1.8883 
G01 X-0.3817 Y1.8891 
G01 X-0.3821 Y1.8895 
G01 X-0.3826 Y1.8898 
G01 X-0.3834 Y1.8909 
G01 X-0.3843 Y1.8919 
G01 X-0.3845 Y1.8924 
G01 X-0.3849 Y1.8929 
G01 X-0.3854 Y1.8941 
G01 X-0.3860 Y1.8953 
G01 X-0.3861 Y1.8959 
G01 X-0.3863 Y1.8964 
G01 X-0.3865 Y1.8977 
G01 X-0.3868 Y1.8990 
G01 X-0.3868 Y1.8996 
G01 X-0.3868 Y1.9002 
G01 X-0.3867 Y1.9015 
G01 X-0.3866 Y1.9029 
G01 X-0.3864 Y1.9034 
G01 X-0.3863 Y1.9040 
G01 X-0.3858 Y1.9052 
G01 X-0.3854 Y1.9065 
G01 X-0.3851 Y1.9070 
G01 X-0.3849 Y1.9075 
G01 X-0.3841 Y1.9086 
G01 X-0.3833 Y1.9097 
G01 X-0.3829 Y1.9101 
G01 X-0.3826 Y1.9105 
G01 X-0.3815 Y1.9113 
G01 X-0.3805 Y1.9122 
G01 X-0.3800 Y1.9125 
G01 X-0.3795 Y1.9129 
G01 X-0.3783 Y1.9134 
G01 X-0.3777 Y1.9137 
G01 X-0.3723 Y1.9176 
G01 X-0.3676 Y1.9223 
G01 X-0.3637 Y1.9277 
G01 X-0.3606 Y1.9337 
G01 X-0.3600 Y1.9355 
G01 X-0.3611 Y1.9355 
G01 X-0.3615 Y1.9341 
G01 X-0.3645 Y1.9282 
G01 X-0.3683 Y1.9230 
G01 X-0.3730 Y1.9183 
G01 X-0.3782 Y1.9145 
G01 X-0.3841 Y1.9115 
G01 X-0.3903 Y1.9095 
G01 X-0.3967 Y1.9085 
G01 X-0.4033 Y1.9085 
G01 X-0.4097 Y1.9095 
G01 X-0.4159 Y1.9115 
G01 X-0.4218 Y1.9145 
G01 X-0.4270 Y1.9183 
G01 X-0.4317 Y1.9230 
G01 X-0.4355 Y1.9282 
G01 X-0.4385 Y1.9341 
G01 X-0.4405 Y1.9403 
G01 X-0.4415 Y1.9467 
G01 X-0.4415 Y1.9533 
G01 X-0.4405 Y1.9597 
G01 X-0.4385 Y1.9659 
G01 X-0.4355 Y1.9718 
G01 X-0.4317 Y1.9770 
G01 X-0.4270 Y1.9817 
G01 X-0.4218 Y1.9855 
G01 X-0.4159 Y1.9885 
G01 X-0.4097 Y1.9905 
G01 X-0.4033 Y1.9915 
G01 X-0.3967 Y1.9915 
G01 X-0.3903 Y1.9905 
G01 X-0.3841 Y1.9885 
G01 X-0.3782 Y1.9855 
G01 X-0.3730 Y1.9817 
G01 X-0.3683 Y1.9770 
G01 X-0.3645 Y1.9718 
G01 X-0.3615 Y1.9659 
G01 X-0.3611 Y1.9645 
G01 X-0.3600 Y1.9645 
G01 X-0.3606 Y1.9663 
G01 X-0.3637 Y1.9723 
G01 X-0.3676 Y1.9777 
G01 X-0.3723 Y1.9824 
G01 X-0.3777 Y1.9863 
G01 X-0.3783 Y1.9866 
G01 X-0.3795 Y1.9871 
G01 X-0.3800 Y1.9875 
G01 X-0.3805 Y1.9878 
G01 X-0.3815 Y1.9887 
G01 X-0.3826 Y1.9895 
G01 X-0.3829 Y1.9899 
G01 X-0.3833 Y1.9903 
G01 X-0.3841 Y1.9914 
G01 X-0.3849 Y1.9925 
G01 X-0.3851 Y1.9930 
G01 X-0.3854 Y1.9935 
G01 X-0.3858 Y1.9948 
G01 X-0.3863 Y1.9960 
G01 X-0.3864 Y1.9966 
G01 X-0.3866 Y1.9971 
G01 X-0.3867 Y1.9985 
G01 X-0.3868 Y1.9998 
G01 X-0.3868 Y2.0004 
G01 X-0.3868 Y2.0010 
G01 X-0.3865 Y2.0023 
G01 X-0.3863 Y2.0036 
G01 X-0.3861 Y2.0041 
G01 X-0.3860 Y2.0047 
G01 X-0.3854 Y2.0059 
G01 X-0.3849 Y2.0071 
G01 X-0.3845 Y2.0076 
G01 X-0.3843 Y2.0081 
G01 X-0.3834 Y2.0091 
G01 X-0.3826 Y2.0102 
G01 X-0.3821 Y2.0105 
G01 X-0.3817 Y2.0109 
G01 X-0.3806 Y2.0117 
G01 X-0.3795 Y2.0125 
G01 X-0.3790 Y2.0127 
G01 X-0.3785 Y2.0130 
G01 X-0.3772 Y2.0134 
G01 X-0.3759 Y2.0140 
G01 X-0.3642 Y2.0257 
G01 X-0.3638 Y2.0264 
G01 X-0.3634 Y2.0273 
G01 X-0.3628 Y2.0281 
G01 X-0.3623 Y2.0289 
G01 X-0.3617 Y2.0296 
G01 X-0.3611 Y2.0303 
G01 X-0.3603 Y2.0309 
G01 X-0.3596 Y2.0316 
G01 X-0.3588 Y2.0321 
G01 X-0.3580 Y2.0327 
G01 X-0.3572 Y2.0330 
G01 X-0.3563 Y2.0335 
G01 X-0.3554 Y2.0338 
G01 X-0.3545 Y2.0341 
G01 X-0.3536 Y2.0343 
G01 X-0.3526 Y2.0345 
G01 X-0.3517 Y2.0345 
G01 X-0.3507 Y2.0346 
G01 X-0.3498 Y2.0345 
G01 X-0.2969 Y2.0345 
G01 X-0.2912 Y2.0369 
G01 X-0.2869 Y2.0412 
G01 X-0.2845 Y2.0469 
G01 X-0.2845 Y2.8906 
G01 X-0.2869 Y2.8963 
G01 X-0.2946 Y2.9040 
G01 X-0.3912 Y3.0006 
G01 X-0.3969 Y3.0030 
G01 X-2.2685 Y3.0030 
G01 X-2.2695 Y3.0029 
G01 X-2.2704 Y3.0030 
G01 X-2.2714 Y3.0030 
G01 X-2.2723 Y3.0032 
G01 X-2.2733 Y3.0034 
G01 X-2.2742 Y3.0037 
G01 X-2.2751 Y3.0040 
G01 X-2.2759 Y3.0045 
G01 X-2.2768 Y3.0048 
G01 X-2.2776 Y3.0054 
G01 X-2.2784 Y3.0059 
G01 X-2.2791 Y3.0066 
G01 X-2.2798 Y3.0072 
G01 X-2.2804 Y3.0079 
G01 X-2.2811 Y3.0086 
G01 X-2.2816 Y3.0094 
G01 X-2.2822 Y3.0102 
G01 X-2.2825 Y3.0111 
G01 X-2.2829 Y3.0117 
G01 X-2.2884 Y3.0173 
G01 X-2.2959 Y3.0204 
G01 X-2.3041 Y3.0204 
G01 X-2.3115 Y3.0173 
G01 X-2.3169 Y3.0120 
G01 X-2.3196 Y3.0093 
G01 X-2.3221 Y3.0078 
G01 X-2.3229 Y3.0074 
G01 X-2.3265 Y3.0064 
G01 X-2.3304 Y3.0064 
G01 X-2.3323 Y3.0069 
G01 X-2.3341 Y3.0074 
G01 X-2.3372 Y3.0092 
G01 X-2.3374 Y3.0093 
G01 X-2.4156 Y3.0875 
G01 X-2.4175 Y3.0908 
G01 X-2.4185 Y3.0945 
G01 X-2.4185 Y3.1323 
G01 X-2.4233 Y3.1438 
G01 X-2.4322 Y3.1527 
G01 X-2.4437 Y3.1575 
G01 X-2.4563 Y3.1575 
G01 X-2.4678 Y3.1527 
G01 X-2.4767 Y3.1438 
G01 X-2.4815 Y3.1323 
G01 X-2.4815 Y3.0677 
G01 X-2.4767 Y3.0562 
G01 X-2.4678 Y3.0473 
G01 X-2.4563 Y3.0425 
G01 X-2.4437 Y3.0425 
G01 X-2.4328 Y3.0470 
G01 X-2.4320 Y3.0475 
G01 X-2.4311 Y3.0477 
G01 X-2.4302 Y3.0481 
G01 X-2.4292 Y3.0482 
G01 X-2.4283 Y3.0485 
G01 X-2.4274 Y3.0485 
G01 X-2.4264 Y3.0486 
G01 X-2.4255 Y3.0485 
G01 X-2.4245 Y3.0485 
G01 X-2.4236 Y3.0482 
G01 X-2.4226 Y3.0481 
G01 X-2.4217 Y3.0477 
G01 X-2.4208 Y3.0475 
G01 X-2.4200 Y3.0470 
G01 X-2.4191 Y3.0466 
G01 X-2.4183 Y3.0461 
G01 X-2.4175 Y3.0456 
G01 X-2.4168 Y3.0449 
G01 X-2.4161 Y3.0443 
G01 X-2.4155 Y3.0436 
G01 X-2.3233 Y2.9514 
G01 X-2.3214 Y2.9481 
G01 X-2.3204 Y2.9444 
G01 X-2.3204 Y2.9406 
G01 X-2.3214 Y2.9369 
G01 X-2.3233 Y2.9336 
G01 X-2.3260 Y2.9309 
G01 X-2.3293 Y2.9290 
G01 X-2.3330 Y2.9280 
G01 X-3.0156 Y2.9280 
G01 X-3.0213 Y2.9256 
G01 X-3.0256 Y2.9213 
G01 X-3.0280 Y2.9156 
G01 X-3.0280 Y2.7094 
G01 X-3.0256 Y2.7037 
G01 X-3.0202 Y2.6983 
G01 X-2.9965 Y2.6746 
G01 X-2.9957 Y2.6740 
G01 X-2.9951 Y2.6732 
G01 X-2.9944 Y2.6725 
G01 X-2.9940 Y2.6717 
G01 X-2.9934 Y2.6709 
G01 X-2.9930 Y2.6701 
G01 X-2.9925 Y2.6692 
G01 X-2.9923 Y2.6683 
G01 X-2.9919 Y2.6674 
G01 X-2.9918 Y2.6665 
G01 X-2.9916 Y2.6655 
G01 X-2.9916 Y2.6646 
G01 X-2.9914 Y2.6636 
G01 X-2.9916 Y2.6627 
G01 X-2.9916 Y2.6617 
G01 X-2.9918 Y2.6608 
G01 X-2.9919 Y2.6598 
G01 X-2.9923 Y2.6590 
G01 X-2.9925 Y2.6582 
G01 X-2.9925 Y2.6415 
G01 X-2.9860 Y2.6259 
G01 X-2.9741 Y2.6140 
G01 X-2.9725 Y2.6133 
G01 X-2.9709 Y2.6127 
G01 X-2.9701 Y2.6120 
G01 X-2.9679 Y2.6103 
G01 X-2.9663 Y2.6083 
G01 X-2.9656 Y2.6073 
G01 X-2.9648 Y2.6055 
G01 X-2.9641 Y2.6038 
G01 X-2.9639 Y2.6020 
G01 X-2.9636 Y2.6000 
G01 X-2.9639 Y2.5980 
G01 X-2.9641 Y2.5962 
G01 X-2.9648 Y2.5946 
G01 X-2.9656 Y2.5927 
G01 X-2.9662 Y2.5918 
G01 X-2.9679 Y2.5897 
G01 X-2.9700 Y2.5881 
G01 X-2.9709 Y2.5873 
G01 X-2.9732 Y2.5864 
G01 X-2.9741 Y2.5860 
G01 X-2.9860 Y2.5741 
G01 X-2.9925 Y2.5585 
G01 X-2.9925 Y2.5415 
G01 X-2.9860 Y2.5259 
G01 X-2.9741 Y2.5140 
G01 X-2.9716 Y2.5129 
G01 X-2.9709 Y2.5127 
G01 X-2.9685 Y2.5108 
G01 X-2.9679 Y2.5103 
G01 X-2.9656 Y2.5073 
G01 X-2.9644 Y2.5044 
G01 X-2.9641 Y2.5038 
G01 X-2.9637 Y2.5005 
G01 X-2.9636 Y2.5000 
G01 X-2.9641 Y2.4965 
G01 X-2.9641 Y2.4962 
G01 X-2.9652 Y2.4935 
G01 X-2.9656 Y2.4927 
G01 X-2.9674 Y2.4903 
G01 X-2.9679 Y2.4897 
G01 X-2.9709 Y2.4873 
G01 X-2.9741 Y2.4860 
G01 X-2.9860 Y2.4741 
G01 X-2.9925 Y2.4585 
G01 X-2.9925 Y2.4415 
G01 X-2.9860 Y2.4259 
G01 X-2.9741 Y2.4140 
G01 X-2.9725 Y2.4133 
G01 X-2.9709 Y2.4127 
G01 X-2.9701 Y2.4120 
G01 X-2.9679 Y2.4103 
G01 X-2.9663 Y2.4083 
G01 X-2.9656 Y2.4073 
G01 X-2.9648 Y2.4055 
G01 X-2.9641 Y2.4038 
G01 X-2.9639 Y2.4020 
G01 X-2.9636 Y2.4000 
G01 X-2.9639 Y2.3980 
G01 X-2.9641 Y2.3962 
G01 X-2.9648 Y2.3946 
G01 X-2.9656 Y2.3927 
G01 X-2.9662 Y2.3918 
G01 X-2.9679 Y2.3897 
G01 X-2.9700 Y2.3881 
G01 X-2.9709 Y2.3873 
G01 X-2.9732 Y2.3864 
G01 X-2.9741 Y2.3860 
G01 X-2.9860 Y2.3741 
G01 X-2.9925 Y2.3585 
G01 X-2.9925 Y2.3415 
G01 X-2.9860 Y2.3259 
G01 X-2.9741 Y2.3140 
G01 X-2.9733 Y2.3136 
G01 X-2.9709 Y2.3127 
G01 X-2.9701 Y2.3120 
G01 X-2.9679 Y2.3103 
G01 X-2.9663 Y2.3083 
G01 X-2.9656 Y2.3073 
G01 X-2.9648 Y2.3055 
G01 X-2.9641 Y2.3038 
G01 X-2.9639 Y2.3020 
G01 X-2.9636 Y2.3000 
G01 X-2.9639 Y2.2980 
G01 X-2.9641 Y2.2962 
G01 X-2.9648 Y2.2946 
G01 X-2.9656 Y2.2927 
G01 X-2.9662 Y2.2918 
G01 X-2.9679 Y2.2897 
G01 X-2.9700 Y2.2881 
G01 X-2.9709 Y2.2873 
G01 X-2.9724 Y2.2867 
G01 X-2.9741 Y2.2860 
G01 X-2.9860 Y2.2741 
G01 X-2.9925 Y2.2585 
G01 X-2.9925 Y2.2415 
G01 X-2.9860 Y2.2259 
G01 X-2.9741 Y2.2140 
G01 X-2.9725 Y2.2133 
G01 X-2.9709 Y2.2127 
G01 X-2.9701 Y2.2120 
G01 X-2.9679 Y2.2103 
G01 X-2.9663 Y2.2083 
G01 X-2.9656 Y2.2073 
G01 X-2.9648 Y2.2055 
G01 X-2.9641 Y2.2038 
G01 X-2.9639 Y2.2020 
G01 X-2.9636 Y2.2000 
G01 X-2.9639 Y2.1980 
G01 X-2.9641 Y2.1962 
G01 X-2.9648 Y2.1946 
G01 X-2.9656 Y2.1927 
G01 X-2.9662 Y2.1918 
G01 X-2.9679 Y2.1897 
G01 X-2.9700 Y2.1881 
G01 X-2.9709 Y2.1873 
G01 X-2.9732 Y2.1864 
G01 X-2.9741 Y2.1860 
G01 X-2.9860 Y2.1741 
G01 X-2.9925 Y2.1585 
G01 X-2.9925 Y2.1415 
G01 X-2.9860 Y2.1259 
G01 X-2.9741 Y2.1140 
G01 X-2.9725 Y2.1133 
G01 X-2.9709 Y2.1127 
G01 X-2.9701 Y2.1120 
G01 X-2.9679 Y2.1103 
G01 X-2.9663 Y2.1083 
G01 X-2.9656 Y2.1073 
G01 X-2.9648 Y2.1055 
G01 X-2.9641 Y2.1038 
G01 X-2.9639 Y2.1020 
G01 X-2.9636 Y2.1000 
G01 X-2.9639 Y2.0980 
G01 X-2.9641 Y2.0962 
G01 X-2.9648 Y2.0946 
G01 X-2.9656 Y2.0927 
G01 X-2.9662 Y2.0918 
G01 X-2.9679 Y2.0897 
G01 X-2.9700 Y2.0881 
G01 X-2.9709 Y2.0873 
G01 X-2.9732 Y2.0864 
G01 X-2.9741 Y2.0860 
G01 X-2.9860 Y2.0741 
G01 X-2.9925 Y2.0585 
G01 X-2.9925 Y2.0415 
G01 X-2.9860 Y2.0259 
G01 X-2.9741 Y2.0140 
G01 X-2.9725 Y2.0133 
G01 X-2.9709 Y2.0127 
G01 X-2.9701 Y2.0120 
G01 X-2.9679 Y2.0103 
G01 X-2.9663 Y2.0083 
G01 X-2.9656 Y2.0073 
G01 X-2.9648 Y2.0055 
G01 X-2.9641 Y2.0038 
G01 X-2.9639 Y2.0020 
G01 X-2.9636 Y2.0000 
G01 X-2.9639 Y1.9980 
G01 X-2.9641 Y1.9962 
G01 X-2.9648 Y1.9946 
G01 X-2.9656 Y1.9927 
G01 X-2.9662 Y1.9918 
G01 X-2.9679 Y1.9897 
G01 X-2.9700 Y1.9881 
G01 X-2.9709 Y1.9873 
G01 X-2.9732 Y1.9864 
G01 X-2.9741 Y1.9860 
G01 X-2.9860 Y1.9741 
G01 X-2.9925 Y1.9585 
G01 X-2.9925 Y1.9415 
G01 X-2.9860 Y1.9259 
G01 X-2.9741 Y1.9140 
G01 X-2.9725 Y1.9133 
G01 X-2.9709 Y1.9127 
G01 X-2.9701 Y1.9120 
G01 X-2.9679 Y1.9103 
G01 X-2.9663 Y1.9083 
G01 X-2.9656 Y1.9073 
G01 X-2.9648 Y1.9055 
G01 X-2.9641 Y1.9038 
G01 X-2.9639 Y1.9020 
G01 X-2.9636 Y1.9000 
G01 X-2.9639 Y1.8980 
G01 X-2.9641 Y1.8962 
G01 X-2.9648 Y1.8946 
G01 X-2.9656 Y1.8927 
G01 X-2.9662 Y1.8918 
G01 X-2.9679 Y1.8897 
G01 X-2.9700 Y1.8881 
G01 X-2.9709 Y1.8873 
G01 X-2.9732 Y1.8864 
G01 X-2.9741 Y1.8860 
G01 X-2.9860 Y1.8741 
G01 X-2.9925 Y1.8585 
G01 X-2.9925 Y1.8415 
G01 X-2.9860 Y1.8259 
G01 X-2.9741 Y1.8140 
G01 X-2.9725 Y1.8133 
G01 X-2.9709 Y1.8127 
G01 X-2.9701 Y1.8120 
G01 X-2.9679 Y1.8103 
G01 X-2.9663 Y1.8083 
G01 X-2.9656 Y1.8073 
G01 X-2.9648 Y1.8055 
G01 X-2.9641 Y1.8038 
G01 X-2.9639 Y1.8020 
G01 X-2.9636 Y1.8000 
G01 X-2.9639 Y1.7980 
G01 X-2.9641 Y1.7962 
G01 X-2.9648 Y1.7946 
G01 X-2.9656 Y1.7927 
G01 X-2.9662 Y1.7918 
G01 X-2.9679 Y1.7897 
G01 X-2.9700 Y1.7881 
G01 X-2.9709 Y1.7873 
G01 X-2.9732 Y1.7864 
G01 X-2.9741 Y1.7860 
G01 X-2.9860 Y1.7741 
G01 X-2.9925 Y1.7585 
G01 X-2.9925 Y1.7415 
G01 X-2.9860 Y1.7259 
G01 X-2.9741 Y1.7140 
G01 X-2.9725 Y1.7133 
G01 X-2.9709 Y1.7127 
G01 X-2.9701 Y1.7120 
G01 X-2.9679 Y1.7103 
G01 X-2.9663 Y1.7083 
G01 X-2.9656 Y1.7073 
G01 X-2.9648 Y1.7055 
G01 X-2.9641 Y1.7038 
G01 X-2.9639 Y1.7020 
G01 X-2.9636 Y1.7000 
G01 X-2.9639 Y1.6980 
G01 X-2.9641 Y1.6962 
G01 X-2.9648 Y1.6946 
G01 X-2.9656 Y1.6927 
G01 X-2.9662 Y1.6918 
G01 X-2.9679 Y1.6897 
G01 X-2.9700 Y1.6881 
G01 X-2.9709 Y1.6873 
G01 X-2.9732 Y1.6864 
G01 X-2.9741 Y1.6860 
G01 X-2.9860 Y1.6741 
G01 X-2.9925 Y1.6585 
G01 X-2.9925 Y1.6415 
G01 X-2.9860 Y1.6259 
G01 X-2.9741 Y1.6140 
G01 X-2.9725 Y1.6133 
G01 X-2.9709 Y1.6127 
G01 X-2.9701 Y1.6120 
G01 X-2.9679 Y1.6103 
G01 X-2.9663 Y1.6083 
G01 X-2.9656 Y1.6073 
G01 X-2.9648 Y1.6055 
G01 X-2.9641 Y1.6038 
G01 X-2.9639 Y1.6020 
G01 X-2.9636 Y1.6000 
G01 X-2.9639 Y1.5980 
G01 X-2.9641 Y1.5962 
G01 X-2.9648 Y1.5946 
G01 X-2.9656 Y1.5927 
G01 X-2.9662 Y1.5918 
G01 X-2.9679 Y1.5897 
G01 X-2.9700 Y1.5881 
G01 X-2.9709 Y1.5873 
G01 X-2.9732 Y1.5864 
G01 X-2.9741 Y1.5860 
G01 X-2.9860 Y1.5741 
G01 X-2.9925 Y1.5585 
G01 X-2.9925 Y1.5418 
G01 X-2.9923 Y1.5410 
G01 X-2.9919 Y1.5402 
G01 X-2.9918 Y1.5392 
G01 X-2.9916 Y1.5383 
G01 X-2.9916 Y1.5373 
G01 X-2.9914 Y1.5364 
G01 X-2.9916 Y1.5354 
G01 X-2.9916 Y1.5345 
G01 X-2.9918 Y1.5335 
G01 X-2.9919 Y1.5326 
G01 X-2.9923 Y1.5317 
G01 X-2.9925 Y1.5308 
G01 X-2.9930 Y1.5299 
G01 X-2.9934 Y1.5291 
G01 X-2.9940 Y1.5283 
G01 X-2.9944 Y1.5275 
G01 X-2.9951 Y1.5268 
G01 X-2.9957 Y1.5260 
G01 X-2.9965 Y1.5254 
G01 X-3.1206 Y1.4013 
G01 X-3.1256 Y1.3963 
G01 X-3.1280 Y1.3906 
G01 X-3.1280 Y0.3219 
G01 X-3.1256 Y0.3162 
G01 X-3.1213 Y0.3119 
G01 X-3.1156 Y0.3095 
G01 X-2.4331 Y0.3095 
G01 X-2.4313 Y0.3097 
G01 X-2.4294 Y0.3095 
G01 X-1.1719 Y0.3095 
G01 X-1.1662 Y0.3119 
G01 X-1.1345 Y0.3436 
G01 X-1.1339 Y0.3443 
G01 X-1.1332 Y0.3449 
G01 X-1.1325 Y0.3456 
G01 X-1.1317 Y0.3461 
G01 X-1.1309 Y0.3466 
G01 X-1.1300 Y0.3470 
G01 X-1.1292 Y0.3475 
G01 X-1.1283 Y0.3477 
G01 X-1.1274 Y0.3481 
G01 X-1.1264 Y0.3482 
G01 X-1.1255 Y0.3485 
G01 X-1.1245 Y0.3485 
G01 X-1.1236 Y0.3486 
G01 X-1.1226 Y0.3485 
G01 X-1.1217 Y0.3485 
G01 X-1.1208 Y0.3482 
G01 X-1.1198 Y0.3481 
G01 X-1.1189 Y0.3477 
G01 X-1.1180 Y0.3475 
G01 X-1.1172 Y0.3470 
G01 X-1.1063 Y0.3425 
G01 X-1.0937 Y0.3425 
G01 X-1.0822 Y0.3473 
G01 X-1.0733 Y0.3562 
G01 X-1.0685 Y0.3677 
G01 X-1.0685 Y0.4323 
G01 X-1.0711 Y0.4386 
G01 X-1.0716 Y0.4394 
G01 X-1.0718 Y0.4403 
G01 X-1.0722 Y0.4412 
G01 X-1.0723 Y0.4422 
G01 X-1.0726 Y0.4431 
G01 X-1.0726 Y0.4440 
G01 X-1.0727 Y0.4450 
G01 X-1.0726 Y0.4460 
G01 X-1.0726 Y0.4469 
G01 X-1.0723 Y0.4478 
G01 X-1.0722 Y0.4488 
G01 X-1.0718 Y0.4497 
G01 X-1.0716 Y0.4506 
G01 X-1.0711 Y0.4514 
G01 X-1.0707 Y0.4523 
G01 X-1.0702 Y0.4531 
G01 X-1.0697 Y0.4539 
G01 X-1.0690 Y0.4546 
G01 X-1.0684 Y0.4553 
G01 X-1.0677 Y0.4559 
G01 X-1.0670 Y0.4566 
G01 X-1.0662 Y0.4571 
G01 X-1.0654 Y0.4577 
G01 X-1.0645 Y0.4580 
G01 X-1.0637 Y0.4585 
G01 X-1.0628 Y0.4588 
G01 X-1.0619 Y0.4591 
G01 X-1.0609 Y0.4593 
G01 X-1.0600 Y0.4595 
G01 X-1.0590 Y0.4595 
G01 X-1.0581 Y0.4596 
G01 X-1.0571 Y0.4595 
G01 X-1.0429 Y0.4595 
G01 X-1.0419 Y0.4596 
G01 X-1.0410 Y0.4595 
G01 X-1.0400 Y0.4595 
G01 X-1.0391 Y0.4593 
G01 X-1.0381 Y0.4591 
G01 X-1.0372 Y0.4588 
G01 X-1.0363 Y0.4585 
G01 X-1.0355 Y0.4580 
G01 X-1.0346 Y0.4577 
G01 X-1.0338 Y0.4571 
G01 X-1.0330 Y0.4566 
G01 X-1.0323 Y0.4559 
G01 X-1.0316 Y0.4553 
G01 X-1.0310 Y0.4546 
G01 X-1.0303 Y0.4539 
G01 X-1.0298 Y0.4531 
G01 X-1.0293 Y0.4523 
G01 X-1.0289 Y0.4514 
G01 X-1.0284 Y0.4506 
G01 X-1.0282 Y0.4497 
G01 X-1.0278 Y0.4488 
G01 X-1.0277 Y0.4478 
G01 X-1.0274 Y0.4469 
G01 X-1.0274 Y0.4460 
G01 X-1.0273 Y0.4450 
G01 X-1.0274 Y0.4440 
G01 X-1.0274 Y0.4431 
G01 X-1.0277 Y0.4422 
G01 X-1.0278 Y0.4412 
G01 X-1.0282 Y0.4403 
G01 X-1.0284 Y0.4394 
G01 X-1.0289 Y0.4386 
G01 X-1.0315 Y0.4323 
G01 X-1.0315 Y0.3677 
G01 X-1.0267 Y0.3562 
G01 X-1.0178 Y0.3473 
G01 X-1.0127 Y0.3452 
G01 X-1.0118 Y0.3449 
G01 X-1.0110 Y0.3444 
G01 X-1.0101 Y0.3441 
G01 X-1.0093 Y0.3435 
G01 X-1.0085 Y0.3430 
G01 X-1.0078 Y0.3423 
G01 X-1.0071 Y0.3418 
G01 X-1.0065 Y0.3410 
G01 X-1.0058 Y0.3403 
G01 X-1.0053 Y0.3395 
G01 X-1.0047 Y0.3387 
G01 X-1.0044 Y0.3378 
G01 X-1.0039 Y0.3370 
G01 X-1.0036 Y0.3361 
G01 X-1.0033 Y0.3352 
G01 X-1.0031 Y0.3343 
G01 X-1.0029 Y0.3333 
G01 X-1.0029 Y0.3324 
G01 X-1.0028 Y0.3314 
G01 X-1.0029 Y0.3305 
G01 X-1.0029 Y0.3295 
G01 X-1.0031 Y0.3286 
G01 X-1.0033 Y0.3276 
G01 X-1.0036 Y0.3267 
G01 X-1.0039 Y0.3258 
G01 X-1.0044 Y0.3250 
G01 X-1.0047 Y0.3241 
G01 X-1.0053 Y0.3233 
G01 X-1.0058 Y0.3225 
G01 X-1.0065 Y0.3218 
G01 X-1.0071 Y0.3211 
G01 X-1.0078 Y0.3205 
G01 X-1.0085 Y0.3198 
G01 X-1.0093 Y0.3193 
G01 X-1.0101 Y0.3188 
G01 X-1.0110 Y0.3184 
G01 X-1.0118 Y0.3179 
G01 X-1.0127 Y0.3177 
G01 X-1.0136 Y0.3173 
G01 X-1.0146 Y0.3172 
G01 X-1.0155 Y0.3169 
G01 X-1.0164 Y0.3169 
G01 X-1.0174 Y0.3168 
G01 X-1.0184 Y0.3169 
G01 X-1.0483 Y0.3169 
G01 X-1.0648 Y0.3101 
G01 X-1.0774 Y0.2975 
G01 X-1.0842 Y0.2810 
G01 X-1.0842 Y0.2781 
G01 X-1.0852 Y0.2744 
G01 X-1.0871 Y0.2711 
G01 X-1.0898 Y0.2684 
G01 X-1.0931 Y0.2665 
G01 X-1.0968 Y0.2655 
G01 X-2.2031 Y0.2655 
G01 X-2.2088 Y0.2631 
G01 X-2.2305 Y0.2414 
G01 X-2.2338 Y0.2395 
G01 X-2.2375 Y0.2385 
G01 X-2.2907 Y0.2385 
G01 X-2.3048 Y0.2326 
G01 X-2.3156 Y0.2218 
G01 X-2.3215 Y0.2077 
G01 X-2.3215 Y0.1923 
G01 X-2.3156 Y0.1782 
G01 X-2.3048 Y0.1674 
G01 X-2.2964 Y0.1639 
G01 X-2.2958 Y0.1638 
G01 X-2.2946 Y0.1631 
G01 X-2.2934 Y0.1626 
G01 X-2.2929 Y0.1623 
G01 X-2.2924 Y0.1620 
G01 X-2.2914 Y0.1611 
G01 X-2.2904 Y0.1603 
G01 X-2.2900 Y0.1599 
G01 X-2.2896 Y0.1595 
G01 X-2.2889 Y0.1583 
G01 X-2.2880 Y0.1573 
G01 X-2.2878 Y0.1568 
G01 X-2.2875 Y0.1563 
G01 X-2.2871 Y0.1550 
G01 X-2.2866 Y0.1538 
G01 X-2.2865 Y0.1532 
G01 X-2.2863 Y0.1526 
G01 X-2.2863 Y0.1513 
G01 X-2.2861 Y0.1500 
G01 X-2.2862 Y0.1494 
G01 X-2.2861 Y0.1488 
G01 X-2.2864 Y0.1475 
G01 X-2.2866 Y0.1462 
G01 X-2.2868 Y0.1457 
G01 X-2.2869 Y0.1451 
G01 X-2.2875 Y0.1439 
G01 X-2.2880 Y0.1427 
G01 X-2.2884 Y0.1422 
G01 X-2.2887 Y0.1417 
G01 X-2.2896 Y0.1407 
G01 X-2.2904 Y0.1396 
G01 X-2.2908 Y0.1393 
G01 X-2.2912 Y0.1388 
G01 X-2.2923 Y0.1381 
G01 X-2.2934 Y0.1373 
G01 X-2.2939 Y0.1371 
G01 X-2.2944 Y0.1368 
G01 X-2.2957 Y0.1364 
G01 X-2.2969 Y0.1358 
G01 X-2.2975 Y0.1358 
G01 X-2.2978 Y0.1357 
G01 X-2.3032 Y0.1329 
G01 X-2.3081 Y0.1294 
G01 X-2.3124 Y0.1251 
G01 X-2.3159 Y0.1202 
G01 X-2.3183 Y0.1155 
G01 X-2.3172 Y0.1155 
G01 X-2.3162 Y0.1178 
G01 X-2.3121 Y0.1239 
G01 X-2.3069 Y0.1291 
G01 X-2.3008 Y0.1332 
G01 X-2.2939 Y0.1361 
G01 X-2.2867 Y0.1375 
G01 X-2.2133 Y0.1375 
G01 X-2.2061 Y0.1361 
G01 X-2.1992 Y0.1332 
G01 X-2.1931 Y0.1291 
G01 X-2.1879 Y0.1239 
G01 X-2.1838 Y0.1178 
G01 X-2.1828 Y0.1155 
G01 X-2.1817 Y0.1155 
G01 X-2.1841 Y0.1202 
G01 X-2.1876 Y0.1251 
G01 X-2.1919 Y0.1294 
G01 X-2.1968 Y0.1329 
G01 X-2.2022 Y0.1357 
G01 X-2.2025 Y0.1358 
G01 X-2.2031 Y0.1358 
G01 X-2.2043 Y0.1364 
G01 X-2.2056 Y0.1368 
G01 X-2.2061 Y0.1371 
G01 X-2.2066 Y0.1373 
G01 X-2.2077 Y0.1381 
G01 X-2.2088 Y0.1388 
G01 X-2.2092 Y0.1393 
G01 X-2.2096 Y0.1396 
G01 X-2.2104 Y0.1407 
G01 X-2.2113 Y0.1417 
G01 X-2.2116 Y0.1422 
G01 X-2.2120 Y0.1427 
G01 X-2.2125 Y0.1439 
G01 X-2.2131 Y0.1451 
G01 X-2.2132 Y0.1457 
G01 X-2.2134 Y0.1462 
G01 X-2.2136 Y0.1475 
G01 X-2.2139 Y0.1488 
G01 X-2.2138 Y0.1494 
G01 X-2.2139 Y0.1500 
G01 X-2.2137 Y0.1513 
G01 X-2.2137 Y0.1526 
G01 X-2.2135 Y0.1532 
G01 X-2.2134 Y0.1538 
G01 X-2.2129 Y0.1550 
G01 X-2.2125 Y0.1563 
G01 X-2.2122 Y0.1568 
G01 X-2.2120 Y0.1573 
G01 X-2.2111 Y0.1583 
G01 X-2.2104 Y0.1595 
G01 X-2.2100 Y0.1599 
G01 X-2.2096 Y0.1603 
G01 X-2.2086 Y0.1611 
G01 X-2.2076 Y0.1620 
G01 X-2.2071 Y0.1623 
G01 X-2.2066 Y0.1626 
G01 X-2.2054 Y0.1631 
G01 X-2.2042 Y0.1638 
G01 X-2.2036 Y0.1639 
G01 X-2.1952 Y0.1674 
G01 X-2.1844 Y0.1782 
G01 X-2.1785 Y0.1923 
G01 X-2.1785 Y0.2077 
G01 X-2.1810 Y0.2136 
G01 X-2.1814 Y0.2144 
G01 X-2.1817 Y0.2153 
G01 X-2.1820 Y0.2162 
G01 X-2.1822 Y0.2172 
G01 X-2.1824 Y0.2181 
G01 X-2.1824 Y0.2190 
G01 X-2.1825 Y0.2200 
G01 X-2.1824 Y0.2210 
G01 X-2.1824 Y0.2219 
G01 X-2.1822 Y0.2228 
G01 X-2.1820 Y0.2238 
G01 X-2.1817 Y0.2247 
G01 X-2.1814 Y0.2256 
G01 X-2.1810 Y0.2264 
G01 X-2.1806 Y0.2273 
G01 X-2.1800 Y0.2281 
G01 X-2.1795 Y0.2289 
G01 X-2.1788 Y0.2296 
G01 X-2.1783 Y0.2303 
G01 X-2.1775 Y0.2309 
G01 X-2.1768 Y0.2316 
G01 X-2.1760 Y0.2321 
G01 X-2.1752 Y0.2327 
G01 X-2.1743 Y0.2330 
G01 X-2.1735 Y0.2335 
G01 X-2.1726 Y0.2338 
G01 X-2.1717 Y0.2341 
G01 X-2.1708 Y0.2343 
G01 X-2.1698 Y0.2345 
G01 X-2.1689 Y0.2345 
G01 X-2.1679 Y0.2346 
G01 X-2.1670 Y0.2345 
G01 X-1.2404 Y0.2345 
G01 X-1.2389 Y0.2346 
G01 X-1.2385 Y0.2345 
G01 X-1.2381 Y0.2345 
G01 X-1.2366 Y0.2341 
G01 X-1.2351 Y0.2338 
G01 X-1.2348 Y0.2336 
G01 X-1.2344 Y0.2335 
G01 X-1.2331 Y0.2327 
G01 X-1.2317 Y0.2321 
G01 X-1.2314 Y0.2318 
G01 X-1.2311 Y0.2316 
G01 X-1.2300 Y0.2305 
G01 X-1.2289 Y0.2295 
G01 X-1.2287 Y0.2292 
G01 X-1.2284 Y0.2289 
G01 X-1.2276 Y0.2276 
G01 X-1.2268 Y0.2263 
G01 X-1.2267 Y0.2259 
G01 X-1.2265 Y0.2256 
G01 X-1.2261 Y0.2241 
G01 X-1.2256 Y0.2227 
G01 X-1.2256 Y0.2223 
G01 X-1.2255 Y0.2219 
G01 X-1.2255 Y0.2204 
G01 X-1.2254 Y0.2189 
G01 X-1.2255 Y0.2185 
G01 X-1.2255 Y0.2181 
G01 X-1.2259 Y0.2166 
G01 X-1.2262 Y0.2151 
G01 X-1.2264 Y0.2148 
G01 X-1.2265 Y0.2144 
G01 X-1.2273 Y0.2131 
G01 X-1.2306 Y0.2066 
G01 X-1.2327 Y0.1999 
G01 X-1.2338 Y0.1929 
G01 X-1.2338 Y0.1645 
G01 X-1.2328 Y0.1645 
G01 X-1.2328 Y0.1928 
G01 X-1.2318 Y0.1996 
G01 X-1.2296 Y0.2062 
G01 X-1.2265 Y0.2124 
G01 X-1.2224 Y0.2179 
G01 X-1.2176 Y0.2228 
G01 X-1.2120 Y0.2269 
G01 X-1.2058 Y0.2300 
G01 X-1.1992 Y0.2322 
G01 X-1.1924 Y0.2332 
G01 X-1.1855 Y0.2332 
G01 X-1.1787 Y0.2322 
G01 X-1.1721 Y0.2300 
G01 X-1.1660 Y0.2269 
G01 X-1.1604 Y0.2228 
G01 X-1.1555 Y0.2179 
G01 X-1.1515 Y0.2124 
G01 X-1.1483 Y0.2062 
G01 X-1.1462 Y0.1996 
G01 X-1.1451 Y0.1928 
G01 X-1.1451 Y0.1645 
G01 X-1.1441 Y0.1645 
G01 X-1.1441 Y0.1929 
G01 X-1.1452 Y0.1999 
G01 X-1.1474 Y0.2066 
G01 X-1.1507 Y0.2131 
G01 X-1.1515 Y0.2144 
G01 X-1.1516 Y0.2148 
G01 X-1.1517 Y0.2151 
G01 X-1.1521 Y0.2166 
G01 X-1.1525 Y0.2181 
G01 X-1.1525 Y0.2185 
G01 X-1.1525 Y0.2189 
G01 X-1.1525 Y0.2204 
G01 X-1.1525 Y0.2219 
G01 X-1.1524 Y0.2223 
G01 X-1.1523 Y0.2227 
G01 X-1.1519 Y0.2241 
G01 X-1.1515 Y0.2256 
G01 X-1.1513 Y0.2259 
G01 X-1.1512 Y0.2263 
G01 X-1.1503 Y0.2276 
G01 X-1.1496 Y0.2289 
G01 X-1.1493 Y0.2292 
G01 X-1.1491 Y0.2295 
G01 X-1.1479 Y0.2305 
G01 X-1.1469 Y0.2316 
G01 X-1.1465 Y0.2318 
G01 X-1.1462 Y0.2321 
G01 X-1.1449 Y0.2327 
G01 X-1.1435 Y0.2335 
G01 X-1.1432 Y0.2336 
G01 X-1.1428 Y0.2338 
G01 X-1.1413 Y0.2341 
G01 X-1.1399 Y0.2345 
G01 X-1.1395 Y0.2345 
G01 X-1.1391 Y0.2346 
G01 X-1.1376 Y0.2345 
G01 X-1.0698 Y0.2345 
G01 X-1.0689 Y0.2346 
G01 X-1.0679 Y0.2345 
G01 X-1.0669 Y0.2345 
G01 X-1.0660 Y0.2343 
G01 X-1.0651 Y0.2341 
G01 X-1.0642 Y0.2338 
G01 X-1.0633 Y0.2335 
G01 X-1.0624 Y0.2330 
G01 X-1.0483 Y0.2272 
G01 X-0.9517 Y0.2272 
G01 X-0.9352 Y0.2340 
G01 X-0.9226 Y0.2466 
G01 X-0.9158 Y0.2631 
G01 X-0.9158 Y0.2810 
G01 X-0.9226 Y0.2975 
G01 X-0.9352 Y0.3101 
G01 X-0.9517 Y0.3169 
G01 X-0.9816 Y0.3169 
G01 X-0.9826 Y0.3168 
G01 X-0.9836 Y0.3169 
G01 X-0.9845 Y0.3169 
G01 X-0.9854 Y0.3172 
G01 X-0.9864 Y0.3173 
G01 X-0.9873 Y0.3177 
G01 X-0.9882 Y0.3179 
G01 X-0.9890 Y0.3184 
G01 X-0.9899 Y0.3188 
G01 X-0.9907 Y0.3193 
G01 X-0.9915 Y0.3198 
G01 X-0.9922 Y0.3205 
G01 X-0.9929 Y0.3211 
G01 X-0.9935 Y0.3218 
G01 X-0.9942 Y0.3225 
G01 X-0.9947 Y0.3233 
G01 X-0.9953 Y0.3241 
G01 X-0.9956 Y0.3250 
G01 X-0.9961 Y0.3258 
G01 X-0.9964 Y0.3267 
G01 X-0.9967 Y0.3276 
G01 X-0.9969 Y0.3286 
G01 X-0.9971 Y0.3295 
G01 X-0.9971 Y0.3305 
G01 X-0.9972 Y0.3314 
G01 X-0.9971 Y0.3324 
G01 X-0.9971 Y0.3333 
G01 X-0.9969 Y0.3343 
G01 X-0.9967 Y0.3352 
G01 X-0.9964 Y0.3361 
G01 X-0.9961 Y0.3370 
G01 X-0.9956 Y0.3378 
G01 X-0.9953 Y0.3387 
G01 X-0.9947 Y0.3395 
G01 X-0.9942 Y0.3403 
G01 X-0.9935 Y0.3410 
G01 X-0.9929 Y0.3418 
G01 X-0.9922 Y0.3423 
G01 X-0.9915 Y0.3430 
G01 X-0.9907 Y0.3435 
G01 X-0.9899 Y0.3441 
G01 X-0.9890 Y0.3444 
G01 X-0.9882 Y0.3449 
G01 X-0.9873 Y0.3452 
G01 X-0.9822 Y0.3473 
G01 X-0.9733 Y0.3562 
G01 X-0.9685 Y0.3677 
G01 X-0.9685 Y0.4323 
G01 X-0.9711 Y0.4386 
G01 X-0.9716 Y0.4394 
G01 X-0.9718 Y0.4403 
G01 X-0.9722 Y0.4412 
G01 X-0.9723 Y0.4422 
G01 X-0.9726 Y0.4431 
G01 X-0.9726 Y0.4440 
G01 X-0.9727 Y0.4450 
G01 X-0.9726 Y0.4460 
G01 X-0.9726 Y0.4469 
G01 X-0.9723 Y0.4478 
G01 X-0.9722 Y0.4488 
G01 X-0.9718 Y0.4497 
G01 X-0.9716 Y0.4506 
G01 X-0.9711 Y0.4514 
G01 X-0.9707 Y0.4523 
G01 X-0.9702 Y0.4531 
G01 X-0.9697 Y0.4539 
G01 X-0.9690 Y0.4546 
G01 X-0.9684 Y0.4553 
G01 X-0.9677 Y0.4559 
G01 X-0.9670 Y0.4566 
G01 X-0.9662 Y0.4571 
G01 X-0.9654 Y0.4577 
G01 X-0.9645 Y0.4580 
G01 X-0.9637 Y0.4585 
G01 X-0.9628 Y0.4588 
G01 X-0.9619 Y0.4591 
G01 X-0.9609 Y0.4593 
G01 X-0.9600 Y0.4595 
G01 X-0.9590 Y0.4595 
G01 X-0.9581 Y0.4596 
G01 X-0.9571 Y0.4595 
G01 X-0.9429 Y0.4595 
G01 X-0.9419 Y0.4596 
G01 X-0.9410 Y0.4595 
G01 X-0.9400 Y0.4595 
G01 X-0.9391 Y0.4593 
G01 X-0.9381 Y0.4591 
G01 X-0.9372 Y0.4588 
G01 X-0.9363 Y0.4585 
G01 X-0.9355 Y0.4580 
G01 X-0.9346 Y0.4577 
G01 X-0.9338 Y0.4571 
G01 X-0.9330 Y0.4566 
G01 X-0.9323 Y0.4559 
G01 X-0.9316 Y0.4553 
G01 X-0.9310 Y0.4546 
G01 X-0.9303 Y0.4539 
G01 X-0.9298 Y0.4531 
G01 X-0.9293 Y0.4523 
G01 X-0.9289 Y0.4514 
G01 X-0.9284 Y0.4506 
G01 X-0.9282 Y0.4497 
G01 X-0.9278 Y0.4488 
G01 X-0.9277 Y0.4478 
G01 X-0.9274 Y0.4469 
G01 X-0.9274 Y0.4460 
G01 X-0.9273 Y0.4450 
G01 X-0.9274 Y0.4440 
G01 X-0.9274 Y0.4431 
G01 X-0.9277 Y0.4422 
G01 X-0.9278 Y0.4412 
G01 X-0.9282 Y0.4403 
G01 X-0.9284 Y0.4394 
G01 X-0.9289 Y0.4386 
G01 X-0.9315 Y0.4323 
G01 X-0.9315 Y0.3677 
G01 X-0.9267 Y0.3562 
G01 X-0.9178 Y0.3473 
G01 X-0.9063 Y0.3425 
G01 X-0.8937 Y0.3425 
G01 X-0.8822 Y0.3473 
G01 X-0.8733 Y0.3562 
G01 X-0.8685 Y0.3677 
G01 X-0.8685 Y0.4323 
G01 X-0.8711 Y0.4386 
G01 X-0.8716 Y0.4394 
G01 X-0.8718 Y0.4403 
G01 X-0.8722 Y0.4412 
G01 X-0.8723 Y0.4422 
G01 X-0.8726 Y0.4431 
G01 X-0.8726 Y0.4440 
G01 X-0.8727 Y0.4450 
G01 X-0.8726 Y0.4460 
G01 X-0.8726 Y0.4469 
G01 X-0.8723 Y0.4478 
G01 X-0.8722 Y0.4488 
G01 X-0.8718 Y0.4497 
G01 X-0.8716 Y0.4506 
G01 X-0.8711 Y0.4514 
G01 X-0.8707 Y0.4523 
G01 X-0.8702 Y0.4531 
G01 X-0.8697 Y0.4539 
G01 X-0.8690 Y0.4546 
G01 X-0.8684 Y0.4553 
G01 X-0.8677 Y0.4559 
G01 X-0.8670 Y0.4566 
G01 X-0.8662 Y0.4571 
G01 X-0.8654 Y0.4577 
G01 X-0.8645 Y0.4580 
G01 X-0.8637 Y0.4585 
G01 X-0.8628 Y0.4588 
G01 X-0.8619 Y0.4591 
G01 X-0.8609 Y0.4593 
G01 X-0.8600 Y0.4595 
G01 X-0.8590 Y0.4595 
G01 X-0.8581 Y0.4596 
G01 X-0.8571 Y0.4595 
G01 X-0.8429 Y0.4595 
G01 X-0.8419 Y0.4596 
G01 X-0.8410 Y0.4595 
G01 X-0.8400 Y0.4595 
G01 X-0.8391 Y0.4593 
G01 X-0.8381 Y0.4591 
G01 X-0.8372 Y0.4588 
G01 X-0.8363 Y0.4585 
G01 X-0.8355 Y0.4580 
G01 X-0.8346 Y0.4577 
G01 X-0.8338 Y0.4571 
G01 X-0.8330 Y0.4566 
G01 X-0.8323 Y0.4559 
G01 X-0.8316 Y0.4553 
G01 X-0.8310 Y0.4546 
G01 X-0.8303 Y0.4539 
G01 X-0.8298 Y0.4531 
G01 X-0.8293 Y0.4523 
G01 X-0.8289 Y0.4514 
G01 X-0.8284 Y0.4506 
G01 X-0.8282 Y0.4497 
G01 X-0.8278 Y0.4488 
G01 X-0.8277 Y0.4478 
G01 X-0.8274 Y0.4469 
G01 X-0.8274 Y0.4460 
G01 X-0.8273 Y0.4450 
G01 X-0.8274 Y0.4440 
G01 X-0.8274 Y0.4431 
G01 X-0.8277 Y0.4422 
G01 X-0.8278 Y0.4412 
G01 X-0.8282 Y0.4403 
G01 X-0.8284 Y0.4394 
G01 X-0.8289 Y0.4386 
G01 X-0.8315 Y0.4323 
G01 X-0.8315 Y0.3677 
G01 X-0.8267 Y0.3562 
G01 X-0.8178 Y0.3473 
G01 X-0.8063 Y0.3425 
G01 X-0.7937 Y0.3425 
G01 X-0.7822 Y0.3473 
G01 X-0.7733 Y0.3562 
G01 X-0.7685 Y0.3677 
G01 X-0.7685 Y0.4323 
G01 X-0.7711 Y0.4386 
G01 X-0.7716 Y0.4394 
G01 X-0.7718 Y0.4403 
G01 X-0.7722 Y0.4412 
G01 X-0.7723 Y0.4422 
G01 X-0.7726 Y0.4431 
G01 X-0.7726 Y0.4440 
G01 X-0.7727 Y0.4450 
G01 X-0.7726 Y0.4460 
G01 X-0.7726 Y0.4469 
G01 X-0.7723 Y0.4478 
G01 X-0.7722 Y0.4488 
G01 X-0.7718 Y0.4497 
G01 X-0.7716 Y0.4506 
G01 X-0.7711 Y0.4514 
G01 X-0.7707 Y0.4523 
G01 X-0.7702 Y0.4531 
G01 X-0.7697 Y0.4539 
G01 X-0.7690 Y0.4546 
G01 X-0.7684 Y0.4553 
G01 X-0.7677 Y0.4559 
G01 X-0.7670 Y0.4566 
G01 X-0.7662 Y0.4571 
G01 X-0.7654 Y0.4577 
G01 X-0.7645 Y0.4580 
G01 X-0.7637 Y0.4585 
G01 X-0.7628 Y0.4588 
G01 X-0.7619 Y0.4591 
G01 X-0.7609 Y0.4593 
G01 X-0.7600 Y0.4595 
G01 X-0.7590 Y0.4595 
G01 X-0.7581 Y0.4596 
G01 X-0.7571 Y0.4595 
G01 X-0.7429 Y0.4595 
G01 X-0.7419 Y0.4596 
G01 X-0.7410 Y0.4595 
G01 X-0.7400 Y0.4595 
G01 X-0.7391 Y0.4593 
G01 X-0.7381 Y0.4591 
G01 X-0.7372 Y0.4588 
G01 X-0.7363 Y0.4585 
G01 X-0.7355 Y0.4580 
G01 X-0.7346 Y0.4577 
G01 X-0.7338 Y0.4571 
G01 X-0.7330 Y0.4566 
G01 X-0.7323 Y0.4559 
G01 X-0.7316 Y0.4553 
G01 X-0.7310 Y0.4546 
G01 X-0.7303 Y0.4539 
G01 X-0.7298 Y0.4531 
G01 X-0.7293 Y0.4523 
G01 X-0.7289 Y0.4514 
G01 X-0.7284 Y0.4506 
G01 X-0.7282 Y0.4497 
G01 X-0.7278 Y0.4488 
G01 X-0.7277 Y0.4478 
G01 X-0.7274 Y0.4469 
G01 X-0.7274 Y0.4460 
G01 X-0.7273 Y0.4450 
G01 X-0.7274 Y0.4440 
G01 X-0.7274 Y0.4431 
G01 X-0.7277 Y0.4422 
G01 X-0.7278 Y0.4412 
G01 X-0.7282 Y0.4403 
G01 X-0.7284 Y0.4394 
G01 X-0.7289 Y0.4386 
G01 X-0.7315 Y0.4323 
G01 X-0.7315 Y0.3677 
G01 X-0.7267 Y0.3562 
G01 X-0.7178 Y0.3473 
G01 X-0.7063 Y0.3425 
G01 X-0.6937 Y0.3425 
G01 X-0.6828 Y0.3470 
G01 X-0.6820 Y0.3475 
G01 X-0.6811 Y0.3477 
G01 X-0.6802 Y0.3481 
G01 X-0.6792 Y0.3482 
G01 X-0.6783 Y0.3485 
G01 X-0.6774 Y0.3485 
G01 X-0.6764 Y0.3486 
G01 X-0.6755 Y0.3485 
G01 X-0.6745 Y0.3485 
G01 X-0.6736 Y0.3482 
G01 X-0.6726 Y0.3481 
G01 X-0.6717 Y0.3477 
G01 X-0.6708 Y0.3475 
G01 X-0.6700 Y0.3470 
G01 X-0.6691 Y0.3466 
G01 X-0.6683 Y0.3461 
G01 X-0.6675 Y0.3456 
G01 X-0.6668 Y0.3449 
G01 X-0.6661 Y0.3443 
G01 X-0.6655 Y0.3436 
G01 X-0.6388 Y0.3169 
G01 X-0.6338 Y0.3119 
G01 X-0.6281 Y0.3095 
G01 X-0.5719 Y0.3095 
G01 X-0.5662 Y0.3119 
G01 X-0.5419 Y0.3362 
G01 X-0.5369 Y0.3412 
G01 X-0.5367 Y0.3415 
G01 X-0.5344 Y0.3445 
G01 X-0.5328 Y0.3457 
G01 X-0.5314 Y0.3468 
G01 X-0.5279 Y0.3483 
G01 X-0.5259 Y0.3486 
G01 X-0.5241 Y0.3488 
G01 X-0.5224 Y0.3486 
G01 X-0.5203 Y0.3483 
G01 X-0.5198 Y0.3481 
G01 X-0.5168 Y0.3468 
G01 X-0.5063 Y0.3425 
G01 X-0.4937 Y0.3425 
G01 X-0.4822 Y0.3473 
G00 Z0.1000 
G00 X-0.4856 Y0.3470 
G01 Z-0.0070 F10.00 
G01 X-0.4911 Y0.3447 F20.00 
G01 X-0.4970 Y0.3435 
G01 X-0.5030 Y0.3435 
G01 X-0.5089 Y0.3447 
G01 X-0.5144 Y0.3470 
G01 X-0.5194 Y0.3503 
G01 X-0.5237 Y0.3546 
G01 X-0.5270 Y0.3596 
G01 X-0.5293 Y0.3651 
G01 X-0.5305 Y0.3710 
G01 X-0.5305 Y0.4290 
G01 X-0.5293 Y0.4349 
G01 X-0.5270 Y0.4404 
G01 X-0.5237 Y0.4454 
G01 X-0.5194 Y0.4497 
G01 X-0.5144 Y0.4530 
G01 X-0.5089 Y0.4553 
G01 X-0.5030 Y0.4565 
G01 X-0.4970 Y0.4565 
G01 X-0.4911 Y0.4553 
G01 X-0.4856 Y0.4530 
G01 X-0.4806 Y0.4497 
G01 X-0.4763 Y0.4454 
G01 X-0.4730 Y0.4404 
G01 X-0.4707 Y0.4349 
G01 X-0.4695 Y0.4290 
G01 X-0.4695 Y0.3710 
G01 X-0.4707 Y0.3651 
G01 X-0.4730 Y0.3596 
G01 X-0.4763 Y0.3546 
G01 X-0.4806 Y0.3503 
G01 X-0.4856 Y0.3470 
G00 Z0.1000 
G00 X-0.5355 Y0.3481 
G01 Z-0.0070 F10.00 
G01 X-0.5365 Y0.3444 F20.00 
G01 X-0.5384 Y0.3411 
G01 X-0.5411 Y0.3384 
G01 X-0.5661 Y0.3134 
G01 X-0.5694 Y0.3115 
G01 X-0.5731 Y0.3105 
G01 X-0.6269 Y0.3105 
G01 X-0.6306 Y0.3115 
G01 X-0.6339 Y0.3134 
G01 X-0.6366 Y0.3161 
G01 X-0.6758 Y0.3553 
G01 X-0.6763 Y0.3546 
G01 X-0.6806 Y0.3503 
G01 X-0.6856 Y0.3470 
G01 X-0.6911 Y0.3447 
G01 X-0.6970 Y0.3435 
G01 X-0.7030 Y0.3435 
G01 X-0.7089 Y0.3447 
G01 X-0.7144 Y0.3470 
G01 X-0.7194 Y0.3503 
G01 X-0.7237 Y0.3546 
G01 X-0.7270 Y0.3596 
G01 X-0.7293 Y0.3651 
G01 X-0.7305 Y0.3710 
G01 X-0.7305 Y0.4290 
G01 X-0.7293 Y0.4349 
G01 X-0.7270 Y0.4404 
G01 X-0.7237 Y0.4454 
G01 X-0.7194 Y0.4497 
G01 X-0.7144 Y0.4530 
G01 X-0.7089 Y0.4553 
G01 X-0.7030 Y0.4565 
G01 X-0.6970 Y0.4565 
G01 X-0.6911 Y0.4553 
G01 X-0.6856 Y0.4530 
G01 X-0.6806 Y0.4497 
G01 X-0.6763 Y0.4454 
G01 X-0.6730 Y0.4404 
G01 X-0.6707 Y0.4349 
G01 X-0.6695 Y0.4290 
G01 X-0.6695 Y0.3900 
G01 X-0.6190 Y0.3395 
G01 X-0.5810 Y0.3395 
G01 X-0.5645 Y0.3560 
G01 X-0.5645 Y0.4980 
G01 X-1.1121 Y0.4980 
G01 X-1.1131 Y0.4970 
G01 X-1.1175 Y0.4944 
G01 X-1.1224 Y0.4931 
G01 X-1.1276 Y0.4931 
G01 X-1.1325 Y0.4944 
G01 X-1.1369 Y0.4970 
G01 X-1.1405 Y0.5006 
G01 X-1.1431 Y0.5050 
G01 X-1.1444 Y0.5099 
G01 X-1.1444 Y0.5151 
G01 X-1.1431 Y0.5200 
G01 X-1.1405 Y0.5244 
G01 X-1.1369 Y0.5280 
G01 X-1.1325 Y0.5306 
G01 X-1.1276 Y0.5319 
G01 X-1.1224 Y0.5319 
G01 X-1.1175 Y0.5306 
G01 X-1.1131 Y0.5280 
G01 X-1.1121 Y0.5270 
G01 X-0.5481 Y0.5270 
G01 X-0.5444 Y0.5260 
G01 X-0.5411 Y0.5241 
G01 X-0.5384 Y0.5214 
G01 X-0.5365 Y0.5181 
G01 X-0.5355 Y0.5144 
G01 X-0.5355 Y0.3481 
G00 Z0.1000 
G00 X-0.5763 Y0.3546 
G01 Z-0.0070 F10.00 
G01 X-0.5806 Y0.3503 F20.00 
G01 X-0.5856 Y0.3470 
G01 X-0.5911 Y0.3447 
G01 X-0.5970 Y0.3435 
G01 X-0.6030 Y0.3435 
G01 X-0.6089 Y0.3447 
G01 X-0.6144 Y0.3470 
G01 X-0.6194 Y0.3503 
G01 X-0.6237 Y0.3546 
G01 X-0.6270 Y0.3596 
G01 X-0.6293 Y0.3651 
G01 X-0.6305 Y0.3710 
G01 X-0.6305 Y0.4100 
G01 X-0.6810 Y0.4605 
G01 X-1.3940 Y0.4605 
G01 X-1.4134 Y0.4411 
G01 X-1.4161 Y0.4384 
G01 X-1.4194 Y0.4365 
G01 X-1.4231 Y0.4355 
G01 X-1.7519 Y0.4355 
G01 X-1.7556 Y0.4365 
G01 X-1.7589 Y0.4384 
G01 X-1.7810 Y0.4605 
G01 X-1.9190 Y0.4605 
G01 X-1.9196 Y0.4598 
G01 X-1.9223 Y0.4571 
G01 X-1.9695 Y0.4100 
G01 X-1.9695 Y0.3710 
G01 X-1.9707 Y0.3651 
G01 X-1.9730 Y0.3596 
G01 X-1.9763 Y0.3546 
G01 X-1.9806 Y0.3503 
G01 X-1.9856 Y0.3470 
G01 X-1.9911 Y0.3447 
G01 X-1.9970 Y0.3435 
G01 X-2.0030 Y0.3435 
G01 X-2.0089 Y0.3447 
G01 X-2.0144 Y0.3470 
G01 X-2.0194 Y0.3503 
G01 X-2.0237 Y0.3546 
G01 X-2.0270 Y0.3596 
G01 X-2.0293 Y0.3651 
G01 X-2.0305 Y0.3710 
G01 X-2.0305 Y0.4290 
G01 X-2.0293 Y0.4349 
G01 X-2.0270 Y0.4404 
G01 X-2.0237 Y0.4454 
G01 X-2.0194 Y0.4497 
G01 X-2.0144 Y0.4530 
G01 X-2.0089 Y0.4553 
G01 X-2.0030 Y0.4565 
G01 X-1.9970 Y0.4565 
G01 X-1.9911 Y0.4553 
G01 X-1.9856 Y0.4530 
G01 X-1.9806 Y0.4497 
G01 X-1.9763 Y0.4454 
G01 X-1.9758 Y0.4447 
G01 X-1.9600 Y0.4605 
G01 X-2.2269 Y0.4605 
G01 X-2.2306 Y0.4615 
G01 X-2.2339 Y0.4634 
G01 X-2.2366 Y0.4661 
G01 X-2.3060 Y0.5355 
G01 X-3.0644 Y0.5355 
G01 X-3.0681 Y0.5365 
G01 X-3.0714 Y0.5384 
G01 X-3.0741 Y0.5411 
G01 X-3.0760 Y0.5444 
G01 X-3.0770 Y0.5481 
G01 X-3.0770 Y1.2394 
G01 X-3.0760 Y1.2431 
G01 X-3.0741 Y1.2464 
G01 X-3.0714 Y1.2491 
G01 X-2.9878 Y1.3327 
G01 X-2.9885 Y1.3341 
G01 X-2.9905 Y1.3403 
G01 X-2.9915 Y1.3467 
G01 X-2.9915 Y1.3533 
G01 X-2.9905 Y1.3597 
G01 X-2.9885 Y1.3659 
G01 X-2.9855 Y1.3718 
G01 X-2.9817 Y1.3770 
G01 X-2.9770 Y1.3817 
G01 X-2.9718 Y1.3855 
G01 X-2.9659 Y1.3885 
G01 X-2.9597 Y1.3905 
G01 X-2.9533 Y1.3915 
G01 X-2.9467 Y1.3915 
G01 X-2.9403 Y1.3905 
G01 X-2.9341 Y1.3885 
G01 X-2.9282 Y1.3855 
G01 X-2.9230 Y1.3817 
G01 X-2.9183 Y1.3770 
G01 X-2.9145 Y1.3718 
G01 X-2.9115 Y1.3659 
G01 X-2.9095 Y1.3597 
G01 X-2.9085 Y1.3533 
G01 X-2.9085 Y1.3467 
G01 X-2.9095 Y1.3403 
G01 X-2.9115 Y1.3341 
G01 X-2.9145 Y1.3282 
G01 X-2.9183 Y1.3230 
G01 X-2.9230 Y1.3183 
G01 X-2.9282 Y1.3145 
G01 X-2.9341 Y1.3115 
G01 X-2.9403 Y1.3095 
G01 X-2.9467 Y1.3085 
G01 X-2.9533 Y1.3085 
G01 X-2.9597 Y1.3095 
G01 X-2.9659 Y1.3115 
G01 X-2.9673 Y1.3122 
G01 X-3.0480 Y1.2315 
G01 X-3.0480 Y0.5645 
G01 X-2.2981 Y0.5645 
G01 X-2.2944 Y0.5635 
G01 X-2.2911 Y0.5616 
G01 X-2.2190 Y0.4895 
G01 X-1.9356 Y0.4895 
G01 X-1.9319 Y0.4885 
G01 X-1.9312 Y0.4881 
G01 X-1.9306 Y0.4885 
G01 X-1.9269 Y0.4895 
G01 X-1.7731 Y0.4895 
G01 X-1.7694 Y0.4885 
G01 X-1.7661 Y0.4866 
G01 X-1.7634 Y0.4839 
G01 X-1.7440 Y0.4645 
G01 X-1.4310 Y0.4645 
G01 X-1.4089 Y0.4866 
G01 X-1.4056 Y0.4885 
G01 X-1.4019 Y0.4895 
G01 X-0.6731 Y0.4895 
G01 X-0.6694 Y0.4885 
G01 X-0.6661 Y0.4866 
G01 X-0.6634 Y0.4839 
G01 X-0.6242 Y0.4447 
G01 X-0.6237 Y0.4454 
G01 X-0.6194 Y0.4497 
G01 X-0.6144 Y0.4530 
G01 X-0.6089 Y0.4553 
G01 X-0.6030 Y0.4565 
G01 X-0.5970 Y0.4565 
G01 X-0.5911 Y0.4553 
G01 X-0.5856 Y0.4530 
G01 X-0.5806 Y0.4497 
G01 X-0.5763 Y0.4454 
G01 X-0.5730 Y0.4404 
G01 X-0.5707 Y0.4349 
G01 X-0.5695 Y0.4290 
G01 X-0.5695 Y0.3710 
G01 X-0.5707 Y0.3651 
G01 X-0.5730 Y0.3596 
G01 X-0.5763 Y0.3546 
G00 Z0.1000 
G00 X-0.7763 Y0.3546 
G01 Z-0.0070 F10.00 
G01 X-0.7806 Y0.3503 F20.00 
G01 X-0.7856 Y0.3470 
G01 X-0.7911 Y0.3447 
G01 X-0.7970 Y0.3435 
G01 X-0.8030 Y0.3435 
G01 X-0.8089 Y0.3447 
G01 X-0.8144 Y0.3470 
G01 X-0.8194 Y0.3503 
G01 X-0.8237 Y0.3546 
G01 X-0.8270 Y0.3596 
G01 X-0.8293 Y0.3651 
G01 X-0.8305 Y0.3710 
G01 X-0.8305 Y0.4290 
G01 X-0.8293 Y0.4349 
G01 X-0.8270 Y0.4404 
G01 X-0.8237 Y0.4454 
G01 X-0.8194 Y0.4497 
G01 X-0.8144 Y0.4530 
G01 X-0.8089 Y0.4553 
G01 X-0.8030 Y0.4565 
G01 X-0.7970 Y0.4565 
G01 X-0.7911 Y0.4553 
G01 X-0.7856 Y0.4530 
G01 X-0.7806 Y0.4497 
G01 X-0.7763 Y0.4454 
G01 X-0.7730 Y0.4404 
G01 X-0.7707 Y0.4349 
G01 X-0.7695 Y0.4290 
G01 X-0.7695 Y0.3710 
G01 X-0.7707 Y0.3651 
G01 X-0.7730 Y0.3596 
G01 X-0.7763 Y0.3546 
G00 Z0.1000 
G00 X-0.8763 Y0.3546 
G01 Z-0.0070 F10.00 
G01 X-0.8806 Y0.3503 F20.00 
G01 X-0.8856 Y0.3470 
G01 X-0.8911 Y0.3447 
G01 X-0.8970 Y0.3435 
G01 X-0.9030 Y0.3435 
G01 X-0.9089 Y0.3447 
G01 X-0.9144 Y0.3470 
G01 X-0.9194 Y0.3503 
G01 X-0.9237 Y0.3546 
G01 X-0.9270 Y0.3596 
G01 X-0.9293 Y0.3651 
G01 X-0.9305 Y0.3710 
G01 X-0.9305 Y0.4290 
G01 X-0.9293 Y0.4349 
G01 X-0.9270 Y0.4404 
G01 X-0.9237 Y0.4454 
G01 X-0.9194 Y0.4497 
G01 X-0.9144 Y0.4530 
G01 X-0.9089 Y0.4553 
G01 X-0.9030 Y0.4565 
G01 X-0.8970 Y0.4565 
G01 X-0.8911 Y0.4553 
G01 X-0.8856 Y0.4530 
G01 X-0.8806 Y0.4497 
G01 X-0.8763 Y0.4454 
G01 X-0.8730 Y0.4404 
G01 X-0.8707 Y0.4349 
G01 X-0.8695 Y0.4290 
G01 X-0.8695 Y0.3710 
G01 X-0.8707 Y0.3651 
G01 X-0.8730 Y0.3596 
G01 X-0.8763 Y0.3546 
G00 Z0.1000 
G00 X-0.9763 Y0.3546 
G01 Z-0.0070 F10.00 
G01 X-0.9806 Y0.3503 F20.00 
G01 X-0.9856 Y0.3470 
G01 X-0.9911 Y0.3447 
G01 X-0.9970 Y0.3435 
G01 X-1.0030 Y0.3435 
G01 X-1.0089 Y0.3447 
G01 X-1.0144 Y0.3470 
G01 X-1.0194 Y0.3503 
G01 X-1.0237 Y0.3546 
G01 X-1.0270 Y0.3596 
G01 X-1.0293 Y0.3651 
G01 X-1.0305 Y0.3710 
G01 X-1.0305 Y0.4290 
G01 X-1.0293 Y0.4349 
G01 X-1.0270 Y0.4404 
G01 X-1.0237 Y0.4454 
G01 X-1.0194 Y0.4497 
G01 X-1.0144 Y0.4530 
G01 X-1.0089 Y0.4553 
G01 X-1.0030 Y0.4565 
G01 X-0.9970 Y0.4565 
G01 X-0.9911 Y0.4553 
G01 X-0.9856 Y0.4530 
G01 X-0.9806 Y0.4497 
G01 X-0.9763 Y0.4454 
G01 X-0.9730 Y0.4404 
G01 X-0.9707 Y0.4349 
G01 X-0.9695 Y0.4290 
G01 X-0.9695 Y0.3710 
G01 X-0.9707 Y0.3651 
G01 X-0.9730 Y0.3596 
G01 X-0.9763 Y0.3546 
G00 Z0.1000 
G00 X-0.9572 Y0.3159 
G01 Z-0.0070 F10.00 
G01 X-0.9504 Y0.3148 F20.00 
G01 X-0.9438 Y0.3127 
G01 X-0.9376 Y0.3096 
G01 X-0.9321 Y0.3055 
G01 X-0.9272 Y0.3006 
G01 X-0.9231 Y0.2950 
G01 X-0.9200 Y0.2889 
G01 X-0.9178 Y0.2823 
G01 X-0.9168 Y0.2755 
G01 X-0.9168 Y0.2686 
G01 X-0.9178 Y0.2618 
G01 X-0.9200 Y0.2552 
G01 X-0.9231 Y0.2491 
G01 X-0.9272 Y0.2435 
G01 X-0.9321 Y0.2386 
G01 X-0.9376 Y0.2345 
G01 X-0.9438 Y0.2314 
G01 X-0.9504 Y0.2293 
G01 X-0.9572 Y0.2282 
G01 X-1.0428 Y0.2282 
G01 X-1.0496 Y0.2293 
G01 X-1.0562 Y0.2314 
G01 X-1.0624 Y0.2345 
G01 X-1.0637 Y0.2355 
G01 X-2.1940 Y0.2355 
G01 X-2.1975 Y0.2320 
G01 X-2.1931 Y0.2291 
G01 X-2.1879 Y0.2239 
G01 X-2.1838 Y0.2178 
G01 X-2.1809 Y0.2109 
G01 X-2.1795 Y0.2037 
G01 X-2.1795 Y0.1963 
G01 X-2.1809 Y0.1891 
G01 X-2.1838 Y0.1822 
G01 X-2.1879 Y0.1761 
G01 X-2.1931 Y0.1709 
G01 X-2.1992 Y0.1668 
G01 X-2.2061 Y0.1639 
G01 X-2.2133 Y0.1625 
G01 X-2.2867 Y0.1625 
G01 X-2.2939 Y0.1639 
G01 X-2.3008 Y0.1668 
G01 X-2.3069 Y0.1709 
G01 X-2.3121 Y0.1761 
G01 X-2.3162 Y0.1822 
G01 X-2.3191 Y0.1891 
G01 X-2.3205 Y0.1963 
G01 X-2.3205 Y0.2037 
G01 X-2.3191 Y0.2109 
G01 X-2.3162 Y0.2178 
G01 X-2.3121 Y0.2239 
G01 X-2.3069 Y0.2291 
G01 X-2.3008 Y0.2332 
G01 X-2.2939 Y0.2361 
G01 X-2.2867 Y0.2375 
G01 X-2.2330 Y0.2375 
G01 X-2.2089 Y0.2616 
G01 X-2.2056 Y0.2635 
G01 X-2.2019 Y0.2645 
G01 X-1.0826 Y0.2645 
G01 X-1.0832 Y0.2686 
G01 X-1.0832 Y0.2755 
G01 X-1.0822 Y0.2823 
G01 X-1.0800 Y0.2889 
G01 X-1.0769 Y0.2950 
G01 X-1.0728 Y0.3006 
G01 X-1.0679 Y0.3055 
G01 X-1.0624 Y0.3096 
G01 X-1.0562 Y0.3127 
G01 X-1.0496 Y0.3148 
G01 X-1.0428 Y0.3159 
G01 X-0.9572 Y0.3159 
G00 Z0.1000 
G00 X-1.0763 Y0.3546 
G01 Z-0.0070 F10.00 
G01 X-1.0806 Y0.3503 F20.00 
G01 X-1.0856 Y0.3470 
G01 X-1.0911 Y0.3447 
G01 X-1.0970 Y0.3435 
G01 X-1.1030 Y0.3435 
G01 X-1.1089 Y0.3447 
G01 X-1.1144 Y0.3470 
G01 X-1.1194 Y0.3503 
G01 X-1.1237 Y0.3546 
G01 X-1.1242 Y0.3553 
G01 X-1.1634 Y0.3161 
G01 X-1.1661 Y0.3134 
G01 X-1.1694 Y0.3115 
G01 X-1.1731 Y0.3105 
G01 X-2.4269 Y0.3105 
G01 X-2.4306 Y0.3115 
G01 X-2.4312 Y0.3119 
G01 X-2.4319 Y0.3115 
G01 X-2.4356 Y0.3105 
G01 X-3.1144 Y0.3105 
G01 X-3.1181 Y0.3115 
G01 X-3.1214 Y0.3134 
G01 X-3.1241 Y0.3161 
G01 X-3.1260 Y0.3194 
G01 X-3.1270 Y0.3231 
G01 X-3.1270 Y1.3894 
G01 X-3.1260 Y1.3931 
G01 X-3.1241 Y1.3964 
G01 X-3.1214 Y1.3991 
G01 X-2.9878 Y1.5327 
G01 X-2.9885 Y1.5341 
G01 X-2.9905 Y1.5403 
G01 X-2.9915 Y1.5467 
G01 X-2.9915 Y1.5533 
G01 X-2.9905 Y1.5597 
G01 X-2.9885 Y1.5659 
G01 X-2.9855 Y1.5718 
G01 X-2.9817 Y1.5770 
G01 X-2.9770 Y1.5817 
G01 X-2.9718 Y1.5855 
G01 X-2.9659 Y1.5885 
G01 X-2.9597 Y1.5905 
G01 X-2.9533 Y1.5915 
G01 X-2.9467 Y1.5915 
G01 X-2.9403 Y1.5905 
G01 X-2.9341 Y1.5885 
G01 X-2.9282 Y1.5855 
G01 X-2.9230 Y1.5817 
G01 X-2.9183 Y1.5770 
G01 X-2.9145 Y1.5718 
G01 X-2.9115 Y1.5659 
G01 X-2.9095 Y1.5597 
G01 X-2.9085 Y1.5533 
G01 X-2.9085 Y1.5467 
G01 X-2.9095 Y1.5403 
G01 X-2.9115 Y1.5341 
G01 X-2.9145 Y1.5282 
G01 X-2.9183 Y1.5230 
G01 X-2.9230 Y1.5183 
G01 X-2.9282 Y1.5145 
G01 X-2.9341 Y1.5115 
G01 X-2.9403 Y1.5095 
G01 X-2.9467 Y1.5085 
G01 X-2.9533 Y1.5085 
G01 X-2.9597 Y1.5095 
G01 X-2.9659 Y1.5115 
G01 X-2.9673 Y1.5122 
G01 X-3.0980 Y1.3815 
G01 X-3.0980 Y0.3395 
G01 X-2.4600 Y0.3395 
G01 X-2.4758 Y0.3553 
G01 X-2.4763 Y0.3546 
G01 X-2.4806 Y0.3503 
G01 X-2.4856 Y0.3470 
G01 X-2.4911 Y0.3447 
G01 X-2.4970 Y0.3435 
G01 X-2.5030 Y0.3435 
G01 X-2.5089 Y0.3447 
G01 X-2.5144 Y0.3470 
G01 X-2.5194 Y0.3503 
G01 X-2.5237 Y0.3546 
G01 X-2.5270 Y0.3596 
G01 X-2.5293 Y0.3651 
G01 X-2.5305 Y0.3710 
G01 X-2.5305 Y0.4290 
G01 X-2.5293 Y0.4349 
G01 X-2.5270 Y0.4404 
G01 X-2.5237 Y0.4454 
G01 X-2.5194 Y0.4497 
G01 X-2.5144 Y0.4530 
G01 X-2.5089 Y0.4553 
G01 X-2.5030 Y0.4565 
G01 X-2.4970 Y0.4565 
G01 X-2.4911 Y0.4553 
G01 X-2.4856 Y0.4530 
G01 X-2.4806 Y0.4497 
G01 X-2.4763 Y0.4454 
G01 X-2.4730 Y0.4404 
G01 X-2.4707 Y0.4349 
G01 X-2.4695 Y0.4290 
G01 X-2.4695 Y0.3900 
G01 X-2.4223 Y0.3429 
G01 X-2.4196 Y0.3402 
G01 X-2.4190 Y0.3395 
G01 X-1.1810 Y0.3395 
G01 X-1.1305 Y0.3900 
G01 X-1.1305 Y0.4290 
G01 X-1.1293 Y0.4349 
G01 X-1.1270 Y0.4404 
G01 X-1.1237 Y0.4454 
G01 X-1.1194 Y0.4497 
G01 X-1.1144 Y0.4530 
G01 X-1.1089 Y0.4553 
G01 X-1.1030 Y0.4565 
G01 X-1.0970 Y0.4565 
G01 X-1.0911 Y0.4553 
G01 X-1.0856 Y0.4530 
G01 X-1.0806 Y0.4497 
G01 X-1.0763 Y0.4454 
G01 X-1.0730 Y0.4404 
G01 X-1.0707 Y0.4349 
G01 X-1.0695 Y0.4290 
G01 X-1.0695 Y0.3710 
G01 X-1.0707 Y0.3651 
G01 X-1.0730 Y0.3596 
G01 X-1.0763 Y0.3546 
G00 Z0.1000 
G00 X-1.1424 Y0.3795 
G01 Z-0.0070 F10.00 
G01 X-1.1449 Y0.3770 F20.00 
G01 X-1.1451 Y0.3768 
G01 X-1.1484 Y0.3749 
G01 X-1.1521 Y0.3739 
G01 X-1.1559 Y0.3739 
G01 X-1.1569 Y0.3742 
G01 X-1.1596 Y0.3749 
G01 X-1.1629 Y0.3768 
G01 X-1.1656 Y0.3795 
G01 X-1.1675 Y0.3828 
G01 X-1.1682 Y0.3855 
G01 X-1.1695 Y0.3855 
G01 X-1.1695 Y0.3710 
G01 X-1.1707 Y0.3651 
G01 X-1.1730 Y0.3596 
G01 X-1.1763 Y0.3546 
G01 X-1.1806 Y0.3503 
G01 X-1.1856 Y0.3470 
G01 X-1.1911 Y0.3447 
G01 X-1.1970 Y0.3435 
G01 X-1.2030 Y0.3435 
G01 X-1.2089 Y0.3447 
G01 X-1.2144 Y0.3470 
G01 X-1.2194 Y0.3503 
G01 X-1.2237 Y0.3546 
G01 X-1.2270 Y0.3596 
G01 X-1.2293 Y0.3651 
G01 X-1.2305 Y0.3710 
G01 X-1.2305 Y0.3855 
G01 X-1.2315 Y0.3855 
G01 X-1.2315 Y0.3715 
G01 X-1.2307 Y0.3666 
G01 X-1.2292 Y0.3619 
G01 X-1.2284 Y0.3606 
G01 X-1.2283 Y0.3602 
G01 X-1.2282 Y0.3599 
G01 X-1.2278 Y0.3584 
G01 X-1.2274 Y0.3569 
G01 X-1.2274 Y0.3565 
G01 X-1.2274 Y0.3561 
G01 X-1.2274 Y0.3546 
G01 X-1.2274 Y0.3531 
G01 X-1.2275 Y0.3527 
G01 X-1.2276 Y0.3523 
G01 X-1.2280 Y0.3509 
G01 X-1.2284 Y0.3494 
G01 X-1.2286 Y0.3491 
G01 X-1.2287 Y0.3487 
G01 X-1.2296 Y0.3474 
G01 X-1.2303 Y0.3461 
G01 X-1.2306 Y0.3458 
G01 X-1.2308 Y0.3455 
G01 X-1.2320 Y0.3445 
G01 X-1.2330 Y0.3434 
G01 X-1.2334 Y0.3432 
G01 X-1.2337 Y0.3429 
G01 X-1.2350 Y0.3423 
G01 X-1.2363 Y0.3415 
G01 X-1.2367 Y0.3414 
G01 X-1.2371 Y0.3412 
G01 X-1.2386 Y0.3409 
G01 X-1.2400 Y0.3405 
G01 X-1.2404 Y0.3405 
G01 X-1.2408 Y0.3404 
G01 X-1.2423 Y0.3405 
G01 X-1.2577 Y0.3405 
G01 X-1.2592 Y0.3404 
G01 X-1.2596 Y0.3405 
G01 X-1.2600 Y0.3405 
G01 X-1.2614 Y0.3409 
G01 X-1.2629 Y0.3412 
G01 X-1.2633 Y0.3414 
G01 X-1.2637 Y0.3415 
G01 X-1.2650 Y0.3423 
G01 X-1.2663 Y0.3429 
G01 X-1.2666 Y0.3432 
G01 X-1.2670 Y0.3434 
G01 X-1.2680 Y0.3445 
G01 X-1.2692 Y0.3455 
G01 X-1.2694 Y0.3458 
G01 X-1.2697 Y0.3461 
G01 X-1.2704 Y0.3474 
G01 X-1.2713 Y0.3487 
G01 X-1.2714 Y0.3491 
G01 X-1.2716 Y0.3494 
G01 X-1.2720 Y0.3509 
G01 X-1.2724 Y0.3523 
G01 X-1.2725 Y0.3527 
G01 X-1.2726 Y0.3531 
G01 X-1.2726 Y0.3546 
G01 X-1.2726 Y0.3561 
G01 X-1.2726 Y0.3565 
G01 X-1.2726 Y0.3569 
G01 X-1.2722 Y0.3584 
G01 X-1.2718 Y0.3599 
G01 X-1.2717 Y0.3602 
G01 X-1.2716 Y0.3606 
G01 X-1.2708 Y0.3619 
G01 X-1.2693 Y0.3666 
G01 X-1.2685 Y0.3715 
G01 X-1.2685 Y0.3855 
G01 X-1.2695 Y0.3855 
G01 X-1.2695 Y0.3710 
G01 X-1.2707 Y0.3651 
G01 X-1.2730 Y0.3596 
G01 X-1.2763 Y0.3546 
G01 X-1.2806 Y0.3503 
G01 X-1.2856 Y0.3470 
G01 X-1.2911 Y0.3447 
G01 X-1.2970 Y0.3435 
G01 X-1.3030 Y0.3435 
G01 X-1.3089 Y0.3447 
G01 X-1.3144 Y0.3470 
G01 X-1.3194 Y0.3503 
G01 X-1.3237 Y0.3546 
G01 X-1.3270 Y0.3596 
G01 X-1.3293 Y0.3651 
G01 X-1.3305 Y0.3710 
G01 X-1.3305 Y0.3855 
G01 X-1.3315 Y0.3855 
G01 X-1.3315 Y0.3715 
G01 X-1.3307 Y0.3666 
G01 X-1.3292 Y0.3619 
G01 X-1.3284 Y0.3606 
G01 X-1.3283 Y0.3602 
G01 X-1.3282 Y0.3599 
G01 X-1.3278 Y0.3584 
G01 X-1.3274 Y0.3569 
G01 X-1.3274 Y0.3565 
G01 X-1.3274 Y0.3561 
G01 X-1.3274 Y0.3546 
G01 X-1.3274 Y0.3531 
G01 X-1.3275 Y0.3527 
G01 X-1.3276 Y0.3523 
G01 X-1.3280 Y0.3509 
G01 X-1.3284 Y0.3494 
G01 X-1.3286 Y0.3491 
G01 X-1.3287 Y0.3487 
G01 X-1.3296 Y0.3474 
G01 X-1.3303 Y0.3461 
G01 X-1.3306 Y0.3458 
G01 X-1.3308 Y0.3455 
G01 X-1.3320 Y0.3445 
G01 X-1.3330 Y0.3434 
G01 X-1.3334 Y0.3432 
G01 X-1.3337 Y0.3429 
G01 X-1.3350 Y0.3423 
G01 X-1.3363 Y0.3415 
G01 X-1.3367 Y0.3414 
G01 X-1.3371 Y0.3412 
G01 X-1.3386 Y0.3409 
G01 X-1.3400 Y0.3405 
G01 X-1.3404 Y0.3405 
G01 X-1.3408 Y0.3404 
G01 X-1.3423 Y0.3405 
G01 X-1.4262 Y0.3405 
G01 X-1.4264 Y0.3405 
G01 X-1.4299 Y0.3415 
G01 X-1.4331 Y0.3434 
G01 X-1.4359 Y0.3461 
G01 X-1.4377 Y0.3493 
G01 X-1.4388 Y0.3531 
G01 X-1.4388 Y0.3569 
G01 X-1.4387 Y0.3571 
G01 X-1.4378 Y0.3606 
G01 X-1.4359 Y0.3638 
G01 X-1.4332 Y0.3666 
G01 X-1.4145 Y0.3853 
G01 X-1.4145 Y0.4147 
G01 X-1.4148 Y0.4150 
G01 X-1.4158 Y0.4161 
G01 X-1.4175 Y0.4177 
G01 X-1.4194 Y0.4210 
G01 X-1.4199 Y0.4227 
G01 X-1.4204 Y0.4247 
G01 X-1.4204 Y0.4286 
G01 X-1.4199 Y0.4305 
G01 X-1.4194 Y0.4322 
G01 X-1.4175 Y0.4355 
G01 X-1.4159 Y0.4372 
G01 X-1.4148 Y0.4382 
G01 X-1.4085 Y0.4446 
G01 X-1.3965 Y0.4566 
G01 X-1.3932 Y0.4585 
G01 X-1.3895 Y0.4595 
G01 X-1.3423 Y0.4595 
G01 X-1.3408 Y0.4596 
G01 X-1.3404 Y0.4595 
G01 X-1.3400 Y0.4595 
G01 X-1.3386 Y0.4591 
G01 X-1.3371 Y0.4588 
G01 X-1.3367 Y0.4586 
G01 X-1.3363 Y0.4585 
G01 X-1.3350 Y0.4577 
G01 X-1.3337 Y0.4571 
G01 X-1.3334 Y0.4568 
G01 X-1.3330 Y0.4566 
G01 X-1.3320 Y0.4555 
G01 X-1.3308 Y0.4545 
G01 X-1.3306 Y0.4542 
G01 X-1.3303 Y0.4539 
G01 X-1.3296 Y0.4526 
G01 X-1.3287 Y0.4513 
G01 X-1.3286 Y0.4509 
G01 X-1.3284 Y0.4506 
G01 X-1.3280 Y0.4491 
G01 X-1.3276 Y0.4477 
G01 X-1.3275 Y0.4473 
G01 X-1.3274 Y0.4469 
G01 X-1.3274 Y0.4454 
G01 X-1.3274 Y0.4439 
G01 X-1.3274 Y0.4435 
G01 X-1.3274 Y0.4431 
G01 X-1.3278 Y0.4416 
G01 X-1.3282 Y0.4401 
G01 X-1.3283 Y0.4398 
G01 X-1.3284 Y0.4394 
G01 X-1.3292 Y0.4381 
G01 X-1.3307 Y0.4334 
G01 X-1.3315 Y0.4285 
G01 X-1.3315 Y0.4145 
G01 X-1.3305 Y0.4145 
G01 X-1.3305 Y0.4290 
G01 X-1.3293 Y0.4349 
G01 X-1.3270 Y0.4404 
G01 X-1.3237 Y0.4454 
G01 X-1.3194 Y0.4497 
G01 X-1.3144 Y0.4530 
G01 X-1.3089 Y0.4553 
G01 X-1.3030 Y0.4565 
G01 X-1.2970 Y0.4565 
G01 X-1.2911 Y0.4553 
G01 X-1.2856 Y0.4530 
G01 X-1.2806 Y0.4497 
G01 X-1.2763 Y0.4454 
G01 X-1.2730 Y0.4404 
G01 X-1.2707 Y0.4349 
G01 X-1.2695 Y0.4290 
G01 X-1.2695 Y0.4145 
G01 X-1.2685 Y0.4145 
G01 X-1.2685 Y0.4285 
G01 X-1.2693 Y0.4334 
G01 X-1.2708 Y0.4381 
G01 X-1.2716 Y0.4394 
G01 X-1.2717 Y0.4398 
G01 X-1.2718 Y0.4401 
G01 X-1.2722 Y0.4416 
G01 X-1.2726 Y0.4431 
G01 X-1.2726 Y0.4435 
G01 X-1.2726 Y0.4439 
G01 X-1.2726 Y0.4454 
G01 X-1.2726 Y0.4469 
G01 X-1.2725 Y0.4473 
G01 X-1.2724 Y0.4477 
G01 X-1.2720 Y0.4491 
G01 X-1.2716 Y0.4506 
G01 X-1.2714 Y0.4509 
G01 X-1.2713 Y0.4513 
G01 X-1.2704 Y0.4526 
G01 X-1.2697 Y0.4539 
G01 X-1.2694 Y0.4542 
G01 X-1.2692 Y0.4545 
G01 X-1.2680 Y0.4555 
G01 X-1.2670 Y0.4566 
G01 X-1.2666 Y0.4568 
G01 X-1.2663 Y0.4571 
G01 X-1.2650 Y0.4577 
G01 X-1.2637 Y0.4585 
G01 X-1.2633 Y0.4586 
G01 X-1.2629 Y0.4588 
G01 X-1.2614 Y0.4591 
G01 X-1.2600 Y0.4595 
G01 X-1.2596 Y0.4595 
G01 X-1.2592 Y0.4596 
G01 X-1.2577 Y0.4595 
G01 X-1.2423 Y0.4595 
G01 X-1.2408 Y0.4596 
G01 X-1.2404 Y0.4595 
G01 X-1.2400 Y0.4595 
G01 X-1.2386 Y0.4591 
G01 X-1.2371 Y0.4588 
G01 X-1.2367 Y0.4586 
G01 X-1.2363 Y0.4585 
G01 X-1.2350 Y0.4577 
G01 X-1.2337 Y0.4571 
G01 X-1.2334 Y0.4568 
G01 X-1.2330 Y0.4566 
G01 X-1.2320 Y0.4555 
G01 X-1.2308 Y0.4545 
G01 X-1.2306 Y0.4542 
G01 X-1.2303 Y0.4539 
G01 X-1.2296 Y0.4526 
G01 X-1.2287 Y0.4513 
G01 X-1.2286 Y0.4509 
G01 X-1.2284 Y0.4506 
G01 X-1.2280 Y0.4491 
G01 X-1.2276 Y0.4477 
G01 X-1.2275 Y0.4473 
G01 X-1.2274 Y0.4469 
G01 X-1.2274 Y0.4454 
G01 X-1.2274 Y0.4439 
G01 X-1.2274 Y0.4435 
G01 X-1.2274 Y0.4431 
G01 X-1.2278 Y0.4416 
G01 X-1.2282 Y0.4401 
G01 X-1.2283 Y0.4398 
G01 X-1.2284 Y0.4394 
G01 X-1.2292 Y0.4381 
G01 X-1.2307 Y0.4334 
G01 X-1.2315 Y0.4285 
G01 X-1.2315 Y0.4145 
G01 X-1.2305 Y0.4145 
G01 X-1.2305 Y0.4290 
G01 X-1.2293 Y0.4349 
G01 X-1.2270 Y0.4404 
G01 X-1.2237 Y0.4454 
G01 X-1.2194 Y0.4497 
G01 X-1.2144 Y0.4530 
G01 X-1.2089 Y0.4553 
G01 X-1.2030 Y0.4565 
G01 X-1.1970 Y0.4565 
G01 X-1.1911 Y0.4553 
G01 X-1.1856 Y0.4530 
G01 X-1.1806 Y0.4497 
G01 X-1.1763 Y0.4454 
G01 X-1.1730 Y0.4404 
G01 X-1.1707 Y0.4349 
G01 X-1.1695 Y0.4290 
G01 X-1.1695 Y0.4145 
G01 X-1.1685 Y0.4145 
G01 X-1.1685 Y0.4285 
G01 X-1.1693 Y0.4334 
G01 X-1.1708 Y0.4381 
G01 X-1.1716 Y0.4394 
G01 X-1.1717 Y0.4398 
G01 X-1.1718 Y0.4401 
G01 X-1.1722 Y0.4416 
G01 X-1.1726 Y0.4431 
G01 X-1.1726 Y0.4435 
G01 X-1.1726 Y0.4439 
G01 X-1.1726 Y0.4454 
G01 X-1.1726 Y0.4469 
G01 X-1.1725 Y0.4473 
G01 X-1.1724 Y0.4477 
G01 X-1.1720 Y0.4491 
G01 X-1.1716 Y0.4506 
G01 X-1.1714 Y0.4509 
G01 X-1.1713 Y0.4513 
G01 X-1.1704 Y0.4526 
G01 X-1.1697 Y0.4539 
G01 X-1.1694 Y0.4542 
G01 X-1.1692 Y0.4545 
G01 X-1.1680 Y0.4555 
G01 X-1.1670 Y0.4566 
G01 X-1.1666 Y0.4568 
G01 X-1.1663 Y0.4571 
G01 X-1.1650 Y0.4577 
G01 X-1.1637 Y0.4585 
G01 X-1.1633 Y0.4586 
G01 X-1.1629 Y0.4588 
G01 X-1.1614 Y0.4591 
G01 X-1.1600 Y0.4595 
G01 X-1.1596 Y0.4595 
G01 X-1.1592 Y0.4596 
G01 X-1.1577 Y0.4595 
G01 X-1.1429 Y0.4595 
G01 X-1.1419 Y0.4596 
G01 X-1.1410 Y0.4595 
G01 X-1.1400 Y0.4595 
G01 X-1.1391 Y0.4593 
G01 X-1.1381 Y0.4591 
G01 X-1.1372 Y0.4588 
G01 X-1.1363 Y0.4585 
G01 X-1.1355 Y0.4580 
G01 X-1.1346 Y0.4577 
G01 X-1.1338 Y0.4571 
G01 X-1.1330 Y0.4566 
G01 X-1.1323 Y0.4559 
G01 X-1.1316 Y0.4553 
G01 X-1.1310 Y0.4546 
G01 X-1.1303 Y0.4539 
G01 X-1.1298 Y0.4531 
G01 X-1.1293 Y0.4523 
G01 X-1.1289 Y0.4514 
G01 X-1.1284 Y0.4506 
G01 X-1.1282 Y0.4497 
G01 X-1.1278 Y0.4488 
G01 X-1.1277 Y0.4478 
G01 X-1.1274 Y0.4469 
G01 X-1.1274 Y0.4460 
G01 X-1.1273 Y0.4450 
G01 X-1.1274 Y0.4440 
G01 X-1.1274 Y0.4431 
G01 X-1.1277 Y0.4422 
G01 X-1.1278 Y0.4412 
G01 X-1.1282 Y0.4403 
G01 X-1.1284 Y0.4394 
G01 X-1.1289 Y0.4386 
G01 X-1.1315 Y0.4323 
G01 X-1.1315 Y0.3945 
G01 X-1.1318 Y0.3935 
G01 X-1.1325 Y0.3908 
G01 X-1.1344 Y0.3875 
G01 X-1.1346 Y0.3874 
G01 X-1.1424 Y0.3795 
G00 Z0.1000 
G00 X-1.1119 Y0.5720 
G01 Z-0.0070 F10.00 
G01 X-1.1129 Y0.5730 F20.00 
G01 X-1.4282 Y0.5730 
G01 X-1.4355 Y0.5657 
G01 X-1.4355 Y0.5343 
G01 X-1.4155 Y0.5143 
G01 X-1.4155 Y0.4857 
G01 X-1.4357 Y0.4655 
G01 X-1.4643 Y0.4655 
G01 X-1.4845 Y0.4857 
G01 X-1.4845 Y0.5143 
G01 X-1.4645 Y0.5343 
G01 X-1.4645 Y0.5657 
G01 X-1.4845 Y0.5857 
G01 X-1.4845 Y0.6143 
G01 X-1.4643 Y0.6345 
G01 X-1.4357 Y0.6345 
G01 X-1.4155 Y0.6143 
G01 X-1.4155 Y0.6020 
G01 X-1.1129 Y0.6020 
G01 X-1.1119 Y0.6030 
G01 X-1.1075 Y0.6056 
G01 X-1.1026 Y0.6069 
G01 X-1.0974 Y0.6069 
G01 X-1.0925 Y0.6056 
G01 X-1.0881 Y0.6030 
G01 X-1.0845 Y0.5994 
G01 X-1.0819 Y0.5950 
G01 X-1.0806 Y0.5901 
G01 X-1.0806 Y0.5849 
G01 X-1.0819 Y0.5800 
G01 X-1.0845 Y0.5756 
G01 X-1.0881 Y0.5720 
G01 X-1.0925 Y0.5694 
G01 X-1.0974 Y0.5681 
G01 X-1.1026 Y0.5681 
G01 X-1.1075 Y0.5694 
G01 X-1.1119 Y0.5720 
G00 Z0.1000 
G00 X-1.1089 Y0.6447 
G01 Z-0.0070 F10.00 
G01 X-1.1144 Y0.6470 F20.00 
G01 X-1.1194 Y0.6503 
G01 X-1.1237 Y0.6546 
G01 X-1.1270 Y0.6596 
G01 X-1.1293 Y0.6651 
G01 X-1.1305 Y0.6710 
G01 X-1.1305 Y0.7290 
G01 X-1.1293 Y0.7349 
G01 X-1.1270 Y0.7404 
G01 X-1.1237 Y0.7454 
G01 X-1.1194 Y0.7497 
G01 X-1.1144 Y0.7530 
G01 X-1.1089 Y0.7553 
G01 X-1.1030 Y0.7565 
G01 X-1.0970 Y0.7565 
G01 X-1.0911 Y0.7553 
G01 X-1.0856 Y0.7530 
G01 X-1.0806 Y0.7497 
G01 X-1.0763 Y0.7454 
G01 X-1.0730 Y0.7404 
G01 X-1.0707 Y0.7349 
G01 X-1.0695 Y0.7290 
G01 X-1.0695 Y0.6710 
G01 X-1.0707 Y0.6651 
G01 X-1.0730 Y0.6596 
G01 X-1.0763 Y0.6546 
G01 X-1.0806 Y0.6503 
G01 X-1.0856 Y0.6470 
G01 X-1.0911 Y0.6447 
G01 X-1.0970 Y0.6435 
G01 X-1.1030 Y0.6435 
G01 X-1.1089 Y0.6447 
G00 Z0.1000 
G00 X-1.1763 Y0.6546 
G01 Z-0.0070 F10.00 
G01 X-1.1806 Y0.6503 F20.00 
G01 X-1.1856 Y0.6470 
G01 X-1.1911 Y0.6447 
G01 X-1.1970 Y0.6435 
G01 X-1.2030 Y0.6435 
G01 X-1.2089 Y0.6447 
G01 X-1.2144 Y0.6470 
G01 X-1.2194 Y0.6503 
G01 X-1.2237 Y0.6546 
G01 X-1.2270 Y0.6596 
G01 X-1.2293 Y0.6651 
G01 X-1.2305 Y0.6710 
G01 X-1.2305 Y0.7290 
G01 X-1.2293 Y0.7349 
G01 X-1.2270 Y0.7404 
G01 X-1.2237 Y0.7454 
G01 X-1.2194 Y0.7497 
G01 X-1.2144 Y0.7530 
G01 X-1.2089 Y0.7553 
G01 X-1.2030 Y0.7565 
G01 X-1.1970 Y0.7565 
G01 X-1.1911 Y0.7553 
G01 X-1.1856 Y0.7530 
G01 X-1.1806 Y0.7497 
G01 X-1.1763 Y0.7454 
G01 X-1.1730 Y0.7404 
G01 X-1.1707 Y0.7349 
G01 X-1.1695 Y0.7290 
G01 X-1.1695 Y0.6710 
G01 X-1.1707 Y0.6651 
G01 X-1.1730 Y0.6596 
G01 X-1.1763 Y0.6546 
G00 Z0.1000 
G00 X-1.2273 Y0.6550 
G01 Z-0.0070 F10.00 
G01 X-1.2274 Y0.6540 F20.00 
G01 X-1.2274 Y0.6531 
G01 X-1.2277 Y0.6522 
G01 X-1.2278 Y0.6512 
G01 X-1.2282 Y0.6503 
G01 X-1.2284 Y0.6494 
G01 X-1.2289 Y0.6486 
G01 X-1.2293 Y0.6477 
G01 X-1.2298 Y0.6469 
G01 X-1.2303 Y0.6461 
G01 X-1.2310 Y0.6454 
G01 X-1.2316 Y0.6447 
G01 X-1.2323 Y0.6441 
G01 X-1.2330 Y0.6434 
G01 X-1.2338 Y0.6429 
G01 X-1.2346 Y0.6423 
G01 X-1.2355 Y0.6420 
G01 X-1.2363 Y0.6415 
G01 X-1.2372 Y0.6412 
G01 X-1.2381 Y0.6409 
G01 X-1.2391 Y0.6407 
G01 X-1.2400 Y0.6405 
G01 X-1.2410 Y0.6405 
G01 X-1.2419 Y0.6404 
G01 X-1.2429 Y0.6405 
G01 X-1.2577 Y0.6405 
G01 X-1.2592 Y0.6404 
G01 X-1.2596 Y0.6405 
G01 X-1.2600 Y0.6405 
G01 X-1.2614 Y0.6409 
G01 X-1.2629 Y0.6412 
G01 X-1.2633 Y0.6414 
G01 X-1.2637 Y0.6415 
G01 X-1.2650 Y0.6423 
G01 X-1.2663 Y0.6429 
G01 X-1.2666 Y0.6432 
G01 X-1.2670 Y0.6434 
G01 X-1.2680 Y0.6445 
G01 X-1.2692 Y0.6455 
G01 X-1.2694 Y0.6458 
G01 X-1.2697 Y0.6461 
G01 X-1.2704 Y0.6474 
G01 X-1.2713 Y0.6487 
G01 X-1.2714 Y0.6491 
G01 X-1.2716 Y0.6494 
G01 X-1.2720 Y0.6509 
G01 X-1.2724 Y0.6523 
G01 X-1.2725 Y0.6527 
G01 X-1.2726 Y0.6531 
G01 X-1.2726 Y0.6546 
G01 X-1.2726 Y0.6561 
G01 X-1.2726 Y0.6565 
G01 X-1.2726 Y0.6569 
G01 X-1.2722 Y0.6584 
G01 X-1.2718 Y0.6599 
G01 X-1.2717 Y0.6602 
G01 X-1.2716 Y0.6606 
G01 X-1.2708 Y0.6619 
G01 X-1.2693 Y0.6666 
G01 X-1.2685 Y0.6715 
G01 X-1.2685 Y0.6855 
G01 X-1.2695 Y0.6855 
G01 X-1.2695 Y0.6710 
G01 X-1.2707 Y0.6651 
G01 X-1.2730 Y0.6596 
G01 X-1.2763 Y0.6546 
G01 X-1.2806 Y0.6503 
G01 X-1.2856 Y0.6470 
G01 X-1.2911 Y0.6447 
G01 X-1.2970 Y0.6435 
G01 X-1.3030 Y0.6435 
G01 X-1.3089 Y0.6447 
G01 X-1.3144 Y0.6470 
G01 X-1.3194 Y0.6503 
G01 X-1.3237 Y0.6546 
G01 X-1.3270 Y0.6596 
G01 X-1.3293 Y0.6651 
G01 X-1.3305 Y0.6710 
G01 X-1.3305 Y0.6855 
G01 X-1.3315 Y0.6855 
G01 X-1.3315 Y0.6715 
G01 X-1.3307 Y0.6666 
G01 X-1.3292 Y0.6619 
G01 X-1.3284 Y0.6606 
G01 X-1.3283 Y0.6602 
G01 X-1.3282 Y0.6599 
G01 X-1.3278 Y0.6584 
G01 X-1.3274 Y0.6569 
G01 X-1.3274 Y0.6565 
G01 X-1.3274 Y0.6561 
G01 X-1.3274 Y0.6546 
G01 X-1.3274 Y0.6531 
G01 X-1.3275 Y0.6527 
G01 X-1.3276 Y0.6523 
G01 X-1.3280 Y0.6509 
G01 X-1.3284 Y0.6494 
G01 X-1.3286 Y0.6491 
G01 X-1.3287 Y0.6487 
G01 X-1.3296 Y0.6474 
G01 X-1.3303 Y0.6461 
G01 X-1.3306 Y0.6458 
G01 X-1.3308 Y0.6455 
G01 X-1.3320 Y0.6445 
G01 X-1.3330 Y0.6434 
G01 X-1.3334 Y0.6432 
G01 X-1.3337 Y0.6429 
G01 X-1.3350 Y0.6423 
G01 X-1.3363 Y0.6415 
G01 X-1.3367 Y0.6414 
G01 X-1.3371 Y0.6412 
G01 X-1.3386 Y0.6409 
G01 X-1.3400 Y0.6405 
G01 X-1.3404 Y0.6405 
G01 X-1.3408 Y0.6404 
G01 X-1.3423 Y0.6405 
G01 X-1.3895 Y0.6405 
G01 X-1.3932 Y0.6415 
G01 X-1.3965 Y0.6434 
G01 X-1.3992 Y0.6461 
G01 X-1.4085 Y0.6555 
G01 X-1.4148 Y0.6618 
G01 X-1.4158 Y0.6627 
G01 X-1.4175 Y0.6645 
G01 X-1.4194 Y0.6678 
G01 X-1.4199 Y0.6694 
G01 X-1.4204 Y0.6714 
G01 X-1.4204 Y0.6753 
G01 X-1.4199 Y0.6772 
G01 X-1.4194 Y0.6790 
G01 X-1.4175 Y0.6823 
G01 X-1.4159 Y0.6839 
G01 X-1.4148 Y0.6850 
G01 X-1.4145 Y0.6853 
G01 X-1.4145 Y0.7147 
G01 X-1.4353 Y0.7355 
G01 X-1.4647 Y0.7355 
G01 X-1.4855 Y0.7147 
G01 X-1.4855 Y0.6781 
G01 X-1.4865 Y0.6744 
G01 X-1.4884 Y0.6711 
G01 X-1.4911 Y0.6684 
G01 X-1.4944 Y0.6665 
G01 X-1.4981 Y0.6655 
G01 X-1.5019 Y0.6655 
G01 X-1.5056 Y0.6665 
G01 X-1.5089 Y0.6684 
G01 X-1.5116 Y0.6711 
G01 X-1.5135 Y0.6744 
G01 X-1.5145 Y0.6781 
G01 X-1.5145 Y0.7147 
G01 X-1.5353 Y0.7355 
G01 X-1.5647 Y0.7355 
G01 X-1.5855 Y0.7147 
G01 X-1.5855 Y0.6781 
G01 X-1.5865 Y0.6744 
G01 X-1.5884 Y0.6711 
G01 X-1.5911 Y0.6684 
G01 X-1.5944 Y0.6665 
G01 X-1.5981 Y0.6655 
G01 X-1.7559 Y0.6655 
G01 X-1.7596 Y0.6665 
G01 X-1.7629 Y0.6684 
G01 X-1.7656 Y0.6711 
G01 X-1.7675 Y0.6744 
G01 X-1.7685 Y0.6781 
G01 X-1.7685 Y0.6855 
G01 X-1.7695 Y0.6855 
G01 X-1.7695 Y0.6710 
G01 X-1.7707 Y0.6651 
G01 X-1.7730 Y0.6596 
G01 X-1.7763 Y0.6546 
G01 X-1.7806 Y0.6503 
G01 X-1.7856 Y0.6470 
G01 X-1.7911 Y0.6447 
G01 X-1.7970 Y0.6435 
G01 X-1.8030 Y0.6435 
G01 X-1.8089 Y0.6447 
G01 X-1.8144 Y0.6470 
G01 X-1.8194 Y0.6503 
G01 X-1.8237 Y0.6546 
G01 X-1.8270 Y0.6596 
G01 X-1.8293 Y0.6651 
G01 X-1.8305 Y0.6710 
G01 X-1.8305 Y0.6855 
G01 X-1.8318 Y0.6855 
G01 X-1.8325 Y0.6828 
G01 X-1.8344 Y0.6795 
G01 X-1.8371 Y0.6768 
G01 X-1.8404 Y0.6749 
G01 X-1.8441 Y0.6739 
G01 X-1.8479 Y0.6739 
G01 X-1.8516 Y0.6749 
G01 X-1.8549 Y0.6768 
G01 X-1.8576 Y0.6795 
G01 X-1.8656 Y0.6875 
G01 X-1.8675 Y0.6908 
G01 X-1.8685 Y0.6945 
G01 X-1.8685 Y0.7323 
G01 X-1.8733 Y0.7438 
G01 X-1.8780 Y0.7486 
G01 X-1.8800 Y0.7519 
G01 X-1.8809 Y0.7556 
G01 X-1.8809 Y0.7594 
G01 X-1.8807 Y0.7604 
G01 X-1.8800 Y0.7631 
G01 X-1.8780 Y0.7664 
G01 X-1.8753 Y0.7691 
G01 X-1.8720 Y0.7710 
G01 X-1.8684 Y0.7720 
G01 X-1.8355 Y0.7720 
G01 X-1.8336 Y0.7720 
G01 X-1.8316 Y0.7720 
G01 X-1.8280 Y0.7710 
G01 X-1.8251 Y0.7694 
G01 X-1.8247 Y0.7691 
G01 X-1.8233 Y0.7678 
G01 X-1.8220 Y0.7664 
G01 X-1.8207 Y0.7642 
G01 X-1.8200 Y0.7631 
G01 X-1.8193 Y0.7604 
G01 X-1.8191 Y0.7594 
G01 X-1.8191 Y0.7575 
G01 X-1.8191 Y0.7556 
G01 X-1.8200 Y0.7519 
G01 X-1.8217 Y0.7490 
G01 X-1.8220 Y0.7486 
G01 X-1.8233 Y0.7472 
G01 X-1.8240 Y0.7465 
G01 X-1.8269 Y0.7425 
G01 X-1.8292 Y0.7381 
G01 X-1.8307 Y0.7334 
G01 X-1.8315 Y0.7285 
G01 X-1.8315 Y0.7145 
G01 X-1.8305 Y0.7145 
G01 X-1.8305 Y0.7290 
G01 X-1.8293 Y0.7349 
G01 X-1.8270 Y0.7404 
G01 X-1.8237 Y0.7454 
G01 X-1.8194 Y0.7497 
G01 X-1.8144 Y0.7530 
G01 X-1.8089 Y0.7553 
G01 X-1.8030 Y0.7565 
G01 X-1.7970 Y0.7565 
G01 X-1.7911 Y0.7553 
G01 X-1.7856 Y0.7530 
G01 X-1.7806 Y0.7497 
G01 X-1.7763 Y0.7454 
G01 X-1.7758 Y0.7447 
G01 X-1.7751 Y0.7454 
G01 X-1.7760 Y0.7465 
G01 X-1.7766 Y0.7472 
G01 X-1.7780 Y0.7486 
G01 X-1.7783 Y0.7490 
G01 X-1.7800 Y0.7519 
G01 X-1.7809 Y0.7556 
G01 X-1.7809 Y0.7575 
G01 X-1.7809 Y0.7594 
G01 X-1.7807 Y0.7604 
G01 X-1.7800 Y0.7631 
G01 X-1.7794 Y0.7641 
G01 X-1.7780 Y0.7664 
G01 X-1.7767 Y0.7677 
G01 X-1.7753 Y0.7691 
G01 X-1.7750 Y0.7693 
G01 X-1.7720 Y0.7710 
G01 X-1.7684 Y0.7720 
G01 X-1.7665 Y0.7720 
G01 X-1.7645 Y0.7720 
G01 X-1.3355 Y0.7720 
G01 X-1.3336 Y0.7720 
G01 X-1.3316 Y0.7720 
G01 X-1.3280 Y0.7710 
G01 X-1.3251 Y0.7694 
G01 X-1.3247 Y0.7691 
G01 X-1.3233 Y0.7678 
G01 X-1.3220 Y0.7664 
G01 X-1.3207 Y0.7642 
G01 X-1.3200 Y0.7631 
G01 X-1.3193 Y0.7604 
G01 X-1.3191 Y0.7594 
G01 X-1.3191 Y0.7575 
G01 X-1.3191 Y0.7556 
G01 X-1.3200 Y0.7519 
G01 X-1.3217 Y0.7490 
G01 X-1.3220 Y0.7486 
G01 X-1.3233 Y0.7472 
G01 X-1.3240 Y0.7465 
G01 X-1.3249 Y0.7454 
G01 X-1.3242 Y0.7447 
G01 X-1.3237 Y0.7454 
G01 X-1.3194 Y0.7497 
G01 X-1.3144 Y0.7530 
G01 X-1.3089 Y0.7553 
G01 X-1.3030 Y0.7565 
G01 X-1.2970 Y0.7565 
G01 X-1.2911 Y0.7553 
G01 X-1.2856 Y0.7530 
G01 X-1.2806 Y0.7497 
G01 X-1.2763 Y0.7454 
G01 X-1.2730 Y0.7404 
G01 X-1.2707 Y0.7349 
G01 X-1.2695 Y0.7290 
G01 X-1.2695 Y0.7145 
G01 X-1.2685 Y0.7145 
G01 X-1.2685 Y0.7285 
G01 X-1.2693 Y0.7334 
G01 X-1.2708 Y0.7381 
G01 X-1.2731 Y0.7425 
G01 X-1.2760 Y0.7465 
G01 X-1.2766 Y0.7472 
G01 X-1.2780 Y0.7486 
G01 X-1.2783 Y0.7490 
G01 X-1.2800 Y0.7519 
G01 X-1.2809 Y0.7556 
G01 X-1.2809 Y0.7575 
G01 X-1.2809 Y0.7594 
G01 X-1.2807 Y0.7604 
G01 X-1.2800 Y0.7631 
G01 X-1.2794 Y0.7641 
G01 X-1.2780 Y0.7664 
G01 X-1.2767 Y0.7677 
G01 X-1.2753 Y0.7691 
G01 X-1.2750 Y0.7693 
G01 X-1.2720 Y0.7710 
G01 X-1.2684 Y0.7720 
G01 X-1.2665 Y0.7720 
G01 X-1.2645 Y0.7720 
G01 X-1.2316 Y0.7720 
G01 X-1.2280 Y0.7710 
G01 X-1.2247 Y0.7691 
G01 X-1.2220 Y0.7664 
G01 X-1.2200 Y0.7631 
G01 X-1.2193 Y0.7604 
G01 X-1.2191 Y0.7594 
G01 X-1.2191 Y0.7556 
G01 X-1.2200 Y0.7519 
G01 X-1.2220 Y0.7486 
G01 X-1.2267 Y0.7438 
G01 X-1.2315 Y0.7323 
G01 X-1.2315 Y0.6677 
G01 X-1.2289 Y0.6614 
G01 X-1.2284 Y0.6606 
G01 X-1.2282 Y0.6597 
G01 X-1.2278 Y0.6588 
G01 X-1.2277 Y0.6578 
G01 X-1.2274 Y0.6569 
G01 X-1.2274 Y0.6560 
G01 X-1.2273 Y0.6550 
G00 Z0.1000 
G00 X-1.2244 Y0.8095 
G01 Z-0.0070 F10.00 
G01 X-1.2280 Y0.8131 F20.00 
G01 X-1.2306 Y0.8175 
G01 X-1.2319 Y0.8224 
G01 X-1.2319 Y0.8239 
G01 X-1.2560 Y0.8480 
G01 X-2.4746 Y0.8480 
G01 X-2.4756 Y0.8470 
G01 X-2.4800 Y0.8444 
G01 X-2.4849 Y0.8431 
G01 X-2.4901 Y0.8431 
G01 X-2.4950 Y0.8444 
G01 X-2.4994 Y0.8470 
G01 X-2.5004 Y0.8480 
G01 X-2.9371 Y0.8480 
G01 X-2.9381 Y0.8470 
G01 X-2.9425 Y0.8444 
G01 X-2.9474 Y0.8431 
G01 X-2.9526 Y0.8431 
G01 X-2.9575 Y0.8444 
G01 X-2.9619 Y0.8470 
G01 X-2.9655 Y0.8506 
G01 X-2.9681 Y0.8550 
G01 X-2.9694 Y0.8599 
G01 X-2.9694 Y0.8651 
G01 X-2.9681 Y0.8700 
G01 X-2.9655 Y0.8744 
G01 X-2.9619 Y0.8780 
G01 X-2.9575 Y0.8806 
G01 X-2.9526 Y0.8819 
G01 X-2.9474 Y0.8819 
G01 X-2.9425 Y0.8806 
G01 X-2.9381 Y0.8780 
G01 X-2.9371 Y0.8770 
G01 X-2.5004 Y0.8770 
G01 X-2.4994 Y0.8780 
G01 X-2.4950 Y0.8806 
G01 X-2.4901 Y0.8819 
G01 X-2.4849 Y0.8819 
G01 X-2.4800 Y0.8806 
G01 X-2.4756 Y0.8780 
G01 X-2.4746 Y0.8770 
G01 X-1.2481 Y0.8770 
G01 X-1.2444 Y0.8760 
G01 X-1.2411 Y0.8741 
G01 X-1.2384 Y0.8714 
G01 X-1.2114 Y0.8444 
G01 X-1.2099 Y0.8444 
G01 X-1.2050 Y0.8431 
G01 X-1.2006 Y0.8405 
G01 X-1.1970 Y0.8369 
G01 X-1.1944 Y0.8325 
G01 X-1.1931 Y0.8276 
G01 X-1.1931 Y0.8224 
G01 X-1.1944 Y0.8175 
G01 X-1.1970 Y0.8131 
G01 X-1.2006 Y0.8095 
G01 X-1.2050 Y0.8069 
G01 X-1.2099 Y0.8056 
G01 X-1.2151 Y0.8056 
G01 X-1.2200 Y0.8069 
G01 X-1.2244 Y0.8095 
G00 Z0.1000 
G00 X-1.2763 Y0.9546 
G01 Z-0.0070 F10.00 
G01 X-1.2806 Y0.9503 F20.00 
G01 X-1.2856 Y0.9470 
G01 X-1.2911 Y0.9447 
G01 X-1.2970 Y0.9435 
G01 X-1.3030 Y0.9435 
G01 X-1.3089 Y0.9447 
G01 X-1.3144 Y0.9470 
G01 X-1.3194 Y0.9503 
G01 X-1.3237 Y0.9546 
G01 X-1.3270 Y0.9596 
G01 X-1.3293 Y0.9651 
G01 X-1.3305 Y0.9710 
G01 X-1.3305 Y1.0290 
G01 X-1.3293 Y1.0349 
G01 X-1.3270 Y1.0404 
G01 X-1.3237 Y1.0454 
G01 X-1.3194 Y1.0497 
G01 X-1.3144 Y1.0530 
G01 X-1.3089 Y1.0553 
G01 X-1.3030 Y1.0565 
G01 X-1.2970 Y1.0565 
G01 X-1.2911 Y1.0553 
G01 X-1.2856 Y1.0530 
G01 X-1.2806 Y1.0497 
G01 X-1.2763 Y1.0454 
G01 X-1.2730 Y1.0404 
G01 X-1.2707 Y1.0349 
G01 X-1.2695 Y1.0290 
G01 X-1.2695 Y0.9710 
G01 X-1.2707 Y0.9651 
G01 X-1.2730 Y0.9596 
G01 X-1.2763 Y0.9546 
G00 Z0.1000 
G00 X-1.1237 Y0.9546 
G01 Z-0.0070 F10.00 
G01 X-1.1270 Y0.9596 F20.00 
G01 X-1.1293 Y0.9651 
G01 X-1.1305 Y0.9710 
G01 X-1.1305 Y1.0290 
G01 X-1.1293 Y1.0349 
G01 X-1.1270 Y1.0404 
G01 X-1.1237 Y1.0454 
G01 X-1.1194 Y1.0497 
G01 X-1.1144 Y1.0530 
G01 X-1.1089 Y1.0553 
G01 X-1.1030 Y1.0565 
G01 X-1.0970 Y1.0565 
G01 X-1.0911 Y1.0553 
G01 X-1.0856 Y1.0530 
G01 X-1.0806 Y1.0497 
G01 X-1.0763 Y1.0454 
G01 X-1.0730 Y1.0404 
G01 X-1.0707 Y1.0349 
G01 X-1.0695 Y1.0290 
G01 X-1.0695 Y0.9710 
G01 X-1.0707 Y0.9651 
G01 X-1.0730 Y0.9596 
G01 X-1.0763 Y0.9546 
G01 X-1.0806 Y0.9503 
G01 X-1.0856 Y0.9470 
G01 X-1.0911 Y0.9447 
G01 X-1.0970 Y0.9435 
G01 X-1.1030 Y0.9435 
G01 X-1.1089 Y0.9447 
G01 X-1.1144 Y0.9470 
G01 X-1.1194 Y0.9503 
G01 X-1.1237 Y0.9546 
G00 Z0.1000 
G00 X-0.9237 Y0.9546 
G01 Z-0.0070 F10.00 
G01 X-0.9270 Y0.9596 F20.00 
G01 X-0.9293 Y0.9651 
G01 X-0.9305 Y0.9710 
G01 X-0.9305 Y1.0290 
G01 X-0.9293 Y1.0349 
G01 X-0.9270 Y1.0404 
G01 X-0.9237 Y1.0454 
G01 X-0.9194 Y1.0497 
G01 X-0.9144 Y1.0530 
G01 X-0.9089 Y1.0553 
G01 X-0.9030 Y1.0565 
G01 X-0.8970 Y1.0565 
G01 X-0.8911 Y1.0553 
G01 X-0.8856 Y1.0530 
G01 X-0.8806 Y1.0497 
G01 X-0.8763 Y1.0454 
G01 X-0.8730 Y1.0404 
G01 X-0.8707 Y1.0349 
G01 X-0.8695 Y1.0290 
G01 X-0.8695 Y0.9710 
G01 X-0.8707 Y0.9651 
G01 X-0.8730 Y0.9596 
G01 X-0.8763 Y0.9546 
G01 X-0.8806 Y0.9503 
G01 X-0.8856 Y0.9470 
G01 X-0.8911 Y0.9447 
G01 X-0.8970 Y0.9435 
G01 X-0.9030 Y0.9435 
G01 X-0.9089 Y0.9447 
G01 X-0.9144 Y0.9470 
G01 X-0.9194 Y0.9503 
G01 X-0.9237 Y0.9546 
G00 Z0.1000 
G00 X-0.8727 Y0.9550 
G01 Z-0.0070 F10.00 
G01 X-0.8726 Y0.9560 F20.00 
G01 X-0.8726 Y0.9569 
G01 X-0.8723 Y0.9578 
G01 X-0.8722 Y0.9588 
G01 X-0.8718 Y0.9597 
G01 X-0.8716 Y0.9606 
G01 X-0.8711 Y0.9614 
G01 X-0.8685 Y0.9677 
G01 X-0.8685 Y1.0323 
G01 X-0.8711 Y1.0386 
G01 X-0.8716 Y1.0394 
G01 X-0.8718 Y1.0403 
G01 X-0.8722 Y1.0412 
G01 X-0.8723 Y1.0422 
G01 X-0.8726 Y1.0431 
G01 X-0.8726 Y1.0440 
G01 X-0.8727 Y1.0450 
G01 X-0.8726 Y1.0460 
G01 X-0.8726 Y1.0469 
G01 X-0.8723 Y1.0478 
G01 X-0.8722 Y1.0488 
G01 X-0.8718 Y1.0497 
G01 X-0.8716 Y1.0506 
G01 X-0.8711 Y1.0514 
G01 X-0.8707 Y1.0523 
G01 X-0.8702 Y1.0531 
G01 X-0.8697 Y1.0539 
G01 X-0.8690 Y1.0546 
G01 X-0.8684 Y1.0553 
G01 X-0.8677 Y1.0559 
G01 X-0.8670 Y1.0566 
G01 X-0.8662 Y1.0571 
G01 X-0.8654 Y1.0577 
G01 X-0.8645 Y1.0580 
G01 X-0.8637 Y1.0585 
G01 X-0.8628 Y1.0588 
G01 X-0.8619 Y1.0591 
G01 X-0.8609 Y1.0593 
G01 X-0.8600 Y1.0595 
G01 X-0.8590 Y1.0595 
G01 X-0.8581 Y1.0596 
G01 X-0.8571 Y1.0595 
G01 X-0.6947 Y1.0595 
G01 X-0.6937 Y1.0596 
G01 X-0.6928 Y1.0595 
G01 X-0.6918 Y1.0595 
G01 X-0.6909 Y1.0593 
G01 X-0.6900 Y1.0591 
G01 X-0.6891 Y1.0588 
G01 X-0.6881 Y1.0585 
G01 X-0.6873 Y1.0580 
G01 X-0.6791 Y1.0546 
G01 X-0.6709 Y1.0546 
G01 X-0.6634 Y1.0577 
G01 X-0.6577 Y1.0634 
G01 X-0.6546 Y1.0709 
G01 X-0.6546 Y1.0791 
G01 X-0.6577 Y1.0865 
G01 X-0.6634 Y1.0923 
G01 X-0.6709 Y1.0954 
G01 X-0.6791 Y1.0954 
G01 X-0.6873 Y1.0920 
G01 X-0.6881 Y1.0915 
G01 X-0.6891 Y1.0912 
G01 X-0.6900 Y1.0909 
G01 X-0.6909 Y1.0907 
G01 X-0.6918 Y1.0905 
G01 X-0.6928 Y1.0905 
G01 X-0.6937 Y1.0904 
G01 X-0.6947 Y1.0905 
G01 X-2.3781 Y1.0905 
G01 X-2.3838 Y1.0881 
G01 X-2.4155 Y1.0564 
G01 X-2.4161 Y1.0557 
G01 X-2.4168 Y1.0551 
G01 X-2.4175 Y1.0544 
G01 X-2.4183 Y1.0539 
G01 X-2.4191 Y1.0534 
G01 X-2.4200 Y1.0530 
G01 X-2.4208 Y1.0525 
G01 X-2.4217 Y1.0523 
G01 X-2.4226 Y1.0519 
G01 X-2.4236 Y1.0518 
G01 X-2.4245 Y1.0515 
G01 X-2.4255 Y1.0515 
G01 X-2.4264 Y1.0514 
G01 X-2.4274 Y1.0515 
G01 X-2.4283 Y1.0515 
G01 X-2.4292 Y1.0518 
G01 X-2.4302 Y1.0519 
G01 X-2.4311 Y1.0523 
G01 X-2.4320 Y1.0525 
G01 X-2.4328 Y1.0530 
G01 X-2.4437 Y1.0575 
G01 X-2.4563 Y1.0575 
G01 X-2.4678 Y1.0527 
G01 X-2.4767 Y1.0438 
G01 X-2.4815 Y1.0323 
G01 X-2.4815 Y0.9677 
G01 X-2.4789 Y0.9614 
G01 X-2.4784 Y0.9606 
G01 X-2.4782 Y0.9597 
G01 X-2.4778 Y0.9588 
G01 X-2.4777 Y0.9578 
G01 X-2.4774 Y0.9569 
G01 X-2.4774 Y0.9560 
G01 X-2.4773 Y0.9550 
G01 X-2.4774 Y0.9540 
G01 X-2.4774 Y0.9531 
G01 X-2.4777 Y0.9522 
G01 X-2.4778 Y0.9512 
G01 X-2.4782 Y0.9503 
G01 X-2.4784 Y0.9494 
G01 X-2.4789 Y0.9486 
G01 X-2.4793 Y0.9477 
G01 X-2.4798 Y0.9469 
G01 X-2.4803 Y0.9461 
G01 X-2.4810 Y0.9454 
G01 X-2.4816 Y0.9447 
G01 X-2.4823 Y0.9441 
G01 X-2.4830 Y0.9434 
G01 X-2.4838 Y0.9429 
G01 X-2.4846 Y0.9423 
G01 X-2.4855 Y0.9420 
G01 X-2.4863 Y0.9415 
G01 X-2.4872 Y0.9412 
G01 X-2.4881 Y0.9409 
G01 X-2.4891 Y0.9407 
G01 X-2.4900 Y0.9405 
G01 X-2.4910 Y0.9405 
G01 X-2.4919 Y0.9404 
G01 X-2.4929 Y0.9405 
G01 X-2.7145 Y0.9405 
G01 X-2.7182 Y0.9415 
G01 X-2.7215 Y0.9434 
G01 X-2.8035 Y1.0254 
G01 X-2.8043 Y1.0260 
G01 X-2.8049 Y1.0268 
G01 X-2.8056 Y1.0275 
G01 X-2.8060 Y1.0283 
G01 X-2.8066 Y1.0291 
G01 X-2.8070 Y1.0299 
G01 X-2.8075 Y1.0308 
G01 X-2.8077 Y1.0317 
G01 X-2.8081 Y1.0326 
G01 X-2.8082 Y1.0335 
G01 X-2.8084 Y1.0345 
G01 X-2.8084 Y1.0354 
G01 X-2.8086 Y1.0364 
G01 X-2.8084 Y1.0373 
G01 X-2.8084 Y1.0383 
G01 X-2.8082 Y1.0392 
G01 X-2.8081 Y1.0402 
G01 X-2.8077 Y1.0410 
G01 X-2.8075 Y1.0418 
G01 X-2.8075 Y1.0585 
G01 X-2.8140 Y1.0741 
G01 X-2.8259 Y1.0860 
G01 X-2.8275 Y1.0867 
G01 X-2.8291 Y1.0873 
G01 X-2.8299 Y1.0880 
G01 X-2.8321 Y1.0897 
G01 X-2.8337 Y1.0917 
G01 X-2.8344 Y1.0927 
G01 X-2.8352 Y1.0945 
G01 X-2.8359 Y1.0962 
G01 X-2.8361 Y1.0980 
G01 X-2.8364 Y1.1000 
G01 X-2.8361 Y1.1020 
G01 X-2.8359 Y1.1038 
G01 X-2.8352 Y1.1054 
G01 X-2.8344 Y1.1073 
G01 X-2.8338 Y1.1082 
G01 X-2.8321 Y1.1103 
G01 X-2.8300 Y1.1119 
G01 X-2.8291 Y1.1127 
G01 X-2.8268 Y1.1136 
G01 X-2.8259 Y1.1140 
G01 X-2.8140 Y1.1259 
G01 X-2.8075 Y1.1415 
G01 X-2.8075 Y1.1585 
G01 X-2.8140 Y1.1741 
G01 X-2.8259 Y1.1860 
G01 X-2.8275 Y1.1867 
G01 X-2.8291 Y1.1873 
G01 X-2.8299 Y1.1880 
G01 X-2.8321 Y1.1897 
G01 X-2.8337 Y1.1917 
G01 X-2.8344 Y1.1927 
G01 X-2.8352 Y1.1945 
G01 X-2.8359 Y1.1962 
G01 X-2.8361 Y1.1980 
G01 X-2.8364 Y1.2000 
G01 X-2.8361 Y1.2020 
G01 X-2.8359 Y1.2038 
G01 X-2.8352 Y1.2054 
G01 X-2.8344 Y1.2073 
G01 X-2.8338 Y1.2082 
G01 X-2.8321 Y1.2103 
G01 X-2.8300 Y1.2119 
G01 X-2.8291 Y1.2127 
G01 X-2.8268 Y1.2136 
G01 X-2.8259 Y1.2140 
G01 X-2.8140 Y1.2259 
G01 X-2.8075 Y1.2415 
G01 X-2.8075 Y1.2585 
G01 X-2.8140 Y1.2741 
G01 X-2.8259 Y1.2860 
G01 X-2.8275 Y1.2867 
G01 X-2.8291 Y1.2873 
G01 X-2.8299 Y1.2880 
G01 X-2.8321 Y1.2897 
G01 X-2.8337 Y1.2917 
G01 X-2.8344 Y1.2927 
G01 X-2.8352 Y1.2945 
G01 X-2.8359 Y1.2962 
G01 X-2.8361 Y1.2980 
G01 X-2.8364 Y1.3000 
G01 X-2.8361 Y1.3020 
G01 X-2.8359 Y1.3038 
G01 X-2.8352 Y1.3054 
G01 X-2.8344 Y1.3073 
G01 X-2.8338 Y1.3082 
G01 X-2.8321 Y1.3103 
G01 X-2.8300 Y1.3119 
G01 X-2.8291 Y1.3127 
G01 X-2.8268 Y1.3136 
G01 X-2.8259 Y1.3140 
G01 X-2.8140 Y1.3259 
G01 X-2.8075 Y1.3415 
G01 X-2.8075 Y1.3585 
G01 X-2.8145 Y1.3753 
G01 X-2.8154 Y1.3769 
G01 X-2.8159 Y1.3788 
G01 X-2.8164 Y1.3806 
G01 X-2.8164 Y1.3827 
G01 X-2.8164 Y1.3844 
G01 X-2.8159 Y1.3862 
G01 X-2.8154 Y1.3881 
G01 X-2.8145 Y1.3897 
G01 X-2.8135 Y1.3914 
G01 X-2.8120 Y1.3929 
G01 X-2.8108 Y1.3941 
G01 X-2.8092 Y1.3950 
G01 X-2.8075 Y1.3960 
G01 X-2.8056 Y1.3965 
G01 X-2.8038 Y1.3970 
G01 X-2.8017 Y1.3970 
G01 X-2.8000 Y1.3970 
G01 X-2.4080 Y1.3970 
G01 X-2.4043 Y1.3960 
G01 X-2.4010 Y1.3941 
G01 X-2.3983 Y1.3914 
G01 X-2.3964 Y1.3881 
G01 X-2.3954 Y1.3844 
G01 X-2.3954 Y1.3806 
G01 X-2.3964 Y1.3769 
G01 X-2.3983 Y1.3736 
G01 X-2.4010 Y1.3709 
G01 X-2.4155 Y1.3564 
G01 X-2.4161 Y1.3557 
G01 X-2.4168 Y1.3551 
G01 X-2.4175 Y1.3544 
G01 X-2.4183 Y1.3539 
G01 X-2.4191 Y1.3534 
G01 X-2.4200 Y1.3530 
G01 X-2.4208 Y1.3525 
G01 X-2.4217 Y1.3523 
G01 X-2.4226 Y1.3519 
G01 X-2.4236 Y1.3518 
G01 X-2.4245 Y1.3515 
G01 X-2.4255 Y1.3515 
G01 X-2.4264 Y1.3514 
G01 X-2.4274 Y1.3515 
G01 X-2.4283 Y1.3515 
G01 X-2.4292 Y1.3518 
G01 X-2.4302 Y1.3519 
G01 X-2.4311 Y1.3523 
G01 X-2.4320 Y1.3525 
G01 X-2.4328 Y1.3530 
G01 X-2.4437 Y1.3575 
G01 X-2.4563 Y1.3575 
G01 X-2.4678 Y1.3527 
G01 X-2.4767 Y1.3438 
G01 X-2.4815 Y1.3323 
G01 X-2.4815 Y1.2677 
G01 X-2.4767 Y1.2562 
G01 X-2.4678 Y1.2473 
G01 X-2.4563 Y1.2425 
G01 X-2.4437 Y1.2425 
G01 X-2.4322 Y1.2473 
G01 X-2.4233 Y1.2562 
G01 X-2.4185 Y1.2677 
G01 X-2.4185 Y1.3055 
G01 X-2.4175 Y1.3092 
G01 X-2.4156 Y1.3125 
G01 X-2.4129 Y1.3152 
G01 X-2.3715 Y1.3566 
G01 X-2.3682 Y1.3585 
G01 X-2.3645 Y1.3595 
G01 X-2.2929 Y1.3595 
G01 X-2.2919 Y1.3596 
G01 X-2.2910 Y1.3595 
G01 X-2.2900 Y1.3595 
G01 X-2.2891 Y1.3593 
G01 X-2.2881 Y1.3591 
G01 X-2.2872 Y1.3588 
G01 X-2.2863 Y1.3585 
G01 X-2.2855 Y1.3580 
G01 X-2.2846 Y1.3577 
G01 X-2.2838 Y1.3571 
G01 X-2.2830 Y1.3566 
G01 X-2.2823 Y1.3559 
G01 X-2.2816 Y1.3553 
G01 X-2.2810 Y1.3546 
G01 X-2.2803 Y1.3539 
G01 X-2.2798 Y1.3531 
G01 X-2.2793 Y1.3523 
G01 X-2.2789 Y1.3514 
G01 X-2.2784 Y1.3506 
G01 X-2.2782 Y1.3497 
G01 X-2.2778 Y1.3488 
G01 X-2.2777 Y1.3478 
G01 X-2.2774 Y1.3469 
G01 X-2.2774 Y1.3460 
G01 X-2.2773 Y1.3450 
G01 X-2.2774 Y1.3440 
G01 X-2.2774 Y1.3431 
G01 X-2.2777 Y1.3422 
G01 X-2.2778 Y1.3412 
G01 X-2.2782 Y1.3403 
G01 X-2.2784 Y1.3394 
G01 X-2.2789 Y1.3386 
G01 X-2.2815 Y1.3323 
G01 X-2.2815 Y1.2677 
G01 X-2.2767 Y1.2562 
G01 X-2.2678 Y1.2473 
G01 X-2.2563 Y1.2425 
G01 X-2.2437 Y1.2425 
G01 X-2.2322 Y1.2473 
G01 X-2.2233 Y1.2562 
G01 X-2.2185 Y1.2677 
G01 X-2.2185 Y1.3323 
G01 X-2.2211 Y1.3386 
G01 X-2.2216 Y1.3394 
G01 X-2.2218 Y1.3403 
G01 X-2.2222 Y1.3412 
G01 X-2.2223 Y1.3422 
G01 X-2.2226 Y1.3431 
G01 X-2.2226 Y1.3440 
G01 X-2.2227 Y1.3450 
G01 X-2.2226 Y1.3460 
G01 X-2.2226 Y1.3469 
G01 X-2.2223 Y1.3478 
G01 X-2.2222 Y1.3488 
G01 X-2.2218 Y1.3497 
G01 X-2.2216 Y1.3506 
G01 X-2.2211 Y1.3514 
G01 X-2.2207 Y1.3523 
G01 X-2.2202 Y1.3531 
G01 X-2.2197 Y1.3539 
G01 X-2.2190 Y1.3546 
G01 X-2.2184 Y1.3553 
G01 X-2.2177 Y1.3559 
G01 X-2.2170 Y1.3566 
G01 X-2.2162 Y1.3571 
G01 X-2.2154 Y1.3577 
G01 X-2.2145 Y1.3580 
G01 X-2.2137 Y1.3585 
G01 X-2.2128 Y1.3588 
G01 X-2.2119 Y1.3591 
G01 X-2.2109 Y1.3593 
G01 X-2.2100 Y1.3595 
G01 X-2.2090 Y1.3595 
G01 X-2.2081 Y1.3596 
G01 X-2.2071 Y1.3595 
G01 X-2.0929 Y1.3595 
G01 X-2.0919 Y1.3596 
G01 X-2.0910 Y1.3595 
G01 X-2.0900 Y1.3595 
G01 X-2.0891 Y1.3593 
G01 X-2.0881 Y1.3591 
G01 X-2.0872 Y1.3588 
G01 X-2.0863 Y1.3585 
G01 X-2.0855 Y1.3580 
G01 X-2.0846 Y1.3577 
G01 X-2.0838 Y1.3571 
G01 X-2.0830 Y1.3566 
G01 X-2.0823 Y1.3559 
G01 X-2.0816 Y1.3553 
G01 X-2.0810 Y1.3546 
G01 X-2.0803 Y1.3539 
G01 X-2.0798 Y1.3531 
G01 X-2.0793 Y1.3523 
G01 X-2.0789 Y1.3514 
G01 X-2.0784 Y1.3506 
G01 X-2.0782 Y1.3497 
G01 X-2.0778 Y1.3488 
G01 X-2.0777 Y1.3478 
G01 X-2.0774 Y1.3469 
G01 X-2.0774 Y1.3460 
G01 X-2.0773 Y1.3450 
G01 X-2.0774 Y1.3440 
G01 X-2.0774 Y1.3431 
G01 X-2.0777 Y1.3422 
G01 X-2.0778 Y1.3412 
G01 X-2.0782 Y1.3403 
G01 X-2.0784 Y1.3394 
G01 X-2.0789 Y1.3386 
G01 X-2.0815 Y1.3323 
G01 X-2.0815 Y1.2677 
G01 X-2.0767 Y1.2562 
G01 X-2.0678 Y1.2473 
G01 X-2.0563 Y1.2425 
G01 X-2.0437 Y1.2425 
G01 X-2.0322 Y1.2473 
G01 X-2.0233 Y1.2562 
G01 X-2.0185 Y1.2677 
G01 X-2.0185 Y1.3323 
G01 X-2.0211 Y1.3386 
G01 X-2.0216 Y1.3394 
G01 X-2.0218 Y1.3403 
G01 X-2.0222 Y1.3412 
G01 X-2.0223 Y1.3422 
G01 X-2.0226 Y1.3431 
G01 X-2.0226 Y1.3440 
G01 X-2.0227 Y1.3450 
G01 X-2.0226 Y1.3460 
G01 X-2.0226 Y1.3469 
G01 X-2.0223 Y1.3478 
G01 X-2.0222 Y1.3488 
G01 X-2.0218 Y1.3497 
G01 X-2.0216 Y1.3506 
G01 X-2.0211 Y1.3514 
G01 X-2.0207 Y1.3523 
G01 X-2.0202 Y1.3531 
G01 X-2.0197 Y1.3539 
G01 X-2.0190 Y1.3546 
G01 X-2.0184 Y1.3553 
G01 X-2.0177 Y1.3559 
G01 X-2.0170 Y1.3566 
G01 X-2.0162 Y1.3571 
G01 X-2.0154 Y1.3577 
G01 X-2.0145 Y1.3580 
G01 X-2.0137 Y1.3585 
G01 X-2.0128 Y1.3588 
G01 X-2.0119 Y1.3591 
G01 X-2.0109 Y1.3593 
G01 X-2.0100 Y1.3595 
G01 X-2.0090 Y1.3595 
G01 X-2.0081 Y1.3596 
G01 X-2.0071 Y1.3595 
G01 X-1.8929 Y1.3595 
G01 X-1.8919 Y1.3596 
G01 X-1.8910 Y1.3595 
G01 X-1.8900 Y1.3595 
G01 X-1.8891 Y1.3593 
G01 X-1.8881 Y1.3591 
G01 X-1.8872 Y1.3588 
G01 X-1.8863 Y1.3585 
G01 X-1.8855 Y1.3580 
G01 X-1.8846 Y1.3577 
G01 X-1.8838 Y1.3571 
G01 X-1.8830 Y1.3566 
G01 X-1.8823 Y1.3559 
G01 X-1.8816 Y1.3553 
G01 X-1.8810 Y1.3546 
G01 X-1.8803 Y1.3539 
G01 X-1.8798 Y1.3531 
G01 X-1.8793 Y1.3523 
G01 X-1.8789 Y1.3514 
G01 X-1.8784 Y1.3506 
G01 X-1.8782 Y1.3497 
G01 X-1.8778 Y1.3488 
G01 X-1.8777 Y1.3478 
G01 X-1.8774 Y1.3469 
G01 X-1.8774 Y1.3460 
G01 X-1.8773 Y1.3450 
G01 X-1.8774 Y1.3440 
G01 X-1.8774 Y1.3431 
G01 X-1.8777 Y1.3422 
G01 X-1.8778 Y1.3412 
G01 X-1.8782 Y1.3403 
G01 X-1.8784 Y1.3394 
G01 X-1.8789 Y1.3386 
G01 X-1.8815 Y1.3323 
G01 X-1.8815 Y1.2677 
G01 X-1.8767 Y1.2562 
G01 X-1.8678 Y1.2473 
G01 X-1.8563 Y1.2425 
G01 X-1.8437 Y1.2425 
G01 X-1.8322 Y1.2473 
G01 X-1.8233 Y1.2562 
G01 X-1.8185 Y1.2677 
G01 X-1.8185 Y1.3323 
G01 X-1.8211 Y1.3386 
G01 X-1.8216 Y1.3394 
G01 X-1.8218 Y1.3403 
G01 X-1.8222 Y1.3412 
G01 X-1.8223 Y1.3422 
G01 X-1.8226 Y1.3431 
G01 X-1.8226 Y1.3440 
G01 X-1.8227 Y1.3450 
G01 X-1.8226 Y1.3460 
G01 X-1.8226 Y1.3469 
G01 X-1.8223 Y1.3478 
G01 X-1.8222 Y1.3488 
G01 X-1.8218 Y1.3497 
G01 X-1.8216 Y1.3506 
G01 X-1.8211 Y1.3514 
G01 X-1.8207 Y1.3523 
G01 X-1.8202 Y1.3531 
G01 X-1.8197 Y1.3539 
G01 X-1.8190 Y1.3546 
G01 X-1.8184 Y1.3553 
G01 X-1.8177 Y1.3559 
G01 X-1.8170 Y1.3566 
G01 X-1.8162 Y1.3571 
G01 X-1.8154 Y1.3577 
G01 X-1.8145 Y1.3580 
G01 X-1.8137 Y1.3585 
G01 X-1.8128 Y1.3588 
G01 X-1.8119 Y1.3591 
G01 X-1.8109 Y1.3593 
G01 X-1.8100 Y1.3595 
G01 X-1.8090 Y1.3595 
G01 X-1.8081 Y1.3596 
G01 X-1.8071 Y1.3595 
G01 X-1.5429 Y1.3595 
G01 X-1.5419 Y1.3596 
G01 X-1.5410 Y1.3595 
G01 X-1.5400 Y1.3595 
G01 X-1.5391 Y1.3593 
G01 X-1.5381 Y1.3591 
G01 X-1.5372 Y1.3588 
G01 X-1.5363 Y1.3585 
G01 X-1.5355 Y1.3580 
G01 X-1.5346 Y1.3577 
G01 X-1.5338 Y1.3571 
G01 X-1.5330 Y1.3566 
G01 X-1.5323 Y1.3559 
G01 X-1.5316 Y1.3553 
G01 X-1.5310 Y1.3546 
G01 X-1.5303 Y1.3539 
G01 X-1.5298 Y1.3531 
G01 X-1.5293 Y1.3523 
G01 X-1.5289 Y1.3514 
G01 X-1.5284 Y1.3506 
G01 X-1.5282 Y1.3497 
G01 X-1.5278 Y1.3488 
G01 X-1.5277 Y1.3478 
G01 X-1.5274 Y1.3469 
G01 X-1.5274 Y1.3460 
G01 X-1.5273 Y1.3450 
G01 X-1.5274 Y1.3440 
G01 X-1.5274 Y1.3431 
G01 X-1.5277 Y1.3422 
G01 X-1.5278 Y1.3412 
G01 X-1.5282 Y1.3403 
G01 X-1.5284 Y1.3394 
G01 X-1.5289 Y1.3386 
G01 X-1.5315 Y1.3323 
G01 X-1.5315 Y1.2677 
G01 X-1.5267 Y1.2562 
G01 X-1.5178 Y1.2473 
G01 X-1.5063 Y1.2425 
G01 X-1.4937 Y1.2425 
G01 X-1.4828 Y1.2470 
G01 X-1.4820 Y1.2475 
G01 X-1.4811 Y1.2477 
G01 X-1.4802 Y1.2481 
G01 X-1.4792 Y1.2482 
G01 X-1.4783 Y1.2485 
G01 X-1.4774 Y1.2485 
G01 X-1.4764 Y1.2486 
G01 X-1.4755 Y1.2485 
G01 X-1.4745 Y1.2485 
G01 X-1.4736 Y1.2482 
G01 X-1.4726 Y1.2481 
G01 X-1.4717 Y1.2477 
G01 X-1.4708 Y1.2475 
G01 X-1.4700 Y1.2470 
G01 X-1.4691 Y1.2466 
G01 X-1.4683 Y1.2461 
G01 X-1.4675 Y1.2456 
G01 X-1.4668 Y1.2449 
G01 X-1.4661 Y1.2443 
G01 X-1.4655 Y1.2436 
G01 X-1.3638 Y1.1419 
G01 X-1.3588 Y1.1369 
G01 X-1.3531 Y1.1345 
G01 X-0.5502 Y1.1345 
G01 X-0.5493 Y1.1346 
G01 X-0.5483 Y1.1345 
G01 X-0.5474 Y1.1345 
G01 X-0.5464 Y1.1343 
G01 X-0.5455 Y1.1341 
G01 X-0.5446 Y1.1338 
G01 X-0.5437 Y1.1335 
G01 X-0.5428 Y1.1330 
G01 X-0.5420 Y1.1327 
G01 X-0.5412 Y1.1321 
