(.../Desktop/eagle-8.3.2/ulp/pcb-gcode.ulp)
(Copyright 2005 - 2012 by John Johnson)
(See readme.txt for licensing terms.)
(This file generated from the board:)
(.../OptimuxPrime/OptimuxPrimeFlooded.brd)
(Current profile is .../eagle-8.3.2/ulp/profiles/emc.pp  )
(This file generated 10/29/17 2:35 PM)
(Settings from pcb-machine.h)
(spindle on time = 3.0000)
(  Tool Size)
(0.0070 )
(spindle speed = 30000.0000)
(tool change at 0.0000 0.0000 1.0000 )
(feed rate xy = F20.00 )
(feed rate z  = F10.00 )
(Z Axis Settings)
(  High     Up        Down     Drill)
(0.5000 	0.1000 	-0.0070 	-0.0320 )
(Settings from pcb-defaults.h)
(isolate min = 0.0010)
(isolate max = 0.0200)
(isolate step = 0.0050)
(Generated top outlines, top drill, bottom outlines, bottom drill, )
(Unit of measure: inch)
(Inch Mode)
G20
(Absolute Coordinates)
G90
S30000
G00 Z0.5000 
G00 X0.0000 Y0.0000 
M03
G04 P3.000000
G00 Z0.1000 
G00 X0.1855 Y-0.1019 
G01 Z-0.0070 F10.00 
G01 X0.1855 Y3.3519 F20.00 
G01 X0.1865 Y3.3556 
G01 X0.1884 Y3.3589 
G01 X0.1911 Y3.3616 
G01 X0.1944 Y3.3635 
G01 X0.1981 Y3.3645 
G01 X0.2470 Y3.3645 
G01 X0.2507 Y3.3635 
G01 X0.2540 Y3.3616 
G01 X0.2567 Y3.3589 
G01 X0.2586 Y3.3556 
G01 X0.2596 Y3.3519 
G01 X0.2596 Y3.3481 
G01 X0.2586 Y3.3444 
G01 X0.2567 Y3.3411 
G01 X0.2540 Y3.3384 
G01 X0.2494 Y3.3338 
G01 X0.2470 Y3.3281 
G01 X0.2470 Y1.7844 
G01 X0.2494 Y1.7787 
G01 X0.3535 Y1.6746 
G01 X0.3543 Y1.6740 
G01 X0.3549 Y1.6732 
G01 X0.3556 Y1.6725 
G01 X0.3560 Y1.6717 
G01 X0.3566 Y1.6709 
G01 X0.3570 Y1.6701 
G01 X0.3575 Y1.6692 
G01 X0.3577 Y1.6683 
G01 X0.3581 Y1.6674 
G01 X0.3582 Y1.6665 
G01 X0.3584 Y1.6655 
G01 X0.3584 Y1.6646 
G01 X0.3586 Y1.6636 
G01 X0.3584 Y1.6627 
G01 X0.3584 Y1.6617 
G01 X0.3582 Y1.6608 
G01 X0.3581 Y1.6598 
G01 X0.3577 Y1.6590 
G01 X0.3575 Y1.6582 
G01 X0.3575 Y1.6415 
G01 X0.3640 Y1.6259 
G01 X0.3759 Y1.6140 
G01 X0.3772 Y1.6134 
G01 X0.3785 Y1.6130 
G01 X0.3790 Y1.6127 
G01 X0.3795 Y1.6125 
G01 X0.3806 Y1.6117 
G01 X0.3817 Y1.6109 
G01 X0.3821 Y1.6105 
G01 X0.3826 Y1.6102 
G01 X0.3834 Y1.6091 
G01 X0.3843 Y1.6081 
G01 X0.3845 Y1.6076 
G01 X0.3849 Y1.6071 
G01 X0.3854 Y1.6059 
G01 X0.3860 Y1.6047 
G01 X0.3861 Y1.6041 
G01 X0.3863 Y1.6036 
G01 X0.3865 Y1.6023 
G01 X0.3868 Y1.6010 
G01 X0.3868 Y1.6004 
G01 X0.3868 Y1.5998 
G01 X0.3867 Y1.5985 
G01 X0.3866 Y1.5971 
G01 X0.3864 Y1.5966 
G01 X0.3863 Y1.5960 
G01 X0.3858 Y1.5948 
G01 X0.3854 Y1.5935 
G01 X0.3851 Y1.5930 
G01 X0.3849 Y1.5925 
G01 X0.3841 Y1.5914 
G01 X0.3833 Y1.5903 
G01 X0.3829 Y1.5899 
G01 X0.3826 Y1.5895 
G01 X0.3815 Y1.5887 
G01 X0.3805 Y1.5878 
G01 X0.3800 Y1.5875 
G01 X0.3795 Y1.5871 
G01 X0.3783 Y1.5866 
G01 X0.3777 Y1.5863 
G01 X0.3723 Y1.5824 
G01 X0.3676 Y1.5777 
G01 X0.3637 Y1.5723 
G01 X0.3606 Y1.5663 
G01 X0.3600 Y1.5645 
G01 X0.3611 Y1.5645 
G01 X0.3615 Y1.5659 
G01 X0.3645 Y1.5718 
G01 X0.3683 Y1.5770 
G01 X0.3730 Y1.5817 
G01 X0.3782 Y1.5855 
G01 X0.3841 Y1.5885 
G01 X0.3903 Y1.5905 
G01 X0.3967 Y1.5915 
G01 X0.4033 Y1.5915 
G01 X0.4097 Y1.5905 
G01 X0.4159 Y1.5885 
G01 X0.4173 Y1.5878 
G01 X0.4622 Y1.6327 
G01 X0.4615 Y1.6341 
G01 X0.4611 Y1.6355 
G01 X0.4551 Y1.6355 
G01 X0.4514 Y1.6365 
G01 X0.4481 Y1.6384 
G01 X0.4454 Y1.6411 
G01 X0.4435 Y1.6444 
G01 X0.4425 Y1.6481 
G01 X0.4425 Y1.6519 
G01 X0.4435 Y1.6556 
G01 X0.4454 Y1.6589 
G01 X0.4481 Y1.6616 
G01 X0.4514 Y1.6635 
G01 X0.4551 Y1.6645 
G01 X0.4611 Y1.6645 
G01 X0.4615 Y1.6659 
G01 X0.4622 Y1.6673 
G01 X0.4173 Y1.7122 
G01 X0.4159 Y1.7115 
G01 X0.4097 Y1.7095 
G01 X0.4033 Y1.7085 
G01 X0.3967 Y1.7085 
G01 X0.3903 Y1.7095 
G01 X0.3841 Y1.7115 
G01 X0.3782 Y1.7145 
G01 X0.3730 Y1.7183 
G01 X0.3683 Y1.7230 
G01 X0.3645 Y1.7282 
G01 X0.3615 Y1.7341 
G01 X0.3611 Y1.7355 
G01 X0.3470 Y1.7355 
G01 X0.3449 Y1.7349 
G01 X0.3411 Y1.7349 
G01 X0.3374 Y1.7359 
G01 X0.3341 Y1.7378 
G01 X0.2809 Y1.7910 
G01 X0.2790 Y1.7943 
G01 X0.2780 Y1.7980 
G01 X0.2780 Y1.9170 
G01 X0.2790 Y1.9207 
G01 X0.2809 Y1.9240 
G01 X0.2836 Y1.9267 
G01 X0.2869 Y1.9286 
G01 X0.2906 Y1.9296 
G01 X0.2944 Y1.9296 
G01 X0.2981 Y1.9286 
G01 X0.3014 Y1.9267 
G01 X0.3041 Y1.9240 
G01 X0.3535 Y1.8746 
G01 X0.3543 Y1.8740 
G01 X0.3549 Y1.8732 
G01 X0.3556 Y1.8725 
G01 X0.3560 Y1.8717 
G01 X0.3566 Y1.8709 
G01 X0.3570 Y1.8701 
G01 X0.3575 Y1.8692 
G01 X0.3577 Y1.8683 
G01 X0.3581 Y1.8674 
G01 X0.3582 Y1.8665 
G01 X0.3584 Y1.8655 
G01 X0.3584 Y1.8646 
G01 X0.3586 Y1.8636 
G01 X0.3584 Y1.8627 
G01 X0.3584 Y1.8617 
G01 X0.3582 Y1.8608 
G01 X0.3581 Y1.8598 
G01 X0.3577 Y1.8590 
G01 X0.3575 Y1.8582 
G01 X0.3575 Y1.8415 
G01 X0.3640 Y1.8259 
G01 X0.3759 Y1.8140 
G01 X0.3772 Y1.8134 
G01 X0.3785 Y1.8130 
G01 X0.3790 Y1.8127 
G01 X0.3795 Y1.8125 
G01 X0.3806 Y1.8117 
G01 X0.3817 Y1.8109 
G01 X0.3821 Y1.8105 
G01 X0.3826 Y1.8102 
G01 X0.3834 Y1.8091 
G01 X0.3843 Y1.8081 
G01 X0.3845 Y1.8076 
G01 X0.3849 Y1.8071 
G01 X0.3854 Y1.8059 
G01 X0.3860 Y1.8047 
G01 X0.3861 Y1.8041 
G01 X0.3863 Y1.8036 
G01 X0.3865 Y1.8023 
G01 X0.3868 Y1.8010 
G01 X0.3868 Y1.8004 
G01 X0.3868 Y1.7998 
G01 X0.3867 Y1.7985 
G01 X0.3866 Y1.7971 
G01 X0.3864 Y1.7966 
G01 X0.3863 Y1.7960 
G01 X0.3858 Y1.7948 
G01 X0.3854 Y1.7935 
G01 X0.3851 Y1.7930 
G01 X0.3849 Y1.7925 
G01 X0.3841 Y1.7914 
G01 X0.3833 Y1.7903 
G01 X0.3829 Y1.7899 
G01 X0.3826 Y1.7895 
G01 X0.3815 Y1.7887 
G01 X0.3805 Y1.7878 
G01 X0.3800 Y1.7875 
G01 X0.3795 Y1.7871 
G01 X0.3783 Y1.7866 
G01 X0.3777 Y1.7863 
G01 X0.3723 Y1.7824 
G01 X0.3676 Y1.7777 
G01 X0.3637 Y1.7723 
G01 X0.3606 Y1.7663 
G01 X0.3600 Y1.7645 
G01 X0.3611 Y1.7645 
G01 X0.3615 Y1.7659 
G01 X0.3645 Y1.7718 
G01 X0.3683 Y1.7770 
G01 X0.3730 Y1.7817 
G01 X0.3782 Y1.7855 
G01 X0.3841 Y1.7885 
G01 X0.3903 Y1.7905 
G01 X0.3967 Y1.7915 
G01 X0.4033 Y1.7915 
G01 X0.4097 Y1.7905 
G01 X0.4159 Y1.7885 
G01 X0.4173 Y1.7878 
G01 X0.4622 Y1.8327 
G01 X0.4615 Y1.8341 
G01 X0.4611 Y1.8355 
G01 X0.4551 Y1.8355 
G01 X0.4514 Y1.8365 
G01 X0.4481 Y1.8384 
G01 X0.4454 Y1.8411 
G01 X0.4435 Y1.8444 
G01 X0.4425 Y1.8481 
G01 X0.4425 Y1.8519 
G01 X0.4435 Y1.8556 
G01 X0.4454 Y1.8589 
G01 X0.4481 Y1.8616 
G01 X0.4514 Y1.8635 
G01 X0.4551 Y1.8645 
G01 X0.4611 Y1.8645 
G01 X0.4615 Y1.8659 
G01 X0.4622 Y1.8673 
G01 X0.4173 Y1.9122 
G01 X0.4159 Y1.9115 
G01 X0.4097 Y1.9095 
G01 X0.4033 Y1.9085 
G01 X0.3967 Y1.9085 
G01 X0.3903 Y1.9095 
G01 X0.3841 Y1.9115 
G01 X0.3782 Y1.9145 
G01 X0.3730 Y1.9183 
G01 X0.3683 Y1.9230 
G01 X0.3645 Y1.9282 
G01 X0.3615 Y1.9341 
G01 X0.3611 Y1.9355 
G01 X0.3470 Y1.9355 
G01 X0.3449 Y1.9349 
G01 X0.3430 Y1.9349 
G01 X0.3411 Y1.9349 
G01 X0.3393 Y1.9354 
G01 X0.3374 Y1.9359 
G01 X0.3359 Y1.9368 
G01 X0.3341 Y1.9378 
G01 X0.3327 Y1.9392 
G01 X0.3314 Y1.9405 
G01 X0.3211 Y1.9508 
G01 X0.3184 Y1.9535 
G01 X0.3165 Y1.9568 
G01 X0.3155 Y1.9605 
G01 X0.3155 Y2.2795 
G01 X0.3165 Y2.2832 
G01 X0.3184 Y2.2865 
G01 X0.3211 Y2.2892 
G01 X0.3244 Y2.2911 
G01 X0.3281 Y2.2921 
G01 X0.3319 Y2.2921 
G01 X0.3356 Y2.2911 
G01 X0.3389 Y2.2892 
G01 X0.3535 Y2.2746 
G01 X0.3543 Y2.2740 
G01 X0.3549 Y2.2732 
G01 X0.3556 Y2.2725 
G01 X0.3560 Y2.2717 
G01 X0.3566 Y2.2709 
G01 X0.3570 Y2.2701 
G01 X0.3575 Y2.2692 
G01 X0.3577 Y2.2683 
G01 X0.3581 Y2.2674 
G01 X0.3582 Y2.2665 
G01 X0.3584 Y2.2655 
G01 X0.3584 Y2.2646 
G01 X0.3586 Y2.2636 
G01 X0.3584 Y2.2627 
G01 X0.3584 Y2.2617 
G01 X0.3582 Y2.2608 
G01 X0.3581 Y2.2598 
G01 X0.3577 Y2.2590 
G01 X0.3575 Y2.2582 
G01 X0.3575 Y2.2415 
G01 X0.3640 Y2.2259 
G01 X0.3759 Y2.2140 
G01 X0.3772 Y2.2134 
G01 X0.3785 Y2.2130 
G01 X0.3790 Y2.2127 
G01 X0.3795 Y2.2125 
G01 X0.3806 Y2.2117 
G01 X0.3817 Y2.2109 
G01 X0.3821 Y2.2105 
G01 X0.3826 Y2.2102 
G01 X0.3834 Y2.2091 
G01 X0.3843 Y2.2081 
G01 X0.3845 Y2.2076 
G01 X0.3849 Y2.2071 
G01 X0.3854 Y2.2059 
G01 X0.3860 Y2.2047 
G01 X0.3861 Y2.2041 
G01 X0.3863 Y2.2036 
G01 X0.3865 Y2.2023 
G01 X0.3868 Y2.2010 
G01 X0.3868 Y2.2004 
G01 X0.3868 Y2.1998 
G01 X0.3867 Y2.1985 
G01 X0.3866 Y2.1971 
G01 X0.3864 Y2.1966 
G01 X0.3863 Y2.1960 
G01 X0.3858 Y2.1948 
G01 X0.3854 Y2.1935 
G01 X0.3851 Y2.1930 
G01 X0.3849 Y2.1925 
G01 X0.3841 Y2.1914 
G01 X0.3833 Y2.1903 
G01 X0.3829 Y2.1899 
G01 X0.3826 Y2.1895 
G01 X0.3815 Y2.1887 
G01 X0.3805 Y2.1878 
G01 X0.3800 Y2.1875 
G01 X0.3795 Y2.1871 
G01 X0.3783 Y2.1866 
G01 X0.3777 Y2.1863 
G01 X0.3723 Y2.1824 
G01 X0.3676 Y2.1777 
G01 X0.3637 Y2.1723 
G01 X0.3606 Y2.1663 
G01 X0.3600 Y2.1645 
G01 X0.3611 Y2.1645 
G01 X0.3615 Y2.1659 
G01 X0.3645 Y2.1718 
G01 X0.3683 Y2.1770 
G01 X0.3730 Y2.1817 
G01 X0.3782 Y2.1855 
G01 X0.3841 Y2.1885 
G01 X0.3903 Y2.1905 
G01 X0.3967 Y2.1915 
G01 X0.4033 Y2.1915 
G01 X0.4097 Y2.1905 
G01 X0.4159 Y2.1885 
G01 X0.4173 Y2.1878 
G01 X0.4622 Y2.2327 
G01 X0.4615 Y2.2341 
G01 X0.4611 Y2.2355 
G01 X0.4551 Y2.2355 
G01 X0.4514 Y2.2365 
G01 X0.4481 Y2.2384 
G01 X0.4454 Y2.2411 
G01 X0.4435 Y2.2444 
G01 X0.4425 Y2.2481 
G01 X0.4425 Y2.2519 
G01 X0.4435 Y2.2556 
G01 X0.4454 Y2.2589 
G01 X0.4481 Y2.2616 
G01 X0.4514 Y2.2635 
G01 X0.4551 Y2.2645 
G01 X0.4611 Y2.2645 
G01 X0.4615 Y2.2659 
G01 X0.4622 Y2.2673 
G01 X0.4173 Y2.3122 
G01 X0.4159 Y2.3115 
G01 X0.4097 Y2.3095 
G01 X0.4033 Y2.3085 
G01 X0.3967 Y2.3085 
G01 X0.3903 Y2.3095 
G01 X0.3841 Y2.3115 
G01 X0.3782 Y2.3145 
G01 X0.3730 Y2.3183 
G01 X0.3683 Y2.3230 
G01 X0.3645 Y2.3282 
G01 X0.3615 Y2.3341 
G01 X0.3595 Y2.3403 
G01 X0.3585 Y2.3467 
G01 X0.3585 Y2.3533 
G01 X0.3595 Y2.3597 
G01 X0.3615 Y2.3659 
G01 X0.3645 Y2.3718 
G01 X0.3683 Y2.3770 
G01 X0.3730 Y2.3817 
G01 X0.3782 Y2.3855 
G01 X0.3841 Y2.3885 
G01 X0.3903 Y2.3905 
G01 X0.3967 Y2.3915 
G01 X0.4033 Y2.3915 
G01 X0.4097 Y2.3905 
G01 X0.4159 Y2.3885 
G01 X0.4173 Y2.3878 
G01 X0.4622 Y2.4327 
G01 X0.4615 Y2.4341 
G01 X0.4611 Y2.4355 
G01 X0.4551 Y2.4355 
G01 X0.4514 Y2.4365 
G01 X0.4481 Y2.4384 
G01 X0.4454 Y2.4411 
G01 X0.4435 Y2.4444 
G01 X0.4425 Y2.4481 
G01 X0.4425 Y2.4519 
G01 X0.4435 Y2.4556 
G01 X0.4454 Y2.4589 
G01 X0.4481 Y2.4616 
G01 X0.4514 Y2.4635 
G01 X0.4551 Y2.4645 
G01 X0.4611 Y2.4645 
G01 X0.4615 Y2.4659 
G01 X0.4622 Y2.4673 
G01 X0.4173 Y2.5122 
G01 X0.4159 Y2.5115 
G01 X0.4097 Y2.5095 
G01 X0.4033 Y2.5085 
G01 X0.3967 Y2.5085 
G01 X0.3903 Y2.5095 
G01 X0.3841 Y2.5115 
G01 X0.3782 Y2.5145 
G01 X0.3730 Y2.5183 
G01 X0.3683 Y2.5230 
G01 X0.3645 Y2.5282 
G01 X0.3615 Y2.5341 
G01 X0.3595 Y2.5403 
G01 X0.3585 Y2.5467 
G01 X0.3585 Y2.5533 
G01 X0.3595 Y2.5597 
G01 X0.3615 Y2.5659 
G01 X0.3645 Y2.5718 
G01 X0.3683 Y2.5770 
G01 X0.3730 Y2.5817 
G01 X0.3782 Y2.5855 
G01 X0.3841 Y2.5885 
G01 X0.3903 Y2.5905 
G01 X0.3967 Y2.5915 
G01 X0.4033 Y2.5915 
G01 X0.4097 Y2.5905 
G01 X0.4159 Y2.5885 
G01 X0.4218 Y2.5855 
G01 X0.4270 Y2.5817 
G01 X0.4317 Y2.5770 
G01 X0.4355 Y2.5718 
G01 X0.4385 Y2.5659 
G01 X0.4405 Y2.5597 
G01 X0.4415 Y2.5533 
G01 X0.4415 Y2.5467 
G01 X0.4405 Y2.5403 
G01 X0.4385 Y2.5341 
G01 X0.4378 Y2.5327 
G01 X0.4827 Y2.4878 
G01 X0.4841 Y2.4885 
G01 X0.4903 Y2.4905 
G01 X0.4967 Y2.4915 
G01 X0.5033 Y2.4915 
G01 X0.5097 Y2.4905 
G01 X0.5159 Y2.4885 
G01 X0.5218 Y2.4855 
G01 X0.5270 Y2.4817 
G01 X0.5317 Y2.4770 
G01 X0.5355 Y2.4718 
G01 X0.5385 Y2.4659 
G01 X0.5389 Y2.4645 
G01 X0.5400 Y2.4645 
G01 X0.5394 Y2.4663 
G01 X0.5363 Y2.4723 
G01 X0.5324 Y2.4777 
G01 X0.5277 Y2.4824 
G01 X0.5223 Y2.4863 
G01 X0.5217 Y2.4866 
G01 X0.5205 Y2.4871 
G01 X0.5200 Y2.4875 
G01 X0.5195 Y2.4878 
G01 X0.5185 Y2.4887 
G01 X0.5174 Y2.4895 
G01 X0.5171 Y2.4899 
G01 X0.5167 Y2.4903 
G01 X0.5159 Y2.4914 
G01 X0.5151 Y2.4925 
G01 X0.5149 Y2.4930 
G01 X0.5146 Y2.4935 
G01 X0.5142 Y2.4948 
G01 X0.5137 Y2.4960 
G01 X0.5136 Y2.4966 
G01 X0.5134 Y2.4971 
G01 X0.5133 Y2.4985 
G01 X0.5132 Y2.4998 
G01 X0.5132 Y2.5004 
G01 X0.5132 Y2.5010 
G01 X0.5135 Y2.5023 
G01 X0.5137 Y2.5036 
G01 X0.5139 Y2.5041 
G01 X0.5140 Y2.5047 
G01 X0.5146 Y2.5059 
G01 X0.5151 Y2.5071 
G01 X0.5155 Y2.5076 
G01 X0.5157 Y2.5081 
G01 X0.5166 Y2.5091 
G01 X0.5174 Y2.5102 
G01 X0.5179 Y2.5105 
G01 X0.5183 Y2.5109 
G01 X0.5194 Y2.5117 
G01 X0.5205 Y2.5125 
G01 X0.5210 Y2.5127 
G01 X0.5215 Y2.5130 
G01 X0.5228 Y2.5134 
G01 X0.5241 Y2.5140 
G01 X0.5360 Y2.5259 
G01 X0.5425 Y2.5415 
G01 X0.5425 Y2.5585 
G01 X0.5360 Y2.5741 
G01 X0.5241 Y2.5860 
G01 X0.5232 Y2.5864 
G01 X0.5209 Y2.5873 
G01 X0.5200 Y2.5881 
G01 X0.5179 Y2.5897 
G01 X0.5162 Y2.5918 
G01 X0.5156 Y2.5927 
G01 X0.5148 Y2.5946 
G01 X0.5141 Y2.5962 
G01 X0.5139 Y2.5980 
G01 X0.5136 Y2.6000 
G01 X0.5139 Y2.6020 
G01 X0.5141 Y2.6038 
G01 X0.5148 Y2.6055 
G01 X0.5156 Y2.6073 
G01 X0.5163 Y2.6083 
G01 X0.5179 Y2.6103 
G01 X0.5201 Y2.6120 
G01 X0.5209 Y2.6127 
G01 X0.5225 Y2.6133 
G01 X0.5241 Y2.6140 
G01 X0.5360 Y2.6259 
G01 X0.5425 Y2.6415 
G01 X0.5425 Y2.6585 
G01 X0.5360 Y2.6741 
G01 X0.5241 Y2.6860 
G01 X0.5224 Y2.6867 
G01 X0.5209 Y2.6873 
G01 X0.5200 Y2.6881 
G01 X0.5179 Y2.6897 
G01 X0.5162 Y2.6918 
G01 X0.5156 Y2.6927 
G01 X0.5148 Y2.6946 
G01 X0.5141 Y2.6962 
G01 X0.5139 Y2.6980 
G01 X0.5136 Y2.7000 
G01 X0.5139 Y2.7020 
G01 X0.5141 Y2.7038 
G01 X0.5148 Y2.7055 
G01 X0.5156 Y2.7073 
G01 X0.5163 Y2.7083 
G01 X0.5179 Y2.7103 
G01 X0.5201 Y2.7120 
G01 X0.5209 Y2.7127 
G01 X0.5233 Y2.7136 
G01 X0.5241 Y2.7140 
G01 X0.5360 Y2.7259 
G01 X0.5425 Y2.7415 
G01 X0.5425 Y2.7585 
G01 X0.5360 Y2.7741 
G01 X0.5241 Y2.7860 
G01 X0.5232 Y2.7864 
G01 X0.5209 Y2.7873 
G01 X0.5200 Y2.7881 
G01 X0.5179 Y2.7897 
G01 X0.5162 Y2.7918 
G01 X0.5156 Y2.7927 
G01 X0.5148 Y2.7946 
G01 X0.5141 Y2.7962 
G01 X0.5139 Y2.7980 
G01 X0.5136 Y2.8000 
G01 X0.5139 Y2.8020 
G01 X0.5141 Y2.8038 
G01 X0.5148 Y2.8055 
G01 X0.5156 Y2.8073 
G01 X0.5163 Y2.8083 
G01 X0.5179 Y2.8103 
G01 X0.5201 Y2.8120 
G01 X0.5209 Y2.8127 
G01 X0.5225 Y2.8133 
G01 X0.5241 Y2.8140 
G01 X0.5360 Y2.8259 
G01 X0.5425 Y2.8415 
G01 X0.5425 Y2.8585 
G01 X0.5360 Y2.8741 
G01 X0.5241 Y2.8860 
G01 X0.5085 Y2.8925 
G01 X0.4915 Y2.8925 
G01 X0.4759 Y2.8860 
G01 X0.4640 Y2.8741 
G01 X0.4627 Y2.8709 
G01 X0.4603 Y2.8679 
G01 X0.4597 Y2.8674 
G01 X0.4573 Y2.8656 
G01 X0.4565 Y2.8652 
G01 X0.4538 Y2.8641 
G01 X0.4535 Y2.8641 
G01 X0.4500 Y2.8636 
G01 X0.4495 Y2.8637 
G01 X0.4462 Y2.8641 
G01 X0.4456 Y2.8644 
G01 X0.4427 Y2.8656 
G01 X0.4397 Y2.8679 
G01 X0.4392 Y2.8685 
G01 X0.4373 Y2.8709 
G01 X0.4371 Y2.8716 
G01 X0.4360 Y2.8741 
G01 X0.4241 Y2.8860 
G01 X0.4085 Y2.8925 
G01 X0.3915 Y2.8925 
G01 X0.3747 Y2.8855 
G01 X0.3731 Y2.8846 
G01 X0.3712 Y2.8841 
G01 X0.3694 Y2.8836 
G01 X0.3673 Y2.8836 
G01 X0.3656 Y2.8836 
G01 X0.3638 Y2.8841 
G01 X0.3619 Y2.8846 
G01 X0.3603 Y2.8855 
G01 X0.3586 Y2.8865 
G01 X0.3571 Y2.8880 
G01 X0.3559 Y2.8892 
G01 X0.3549 Y2.8909 
G01 X0.3540 Y2.8925 
G01 X0.3535 Y2.8944 
G01 X0.3530 Y2.8962 
G01 X0.3530 Y2.8983 
G01 X0.3530 Y2.9000 
G01 X0.3530 Y3.2219 
G01 X0.3540 Y3.2256 
G01 X0.3559 Y3.2289 
G01 X0.3586 Y3.2316 
G01 X0.3619 Y3.2335 
G01 X0.3656 Y3.2345 
G01 X0.6322 Y3.2345 
G01 X0.6331 Y3.2346 
G01 X0.6341 Y3.2345 
G01 X0.6350 Y3.2345 
G01 X0.6360 Y3.2343 
G01 X0.6369 Y3.2341 
G01 X0.6378 Y3.2338 
G01 X0.6387 Y3.2335 
G01 X0.6396 Y3.2330 
G01 X0.6404 Y3.2327 
G01 X0.6412 Y3.2321 
G01 X0.6420 Y3.2316 
G01 X0.6427 Y3.2309 
G01 X0.6435 Y3.2303 
G01 X0.6441 Y3.2296 
G01 X0.6447 Y3.2289 
G01 X0.6452 Y3.2281 
G01 X0.6458 Y3.2273 
G01 X0.6462 Y3.2264 
G01 X0.6466 Y3.2256 
G01 X0.6469 Y3.2247 
G01 X0.6473 Y3.2238 
G01 X0.6474 Y3.2228 
G01 X0.6476 Y3.2219 
G01 X0.6476 Y3.2210 
G01 X0.6478 Y3.2200 
G01 X0.6476 Y3.2190 
G01 X0.6476 Y3.2181 
G01 X0.6474 Y3.2172 
G01 X0.6473 Y3.2162 
G01 X0.6470 Y3.2156 
G01 X0.6470 Y3.1500 
G01 X0.6470 Y3.1483 
G01 X0.6470 Y3.1462 
G01 X0.6465 Y3.1444 
G01 X0.6460 Y3.1425 
G01 X0.6450 Y3.1408 
G01 X0.6441 Y3.1392 
G01 X0.6429 Y3.1380 
G01 X0.6414 Y3.1365 
G01 X0.6397 Y3.1355 
G01 X0.6381 Y3.1346 
G01 X0.6362 Y3.1341 
G01 X0.6344 Y3.1336 
G01 X0.6327 Y3.1336 
G01 X0.6306 Y3.1336 
G01 X0.6288 Y3.1341 
G01 X0.6269 Y3.1346 
G01 X0.6253 Y3.1355 
G01 X0.6085 Y3.1425 
G01 X0.5915 Y3.1425 
G01 X0.5759 Y3.1360 
G01 X0.5640 Y3.1241 
G01 X0.5575 Y3.1085 
G01 X0.5575 Y3.0915 
G01 X0.5640 Y3.0759 
G01 X0.5759 Y3.0640 
G01 X0.5915 Y3.0575 
G01 X0.6085 Y3.0575 
G01 X0.6253 Y3.0645 
G01 X0.6269 Y3.0654 
G01 X0.6288 Y3.0659 
G01 X0.6306 Y3.0664 
G01 X0.6327 Y3.0664 
G01 X0.6344 Y3.0664 
G01 X0.6362 Y3.0659 
G01 X0.6381 Y3.0654 
G01 X0.6397 Y3.0645 
G01 X0.6414 Y3.0635 
G01 X0.6429 Y3.0620 
G01 X0.6441 Y3.0608 
G01 X0.6451 Y3.0591 
G01 X0.6460 Y3.0575 
G01 X0.6465 Y3.0556 
G01 X0.6470 Y3.0538 
G01 X0.6470 Y3.0517 
G01 X0.6470 Y3.0500 
G01 X0.6470 Y2.5230 
G01 X0.6460 Y2.5193 
G01 X0.6441 Y2.5160 
G01 X0.5686 Y2.4405 
G01 X0.5659 Y2.4378 
G01 X0.5626 Y2.4359 
G01 X0.5589 Y2.4349 
G01 X0.5551 Y2.4349 
G01 X0.5530 Y2.4355 
G01 X0.5389 Y2.4355 
G01 X0.5385 Y2.4341 
G01 X0.5355 Y2.4282 
G01 X0.5317 Y2.4230 
G01 X0.5270 Y2.4183 
G01 X0.5218 Y2.4145 
G01 X0.5159 Y2.4115 
G01 X0.5097 Y2.4095 
G01 X0.5033 Y2.4085 
G01 X0.4967 Y2.4085 
G01 X0.4903 Y2.4095 
G01 X0.4841 Y2.4115 
G01 X0.4827 Y2.4122 
G01 X0.4378 Y2.3673 
G01 X0.4385 Y2.3659 
G01 X0.4389 Y2.3645 
G01 X0.4449 Y2.3645 
G01 X0.4486 Y2.3635 
G01 X0.4519 Y2.3616 
G01 X0.4546 Y2.3589 
G01 X0.4565 Y2.3556 
G01 X0.4575 Y2.3519 
G01 X0.4575 Y2.3481 
G01 X0.4565 Y2.3444 
G01 X0.4546 Y2.3411 
G01 X0.4519 Y2.3384 
G01 X0.4486 Y2.3365 
G01 X0.4449 Y2.3355 
G01 X0.4389 Y2.3355 
G01 X0.4385 Y2.3341 
G01 X0.4378 Y2.3327 
G01 X0.4827 Y2.2878 
G01 X0.4841 Y2.2885 
G01 X0.4903 Y2.2905 
G01 X0.4967 Y2.2915 
G01 X0.5033 Y2.2915 
G01 X0.5097 Y2.2905 
G01 X0.5159 Y2.2885 
G01 X0.5218 Y2.2855 
G01 X0.5270 Y2.2817 
G01 X0.5317 Y2.2770 
G01 X0.5355 Y2.2718 
G01 X0.5385 Y2.2659 
G01 X0.5389 Y2.2645 
G01 X0.5400 Y2.2645 
G01 X0.5394 Y2.2663 
G01 X0.5363 Y2.2723 
G01 X0.5324 Y2.2777 
G01 X0.5277 Y2.2824 
G01 X0.5223 Y2.2863 
G01 X0.5217 Y2.2866 
G01 X0.5205 Y2.2871 
G01 X0.5200 Y2.2875 
G01 X0.5195 Y2.2878 
G01 X0.5185 Y2.2887 
G01 X0.5174 Y2.2895 
G01 X0.5171 Y2.2899 
G01 X0.5167 Y2.2903 
G01 X0.5159 Y2.2914 
G01 X0.5151 Y2.2925 
G01 X0.5149 Y2.2930 
G01 X0.5146 Y2.2935 
G01 X0.5142 Y2.2948 
G01 X0.5137 Y2.2960 
G01 X0.5136 Y2.2966 
G01 X0.5134 Y2.2971 
G01 X0.5133 Y2.2985 
G01 X0.5132 Y2.2998 
G01 X0.5132 Y2.3004 
G01 X0.5132 Y2.3010 
G01 X0.5135 Y2.3023 
G01 X0.5137 Y2.3036 
G01 X0.5139 Y2.3041 
G01 X0.5140 Y2.3047 
G01 X0.5146 Y2.3059 
G01 X0.5151 Y2.3071 
G01 X0.5155 Y2.3076 
G01 X0.5157 Y2.3081 
G01 X0.5166 Y2.3091 
G01 X0.5174 Y2.3102 
G01 X0.5179 Y2.3105 
G01 X0.5183 Y2.3109 
G01 X0.5194 Y2.3117 
G01 X0.5205 Y2.3125 
G01 X0.5210 Y2.3127 
G01 X0.5215 Y2.3130 
G01 X0.5228 Y2.3134 
G01 X0.5241 Y2.3140 
G01 X0.5360 Y2.3259 
G01 X0.5425 Y2.3415 
G01 X0.5425 Y2.3582 
G01 X0.5423 Y2.3590 
G01 X0.5419 Y2.3598 
G01 X0.5418 Y2.3608 
G01 X0.5416 Y2.3617 
G01 X0.5416 Y2.3627 
G01 X0.5414 Y2.3636 
G01 X0.5416 Y2.3646 
G01 X0.5416 Y2.3655 
G01 X0.5418 Y2.3665 
G01 X0.5419 Y2.3674 
G01 X0.5423 Y2.3683 
G01 X0.5425 Y2.3692 
G01 X0.5430 Y2.3701 
G01 X0.5434 Y2.3709 
G01 X0.5440 Y2.3717 
G01 X0.5444 Y2.3725 
G01 X0.5451 Y2.3732 
G01 X0.5457 Y2.3740 
G01 X0.5465 Y2.3746 
G01 X0.6756 Y2.5037 
G01 X0.6780 Y2.5094 
G01 X0.6780 Y3.1844 
G01 X0.6790 Y3.1881 
G01 X0.6809 Y3.1914 
G01 X0.6836 Y3.1941 
G01 X0.6869 Y3.1960 
G01 X0.6906 Y3.1970 
G01 X0.8420 Y3.1970 
G01 X0.8457 Y3.1960 
G01 X0.8490 Y3.1941 
G01 X0.8517 Y3.1914 
G01 X0.8536 Y3.1881 
G01 X0.8546 Y3.1844 
G01 X0.8546 Y3.1806 
G01 X0.8536 Y3.1769 
G01 X0.8517 Y3.1736 
G01 X0.7446 Y3.0665 
G01 X0.7419 Y3.0638 
G01 X0.7369 Y3.0588 
G01 X0.7345 Y3.0531 
G01 X0.7345 Y2.0481 
G01 X0.7346 Y2.0472 
G01 X0.7345 Y2.0462 
G01 X0.7345 Y2.0452 
G01 X0.7343 Y2.0443 
G01 X0.7341 Y2.0434 
G01 X0.7338 Y2.0425 
G01 X0.7335 Y2.0416 
G01 X0.7330 Y2.0407 
G01 X0.7327 Y2.0398 
G01 X0.7321 Y2.0391 
G01 X0.7316 Y2.0383 
G01 X0.7309 Y2.0376 
G01 X0.7303 Y2.0368 
G01 X0.7296 Y2.0362 
G01 X0.7289 Y2.0356 
G01 X0.7281 Y2.0351 
G01 X0.7273 Y2.0345 
G01 X0.7264 Y2.0341 
G01 X0.7256 Y2.0336 
G01 X0.7247 Y2.0334 
G01 X0.7238 Y2.0330 
G01 X0.7228 Y2.0329 
G01 X0.7219 Y2.0327 
G01 X0.7209 Y2.0327 
G01 X0.7200 Y2.0325 
G01 X0.7190 Y2.0327 
G01 X0.7181 Y2.0327 
G01 X0.7172 Y2.0329 
G01 X0.7084 Y2.0329 
G01 X0.7009 Y2.0298 
G01 X0.6952 Y2.0240 
G01 X0.6921 Y2.0166 
G01 X0.6921 Y2.0084 
G01 X0.6955 Y2.0002 
G01 X0.6960 Y1.9994 
G01 X0.6963 Y1.9984 
G01 X0.6966 Y1.9975 
G01 X0.6968 Y1.9966 
G01 X0.6970 Y1.9957 
G01 X0.6970 Y1.9947 
G01 X0.6971 Y1.9938 
G01 X0.6970 Y1.9928 
G01 X0.6970 Y1.4856 
G01 X0.6971 Y1.4847 
G01 X0.6970 Y1.4837 
G01 X0.6970 Y1.4827 
G01 X0.6968 Y1.4818 
G01 X0.6966 Y1.4809 
G01 X0.6963 Y1.4800 
G01 X0.6960 Y1.4791 
G01 X0.6955 Y1.4782 
G01 X0.6952 Y1.4773 
G01 X0.6946 Y1.4766 
G01 X0.6941 Y1.4758 
G01 X0.6934 Y1.4751 
G01 X0.6928 Y1.4743 
G01 X0.6921 Y1.4737 
G01 X0.6914 Y1.4731 
G01 X0.6906 Y1.4726 
G01 X0.6898 Y1.4720 
G01 X0.6889 Y1.4716 
G01 X0.6881 Y1.4711 
G01 X0.6872 Y1.4709 
G01 X0.6863 Y1.4705 
G01 X0.6853 Y1.4704 
G01 X0.6844 Y1.4702 
G01 X0.6834 Y1.4702 
G01 X0.6825 Y1.4700 
G01 X0.6815 Y1.4702 
G01 X0.6806 Y1.4702 
G01 X0.6797 Y1.4704 
G01 X0.6709 Y1.4704 
G01 X0.6634 Y1.4673 
G01 X0.6577 Y1.4615 
G01 X0.6543 Y1.4533 
G01 X0.6540 Y1.4524 
G01 X0.6536 Y1.4515 
G01 X0.6532 Y1.4506 
G01 X0.6526 Y1.4499 
G01 X0.6521 Y1.4491 
G01 X0.6515 Y1.4484 
G01 X0.6509 Y1.4476 
G01 X0.6501 Y1.4470 
G01 X0.6298 Y1.4267 
G01 X0.6244 Y1.4213 
G01 X0.6220 Y1.4156 
G01 X0.6220 Y0.9480 
G01 X0.6210 Y0.9443 
G01 X0.6191 Y0.9410 
G01 X0.4446 Y0.7665 
G01 X0.4369 Y0.7588 
G01 X0.4366 Y0.7581 
G01 X0.4362 Y0.7577 
G01 X0.4360 Y0.7572 
G01 X0.4351 Y0.7562 
G01 X0.4343 Y0.7551 
G01 X0.4338 Y0.7547 
G01 X0.4334 Y0.7543 
G01 X0.4323 Y0.7536 
G01 X0.4312 Y0.7528 
G01 X0.4307 Y0.7526 
G01 X0.4302 Y0.7522 
G01 X0.4289 Y0.7518 
G01 X0.4277 Y0.7513 
G01 X0.4271 Y0.7512 
G01 X0.4266 Y0.7511 
G01 X0.4253 Y0.7510 
G01 X0.4239 Y0.7508 
G01 X0.4234 Y0.7509 
G01 X0.4228 Y0.7509 
G01 X0.4215 Y0.7511 
G01 X0.4201 Y0.7513 
G01 X0.4196 Y0.7515 
G01 X0.4190 Y0.7517 
G01 X0.4178 Y0.7523 
G01 X0.4166 Y0.7528 
G01 X0.4162 Y0.7531 
G01 X0.4145 Y0.7540 
G01 X0.4145 Y0.7530 
G01 X0.4194 Y0.7497 
G01 X0.4237 Y0.7454 
G01 X0.4270 Y0.7404 
G01 X0.4293 Y0.7349 
G01 X0.4305 Y0.7290 
G01 X0.4305 Y0.6710 
G01 X0.4293 Y0.6651 
G01 X0.4270 Y0.6596 
G01 X0.4237 Y0.6546 
G01 X0.4194 Y0.6503 
G01 X0.4144 Y0.6470 
G01 X0.4089 Y0.6447 
G01 X0.4030 Y0.6435 
G01 X0.3970 Y0.6435 
G01 X0.3911 Y0.6447 
G01 X0.3856 Y0.6470 
G01 X0.3806 Y0.6503 
G01 X0.3763 Y0.6546 
G01 X0.3730 Y0.6596 
G01 X0.3707 Y0.6651 
G01 X0.3695 Y0.6710 
G01 X0.3695 Y0.7290 
G01 X0.3707 Y0.7349 
G01 X0.3730 Y0.7404 
G01 X0.3763 Y0.7454 
G01 X0.3806 Y0.7497 
G01 X0.3855 Y0.7530 
G01 X0.3855 Y0.7540 
G01 X0.3835 Y0.7529 
G01 X0.3795 Y0.7500 
G01 X0.3791 Y0.7497 
G01 X0.3781 Y0.7487 
G01 X0.3764 Y0.7470 
G01 X0.3731 Y0.7450 
G01 X0.3723 Y0.7448 
G01 X0.3694 Y0.7441 
G01 X0.3656 Y0.7441 
G01 X0.3632 Y0.7447 
G01 X0.3619 Y0.7450 
G01 X0.3606 Y0.7458 
G01 X0.3586 Y0.7470 
G01 X0.3572 Y0.7483 
G01 X0.3559 Y0.7496 
G01 X0.3540 Y0.7530 
G01 X0.3538 Y0.7537 
G01 X0.3530 Y0.7566 
G01 X0.3530 Y0.9020 
G01 X0.3529 Y0.9028 
G01 X0.3530 Y0.9039 
G01 X0.3530 Y0.9051 
G01 X0.3532 Y0.9058 
G01 X0.3533 Y0.9066 
G01 X0.3537 Y0.9076 
G01 X0.3540 Y0.9088 
G01 X0.3544 Y0.9094 
G01 X0.3546 Y0.9101 
G01 X0.3553 Y0.9111 
G01 X0.3559 Y0.9121 
G01 X0.3564 Y0.9126 
G01 X0.3569 Y0.9132 
G01 X0.3578 Y0.9139 
G01 X0.3586 Y0.9148 
G01 X0.3593 Y0.9151 
G01 X0.3599 Y0.9156 
G01 X0.3609 Y0.9161 
G01 X0.3619 Y0.9167 
G01 X0.3626 Y0.9169 
G01 X0.3633 Y0.9172 
G01 X0.3645 Y0.9174 
G01 X0.3656 Y0.9177 
G01 X0.3664 Y0.9177 
G01 X0.3671 Y0.9178 
G01 X0.3683 Y0.9177 
G01 X0.3694 Y0.9177 
G01 X0.3702 Y0.9175 
G01 X0.3709 Y0.9174 
G01 X0.3720 Y0.9170 
G01 X0.3731 Y0.9167 
G01 X0.3738 Y0.9163 
G01 X0.3745 Y0.9160 
G01 X0.3754 Y0.9153 
G01 X0.3764 Y0.9148 
G01 X0.3769 Y0.9142 
G01 X0.3777 Y0.9137 
G01 X0.3837 Y0.9106 
G01 X0.3855 Y0.9100 
G01 X0.3855 Y0.9111 
G01 X0.3841 Y0.9115 
G01 X0.3782 Y0.9145 
G01 X0.3730 Y0.9183 
G01 X0.3683 Y0.9230 
G01 X0.3645 Y0.9282 
G01 X0.3615 Y0.9341 
G01 X0.3595 Y0.9403 
G01 X0.3585 Y0.9467 
G01 X0.3585 Y0.9533 
G01 X0.3595 Y0.9597 
G01 X0.3615 Y0.9659 
G01 X0.3645 Y0.9718 
G01 X0.3683 Y0.9770 
G01 X0.3730 Y0.9817 
G01 X0.3782 Y0.9855 
G01 X0.3841 Y0.9885 
G01 X0.3903 Y0.9905 
G01 X0.3967 Y0.9915 
G01 X0.4033 Y0.9915 
G01 X0.4097 Y0.9905 
G01 X0.4159 Y0.9885 
G01 X0.4173 Y0.9878 
G01 X0.4622 Y1.0327 
G01 X0.4615 Y1.0341 
G01 X0.4611 Y1.0355 
G01 X0.4551 Y1.0355 
G01 X0.4514 Y1.0365 
G01 X0.4481 Y1.0384 
G01 X0.4454 Y1.0411 
G01 X0.4435 Y1.0444 
G01 X0.4425 Y1.0481 
G01 X0.4425 Y1.0519 
G01 X0.4435 Y1.0556 
G01 X0.4454 Y1.0589 
G01 X0.4481 Y1.0616 
G01 X0.4514 Y1.0635 
G01 X0.4551 Y1.0645 
G01 X0.4611 Y1.0645 
G01 X0.4615 Y1.0659 
G01 X0.4622 Y1.0673 
G01 X0.4173 Y1.1122 
G01 X0.4159 Y1.1115 
G01 X0.4097 Y1.1095 
G01 X0.4033 Y1.1085 
G01 X0.3967 Y1.1085 
G01 X0.3903 Y1.1095 
G01 X0.3841 Y1.1115 
G01 X0.3782 Y1.1145 
G01 X0.3730 Y1.1183 
G01 X0.3683 Y1.1230 
G01 X0.3645 Y1.1282 
G01 X0.3615 Y1.1341 
G01 X0.3595 Y1.1403 
G01 X0.3585 Y1.1467 
G01 X0.3585 Y1.1533 
G01 X0.3595 Y1.1597 
G01 X0.3615 Y1.1659 
G01 X0.3645 Y1.1718 
G01 X0.3683 Y1.1770 
G01 X0.3730 Y1.1817 
G01 X0.3782 Y1.1855 
G01 X0.3841 Y1.1885 
G01 X0.3903 Y1.1905 
G01 X0.3967 Y1.1915 
G01 X0.4033 Y1.1915 
G01 X0.4097 Y1.1905 
G01 X0.4159 Y1.1885 
G01 X0.4173 Y1.1878 
G01 X0.4622 Y1.2327 
G01 X0.4615 Y1.2341 
G01 X0.4611 Y1.2355 
G01 X0.4551 Y1.2355 
G01 X0.4514 Y1.2365 
G01 X0.4481 Y1.2384 
G01 X0.4454 Y1.2411 
G01 X0.4435 Y1.2444 
G01 X0.4425 Y1.2481 
G01 X0.4425 Y1.2519 
G01 X0.4435 Y1.2556 
G01 X0.4454 Y1.2589 
G01 X0.4481 Y1.2616 
G01 X0.4514 Y1.2635 
G01 X0.4551 Y1.2645 
G01 X0.4611 Y1.2645 
G01 X0.4615 Y1.2659 
G01 X0.4622 Y1.2673 
G01 X0.4173 Y1.3122 
G01 X0.4159 Y1.3115 
G01 X0.4097 Y1.3095 
G01 X0.4033 Y1.3085 
G01 X0.3967 Y1.3085 
G01 X0.3903 Y1.3095 
G01 X0.3841 Y1.3115 
G01 X0.3782 Y1.3145 
G01 X0.3730 Y1.3183 
G01 X0.3683 Y1.3230 
G01 X0.3645 Y1.3282 
G01 X0.3615 Y1.3341 
G01 X0.3595 Y1.3403 
G01 X0.3585 Y1.3467 
G01 X0.3585 Y1.3533 
G01 X0.3595 Y1.3597 
G01 X0.3615 Y1.3659 
G01 X0.3645 Y1.3718 
G01 X0.3683 Y1.3770 
G01 X0.3730 Y1.3817 
G01 X0.3782 Y1.3855 
G01 X0.3841 Y1.3885 
G01 X0.3903 Y1.3905 
G01 X0.3967 Y1.3915 
G01 X0.4033 Y1.3915 
G01 X0.4097 Y1.3905 
G01 X0.4159 Y1.3885 
G01 X0.4173 Y1.3878 
G01 X0.4622 Y1.4327 
G01 X0.4615 Y1.4341 
G01 X0.4611 Y1.4355 
G01 X0.4551 Y1.4355 
G01 X0.4514 Y1.4365 
G01 X0.4481 Y1.4384 
G01 X0.4454 Y1.4411 
G01 X0.4435 Y1.4444 
G01 X0.4425 Y1.4481 
G01 X0.4425 Y1.4519 
G01 X0.4435 Y1.4556 
G01 X0.4454 Y1.4589 
G01 X0.4481 Y1.4616 
G01 X0.4514 Y1.4635 
G01 X0.4551 Y1.4645 
G01 X0.4611 Y1.4645 
G01 X0.4615 Y1.4659 
G01 X0.4622 Y1.4673 
G01 X0.4173 Y1.5122 
G01 X0.4159 Y1.5115 
G01 X0.4097 Y1.5095 
G01 X0.4033 Y1.5085 
G01 X0.3967 Y1.5085 
G01 X0.3903 Y1.5095 
G01 X0.3841 Y1.5115 
G01 X0.3782 Y1.5145 
G01 X0.3730 Y1.5183 
G01 X0.3683 Y1.5230 
G01 X0.3645 Y1.5282 
G01 X0.3615 Y1.5341 
G01 X0.3611 Y1.5355 
G01 X0.3600 Y1.5355 
G01 X0.3606 Y1.5337 
G01 X0.3637 Y1.5277 
G01 X0.3676 Y1.5223 
G01 X0.3723 Y1.5176 
G01 X0.3777 Y1.5137 
G01 X0.3783 Y1.5134 
G01 X0.3795 Y1.5129 
G01 X0.3800 Y1.5125 
G01 X0.3805 Y1.5122 
G01 X0.3815 Y1.5113 
G01 X0.3826 Y1.5105 
G01 X0.3829 Y1.5101 
G01 X0.3833 Y1.5097 
G01 X0.3841 Y1.5086 
G01 X0.3849 Y1.5075 
G01 X0.3851 Y1.5070 
G01 X0.3854 Y1.5065 
G01 X0.3858 Y1.5052 
G01 X0.3863 Y1.5040 
G01 X0.3864 Y1.5034 
G01 X0.3866 Y1.5029 
G01 X0.3867 Y1.5015 
G01 X0.3868 Y1.5002 
G01 X0.3868 Y1.4996 
G01 X0.3868 Y1.4990 
G01 X0.3865 Y1.4977 
G01 X0.3863 Y1.4964 
G01 X0.3861 Y1.4959 
G01 X0.3860 Y1.4953 
G01 X0.3854 Y1.4941 
G01 X0.3849 Y1.4929 
G01 X0.3845 Y1.4924 
G01 X0.3843 Y1.4919 
G01 X0.3834 Y1.4909 
G01 X0.3826 Y1.4898 
G01 X0.3821 Y1.4895 
G01 X0.3817 Y1.4891 
G01 X0.3806 Y1.4883 
G01 X0.3795 Y1.4875 
G01 X0.3790 Y1.4873 
G01 X0.3785 Y1.4870 
G01 X0.3772 Y1.4866 
G01 X0.3759 Y1.4860 
G01 X0.3640 Y1.4741 
G01 X0.3575 Y1.4585 
G01 X0.3575 Y1.4418 
G01 X0.3577 Y1.4410 
G01 X0.3581 Y1.4402 
G01 X0.3582 Y1.4392 
G01 X0.3584 Y1.4383 
G01 X0.3584 Y1.4373 
G01 X0.3586 Y1.4364 
G01 X0.3584 Y1.4354 
G01 X0.3584 Y1.4345 
G01 X0.3582 Y1.4335 
G01 X0.3581 Y1.4326 
G01 X0.3577 Y1.4317 
G01 X0.3575 Y1.4308 
G01 X0.3570 Y1.4299 
G01 X0.3566 Y1.4291 
G01 X0.3560 Y1.4283 
G01 X0.3556 Y1.4275 
G01 X0.3549 Y1.4268 
G01 X0.3543 Y1.4260 
G01 X0.3535 Y1.4254 
G01 X0.3244 Y1.3963 
G01 X0.3220 Y1.3906 
G01 X0.3220 Y0.6219 
G01 X0.3244 Y0.6162 
G01 X0.3287 Y0.6119 
G01 X0.3344 Y0.6095 
G01 X0.4281 Y0.6095 
G01 X0.4338 Y0.6119 
G01 X0.4388 Y0.6169 
G01 X0.4631 Y0.6412 
G01 X0.4633 Y0.6415 
G01 X0.4656 Y0.6445 
G01 X0.4672 Y0.6458 
G01 X0.4686 Y0.6468 
G01 X0.4721 Y0.6483 
G01 X0.4742 Y0.6486 
G01 X0.4759 Y0.6488 
G01 X0.4777 Y0.6486 
G01 X0.4797 Y0.6483 
G01 X0.4803 Y0.6481 
G01 X0.4832 Y0.6468 
G01 X0.4937 Y0.6425 
G01 X0.5063 Y0.6425 
G01 X0.5178 Y0.6473 
G01 X0.5267 Y0.6562 
G01 X0.5315 Y0.6677 
G01 X0.5315 Y0.7323 
G01 X0.5267 Y0.7438 
G01 X0.5178 Y0.7527 
G01 X0.5082 Y0.7567 
G01 X0.5073 Y0.7569 
G01 X0.5065 Y0.7574 
G01 X0.5056 Y0.7578 
G01 X0.5048 Y0.7584 
G01 X0.5040 Y0.7589 
G01 X0.5033 Y0.7595 
G01 X0.5025 Y0.7601 
G01 X0.5020 Y0.7609 
G01 X0.5013 Y0.7616 
G01 X0.5008 Y0.7624 
G01 X0.5002 Y0.7631 
G01 X0.4998 Y0.7640 
G01 X0.4994 Y0.7649 
G01 X0.4991 Y0.7658 
G01 X0.4988 Y0.7667 
G01 X0.4986 Y0.7676 
G01 X0.4984 Y0.7685 
G01 X0.4984 Y0.7695 
G01 X0.4983 Y0.7705 
G01 X0.4984 Y0.7714 
G01 X0.4984 Y0.7724 
G01 X0.4986 Y0.7733 
G01 X0.4988 Y0.7742 
G01 X0.4991 Y0.7751 
G01 X0.4994 Y0.7761 
G01 X0.4998 Y0.7769 
G01 X0.5002 Y0.7778 
G01 X0.5008 Y0.7785 
G01 X0.5013 Y0.7794 
G01 X0.5020 Y0.7800 
G01 X0.5025 Y0.7808 
G01 X0.5033 Y0.7814 
G01 X0.6315 Y0.9096 
G01 X0.6321 Y0.9103 
G01 X0.6328 Y0.9109 
G01 X0.6335 Y0.9116 
G01 X0.6343 Y0.9121 
G01 X0.6351 Y0.9126 
G01 X0.6360 Y0.9130 
G01 X0.6368 Y0.9135 
G01 X0.6377 Y0.9137 
G01 X0.6386 Y0.9141 
G01 X0.6396 Y0.9142 
G01 X0.6405 Y0.9145 
G01 X0.6415 Y0.9145 
G01 X0.6424 Y0.9146 
G01 X0.6434 Y0.9145 
G01 X0.6443 Y0.9145 
G01 X0.6452 Y0.9142 
G01 X0.6462 Y0.9141 
G01 X0.6471 Y0.9137 
G01 X0.6480 Y0.9135 
G01 X0.6488 Y0.9130 
G01 X0.6497 Y0.9126 
G01 X0.6505 Y0.9121 
G01 X0.6513 Y0.9116 
G01 X0.6520 Y0.9109 
G01 X0.6527 Y0.9103 
G01 X0.6533 Y0.9096 
G01 X0.6540 Y0.9089 
G01 X0.6545 Y0.9081 
G01 X0.6551 Y0.9073 
G01 X0.6554 Y0.9064 
G01 X0.6559 Y0.9056 
G01 X0.6562 Y0.9046 
G01 X0.6565 Y0.9038 
G01 X0.6567 Y0.9028 
G01 X0.6569 Y0.9019 
G01 X0.6569 Y0.9009 
G01 X0.6570 Y0.9000 
G01 X0.6569 Y0.8990 
G01 X0.6569 Y0.8981 
G01 X0.6567 Y0.8971 
G01 X0.6565 Y0.8962 
G01 X0.6562 Y0.8953 
G01 X0.6559 Y0.8944 
G01 X0.6554 Y0.8936 
G01 X0.6546 Y0.8916 
G01 X0.6546 Y0.8834 
G01 X0.6577 Y0.8759 
G01 X0.6630 Y0.8706 
G01 X0.6657 Y0.8679 
G01 X0.6676 Y0.8646 
G01 X0.6686 Y0.8610 
G01 X0.6686 Y0.8571 
G01 X0.6684 Y0.8563 
G01 X0.6676 Y0.8534 
G01 X0.6657 Y0.8501 
G01 X0.6369 Y0.8213 
G01 X0.6345 Y0.8156 
G01 X0.6345 Y0.7685 
G01 X0.6346 Y0.7675 
G01 X0.6345 Y0.7666 
G01 X0.6345 Y0.7656 
G01 X0.6343 Y0.7647 
G01 X0.6341 Y0.7637 
G01 X0.6338 Y0.7628 
G01 X0.6335 Y0.7619 
G01 X0.6330 Y0.7611 
G01 X0.6327 Y0.7602 
G01 X0.6321 Y0.7594 
G01 X0.6316 Y0.7586 
G01 X0.6309 Y0.7579 
G01 X0.6303 Y0.7572 
G01 X0.6296 Y0.7566 
G01 X0.6289 Y0.7559 
G01 X0.6281 Y0.7554 
G01 X0.6273 Y0.7548 
G01 X0.6264 Y0.7545 
G01 X0.6256 Y0.7540 
G01 X0.6247 Y0.7537 
G01 X0.6238 Y0.7534 
G01 X0.6228 Y0.7533 
G01 X0.6219 Y0.7530 
G01 X0.6210 Y0.7530 
G01 X0.6200 Y0.7529 
G01 X0.6190 Y0.7530 
G01 X0.6181 Y0.7530 
G01 X0.6172 Y0.7533 
G01 X0.6162 Y0.7534 
G01 X0.6153 Y0.7537 
G01 X0.6144 Y0.7540 
G01 X0.6136 Y0.7545 
G01 X0.6063 Y0.7575 
G01 X0.5937 Y0.7575 
G01 X0.5822 Y0.7527 
G01 X0.5733 Y0.7438 
G01 X0.5685 Y0.7323 
G01 X0.5685 Y0.6677 
G01 X0.5733 Y0.6562 
G01 X0.5822 Y0.6473 
G01 X0.5937 Y0.6425 
G01 X0.6063 Y0.6425 
G01 X0.6136 Y0.6455 
G01 X0.6144 Y0.6460 
G01 X0.6153 Y0.6463 
G01 X0.6162 Y0.6466 
G01 X0.6172 Y0.6467 
G01 X0.6181 Y0.6470 
G01 X0.6190 Y0.6470 
G01 X0.6200 Y0.6471 
G01 X0.6210 Y0.6470 
G01 X0.6219 Y0.6470 
G01 X0.6228 Y0.6467 
G01 X0.6238 Y0.6466 
G01 X0.6247 Y0.6463 
G01 X0.6256 Y0.6460 
G01 X0.6264 Y0.6455 
G01 X0.6273 Y0.6452 
G01 X0.6281 Y0.6446 
G01 X0.6289 Y0.6441 
G01 X0.6296 Y0.6434 
G01 X0.6303 Y0.6428 
G01 X0.6309 Y0.6421 
G01 X0.6316 Y0.6414 
G01 X0.6321 Y0.6406 
G01 X0.6327 Y0.6398 
G01 X0.6330 Y0.6389 
G01 X0.6335 Y0.6381 
G01 X0.6338 Y0.6372 
G01 X0.6341 Y0.6363 
G01 X0.6343 Y0.6353 
G01 X0.6345 Y0.6344 
G01 X0.6345 Y0.6334 
G01 X0.6346 Y0.6325 
G01 X0.6345 Y0.6315 
G01 X0.6345 Y0.6219 
G01 X0.6369 Y0.6162 
G01 X0.6412 Y0.6119 
G01 X0.6469 Y0.6095 
G01 X0.8281 Y0.6095 
G01 X0.8338 Y0.6119 
G01 X0.8388 Y0.6169 
G01 X0.8655 Y0.6436 
G01 X0.8661 Y0.6443 
G01 X0.8668 Y0.6449 
G01 X0.8675 Y0.6456 
G01 X0.8683 Y0.6461 
G01 X0.8691 Y0.6466 
G01 X0.8700 Y0.6470 
G01 X0.8708 Y0.6475 
G01 X0.8717 Y0.6477 
G01 X0.8726 Y0.6481 
G01 X0.8736 Y0.6482 
G01 X0.8745 Y0.6485 
G01 X0.8755 Y0.6485 
G01 X0.8764 Y0.6486 
G01 X0.8774 Y0.6485 
G01 X0.8783 Y0.6485 
G01 X0.8792 Y0.6482 
G01 X0.8802 Y0.6481 
G01 X0.8811 Y0.6477 
G01 X0.8820 Y0.6475 
G01 X0.8828 Y0.6470 
G01 X0.8937 Y0.6425 
G01 X0.9063 Y0.6425 
G01 X0.9136 Y0.6455 
G01 X0.9144 Y0.6460 
G01 X0.9153 Y0.6463 
G01 X0.9162 Y0.6466 
G01 X0.9172 Y0.6467 
G01 X0.9181 Y0.6470 
G01 X0.9190 Y0.6470 
G01 X0.9200 Y0.6471 
G01 X0.9210 Y0.6470 
G01 X0.9219 Y0.6470 
G01 X0.9228 Y0.6467 
G01 X0.9238 Y0.6466 
G01 X0.9247 Y0.6463 
G01 X0.9256 Y0.6460 
G01 X0.9264 Y0.6455 
G01 X0.9273 Y0.6452 
G01 X0.9281 Y0.6446 
G01 X0.9289 Y0.6441 
G01 X0.9296 Y0.6434 
G01 X0.9303 Y0.6428 
G01 X0.9309 Y0.6421 
G01 X0.9316 Y0.6414 
G01 X0.9321 Y0.6406 
G01 X0.9327 Y0.6398 
G01 X0.9330 Y0.6389 
G01 X0.9335 Y0.6381 
G01 X0.9338 Y0.6372 
G01 X0.9341 Y0.6363 
G01 X0.9343 Y0.6353 
G01 X0.9345 Y0.6344 
G01 X0.9345 Y0.6334 
G01 X0.9346 Y0.6325 
G01 X0.9345 Y0.6315 
G01 X0.9345 Y0.5605 
G01 X0.9335 Y0.5568 
G01 X0.9316 Y0.5535 
G01 X0.8345 Y0.4564 
G01 X0.8339 Y0.4557 
G01 X0.8332 Y0.4551 
G01 X0.8325 Y0.4544 
G01 X0.8317 Y0.4539 
G01 X0.8309 Y0.4534 
G01 X0.8300 Y0.4530 
G01 X0.8292 Y0.4525 
G01 X0.8283 Y0.4523 
G01 X0.8274 Y0.4519 
G01 X0.8264 Y0.4518 
G01 X0.8255 Y0.4515 
G01 X0.8245 Y0.4515 
G01 X0.8236 Y0.4514 
G01 X0.8226 Y0.4515 
G01 X0.8217 Y0.4515 
G01 X0.8208 Y0.4518 
G01 X0.8198 Y0.4519 
G01 X0.8189 Y0.4523 
G01 X0.8180 Y0.4525 
G01 X0.8172 Y0.4530 
G01 X0.8063 Y0.4575 
G01 X0.7937 Y0.4575 
G01 X0.7822 Y0.4527 
G01 X0.7733 Y0.4438 
G01 X0.7685 Y0.4323 
G01 X0.7685 Y0.3677 
G01 X0.7733 Y0.3562 
G01 X0.7822 Y0.3473 
G01 X0.7937 Y0.3425 
G01 X0.8063 Y0.3425 
G01 X0.8178 Y0.3473 
G01 X0.8267 Y0.3562 
G01 X0.8315 Y0.3677 
G01 X0.8315 Y0.4055 
G01 X0.8325 Y0.4092 
G01 X0.8344 Y0.4125 
G01 X0.8424 Y0.4205 
G01 X0.8451 Y0.4232 
G01 X0.8484 Y0.4251 
G01 X0.8521 Y0.4261 
G01 X0.8559 Y0.4261 
G01 X0.8596 Y0.4251 
G01 X0.8629 Y0.4232 
G01 X0.8656 Y0.4205 
G01 X0.8675 Y0.4172 
G01 X0.8685 Y0.4135 
G01 X0.8685 Y0.3677 
G01 X0.8733 Y0.3562 
G01 X0.8789 Y0.3505 
G01 X0.8816 Y0.3478 
G01 X0.8835 Y0.3445 
G01 X0.8845 Y0.3409 
G01 X0.8845 Y0.2344 
G01 X0.8869 Y0.2287 
G01 X0.9085 Y0.2071 
G01 X0.9162 Y0.1994 
G01 X0.9219 Y0.1970 
G01 X1.1315 Y0.1970 
G01 X1.1352 Y0.1960 
G01 X1.1385 Y0.1941 
G01 X1.1412 Y0.1914 
G01 X1.1431 Y0.1881 
G01 X1.1439 Y0.1852 
G01 X1.1441 Y0.1844 
G01 X1.1441 Y0.1806 
G01 X1.1441 Y0.1645 
G01 X1.1451 Y0.1645 
G01 X1.1451 Y0.1928 
G01 X1.1462 Y0.1996 
G01 X1.1483 Y0.2062 
G01 X1.1515 Y0.2124 
G01 X1.1555 Y0.2179 
G01 X1.1604 Y0.2228 
G01 X1.1660 Y0.2269 
G01 X1.1721 Y0.2300 
G01 X1.1745 Y0.2308 
G01 X1.1745 Y0.2318 
G01 X1.1718 Y0.2310 
G01 X1.1655 Y0.2277 
G01 X1.1644 Y0.2270 
G01 X1.1639 Y0.2265 
G01 X1.1629 Y0.2259 
G01 X1.1620 Y0.2252 
G01 X1.1613 Y0.2249 
G01 X1.1606 Y0.2246 
G01 X1.1595 Y0.2243 
G01 X1.1584 Y0.2238 
G01 X1.1577 Y0.2238 
G01 X1.1569 Y0.2236 
G01 X1.1558 Y0.2236 
G01 X1.1546 Y0.2234 
G01 X1.1539 Y0.2236 
G01 X1.1531 Y0.2236 
G01 X1.1520 Y0.2239 
G01 X1.1508 Y0.2240 
G01 X1.1501 Y0.2244 
G01 X1.1494 Y0.2246 
G01 X1.1484 Y0.2251 
G01 X1.1474 Y0.2256 
G01 X1.1468 Y0.2261 
G01 X1.1461 Y0.2265 
G01 X1.1453 Y0.2273 
G01 X1.1444 Y0.2280 
G01 X1.1439 Y0.2286 
G01 X1.1434 Y0.2292 
G01 X1.1428 Y0.2302 
G01 X1.1421 Y0.2311 
G01 X1.1419 Y0.2318 
G01 X1.1415 Y0.2325 
G01 X1.1412 Y0.2336 
G01 X1.1408 Y0.2347 
G01 X1.1407 Y0.2354 
G01 X1.1405 Y0.2362 
G01 X1.1405 Y0.2373 
G01 X1.1404 Y0.2385 
G01 X1.1405 Y0.2392 
G01 X1.1405 Y0.3145 
G01 X1.1415 Y0.3182 
G01 X1.1434 Y0.3215 
G01 X1.1554 Y0.3335 
G01 X1.1631 Y0.3412 
G01 X1.1634 Y0.3419 
G01 X1.1638 Y0.3423 
G01 X1.1640 Y0.3428 
G01 X1.1649 Y0.3438 
G01 X1.1657 Y0.3449 
G01 X1.1662 Y0.3453 
G01 X1.1666 Y0.3457 
G01 X1.1677 Y0.3464 
G01 X1.1688 Y0.3472 
G01 X1.1693 Y0.3474 
G01 X1.1698 Y0.3478 
G01 X1.1711 Y0.3482 
G01 X1.1723 Y0.3487 
G01 X1.1729 Y0.3488 
G01 X1.1734 Y0.3489 
G01 X1.1747 Y0.3490 
G01 X1.1761 Y0.3492 
G01 X1.1766 Y0.3491 
G01 X1.1772 Y0.3491 
G01 X1.1785 Y0.3489 
G01 X1.1799 Y0.3487 
G01 X1.1804 Y0.3485 
G01 X1.1810 Y0.3483 
G01 X1.1822 Y0.3477 
G01 X1.1834 Y0.3472 
G01 X1.1838 Y0.3469 
G01 X1.1855 Y0.3460 
G01 X1.1855 Y0.3470 
G01 X1.1806 Y0.3503 
G01 X1.1763 Y0.3546 
G01 X1.1730 Y0.3596 
G01 X1.1707 Y0.3651 
G01 X1.1695 Y0.3710 
G01 X1.1695 Y0.4290 
G01 X1.1707 Y0.4349 
G01 X1.1730 Y0.4404 
G01 X1.1763 Y0.4454 
G01 X1.1806 Y0.4497 
G01 X1.1856 Y0.4530 
G01 X1.1911 Y0.4553 
G01 X1.1970 Y0.4565 
G01 X1.2030 Y0.4565 
G01 X1.2089 Y0.4553 
G01 X1.2144 Y0.4530 
G01 X1.2194 Y0.4497 
G01 X1.2237 Y0.4454 
G01 X1.2270 Y0.4404 
G01 X1.2293 Y0.4349 
G01 X1.2305 Y0.4290 
G01 X1.2305 Y0.4145 
G01 X1.2315 Y0.4145 
G01 X1.2315 Y0.4285 
G01 X1.2307 Y0.4334 
G01 X1.2292 Y0.4381 
G01 X1.2269 Y0.4425 
G01 X1.2240 Y0.4465 
G01 X1.2205 Y0.4500 
G01 X1.2165 Y0.4529 
G01 X1.2121 Y0.4552 
G01 X1.2086 Y0.4563 
G01 X1.2071 Y0.4567 
G01 X1.2067 Y0.4569 
G01 X1.2064 Y0.4570 
G01 X1.2051 Y0.4579 
G01 X1.2038 Y0.4586 
G01 X1.2035 Y0.4589 
G01 X1.2032 Y0.4591 
G01 X1.2022 Y0.4603 
G01 X1.2011 Y0.4613 
G01 X1.2009 Y0.4617 
G01 X1.2006 Y0.4620 
G01 X1.1999 Y0.4633 
G01 X1.1992 Y0.4647 
G01 X1.1991 Y0.4650 
G01 X1.1989 Y0.4654 
G01 X1.1986 Y0.4669 
G01 X1.1982 Y0.4683 
G01 X1.1982 Y0.4687 
G01 X1.1981 Y0.4691 
G01 X1.1982 Y0.4706 
G01 X1.1982 Y0.4722 
G01 X1.1983 Y0.4725 
G01 X1.1983 Y0.4729 
G01 X1.1988 Y0.4744 
G01 X1.1992 Y0.4758 
G01 X1.1994 Y0.4762 
G01 X1.1995 Y0.4765 
G01 X1.2003 Y0.4778 
G01 X1.2011 Y0.4792 
G01 X1.2013 Y0.4794 
G01 X1.2016 Y0.4797 
G01 X1.2027 Y0.4808 
G01 X1.3581 Y0.6362 
G01 X1.3631 Y0.6412 
G01 X1.3655 Y0.6469 
G01 X1.3655 Y1.5531 
G01 X1.3631 Y1.5588 
G01 X1.3371 Y1.5848 
G01 X1.3344 Y1.5875 
G01 X1.3325 Y1.5908 
G01 X1.3315 Y1.5944 
G01 X1.3315 Y1.5945 
G01 X1.3315 Y1.6323 
G01 X1.3267 Y1.6438 
G01 X1.3178 Y1.6527 
G01 X1.3063 Y1.6575 
G01 X1.2937 Y1.6575 
G01 X1.2864 Y1.6545 
G01 X1.2856 Y1.6540 
G01 X1.2847 Y1.6537 
G01 X1.2838 Y1.6534 
G01 X1.2828 Y1.6533 
G01 X1.2819 Y1.6530 
G01 X1.2810 Y1.6530 
G01 X1.2800 Y1.6529 
G01 X1.2790 Y1.6530 
G01 X1.2781 Y1.6530 
G01 X1.2772 Y1.6533 
G01 X1.2762 Y1.6534 
G01 X1.2753 Y1.6537 
G01 X1.2744 Y1.6540 
G01 X1.2736 Y1.6545 
G01 X1.2727 Y1.6548 
G01 X1.2719 Y1.6554 
G01 X1.2711 Y1.6559 
G01 X1.2704 Y1.6566 
G01 X1.2697 Y1.6572 
G01 X1.2691 Y1.6579 
G01 X1.2684 Y1.6586 
G01 X1.2679 Y1.6594 
G01 X1.2673 Y1.6602 
G01 X1.2670 Y1.6611 
G01 X1.2665 Y1.6619 
G01 X1.2662 Y1.6628 
G01 X1.2659 Y1.6637 
G01 X1.2657 Y1.6647 
G01 X1.2655 Y1.6656 
G01 X1.2655 Y1.6666 
G01 X1.2654 Y1.6675 
G01 X1.2655 Y1.6685 
G01 X1.2655 Y1.8315 
G01 X1.2654 Y1.8325 
G01 X1.2655 Y1.8334 
G01 X1.2655 Y1.8344 
G01 X1.2657 Y1.8353 
G01 X1.2659 Y1.8363 
G01 X1.2662 Y1.8372 
G01 X1.2665 Y1.8381 
G01 X1.2670 Y1.8389 
G01 X1.2673 Y1.8398 
G01 X1.2679 Y1.8406 
G01 X1.2684 Y1.8414 
G01 X1.2691 Y1.8421 
G01 X1.2697 Y1.8428 
G01 X1.2704 Y1.8434 
G01 X1.2711 Y1.8441 
G01 X1.2719 Y1.8446 
G01 X1.2727 Y1.8452 
G01 X1.2736 Y1.8455 
G01 X1.2744 Y1.8460 
G01 X1.2753 Y1.8463 
G01 X1.2762 Y1.8466 
G01 X1.2772 Y1.8467 
G01 X1.2781 Y1.8470 
G01 X1.2790 Y1.8470 
G01 X1.2800 Y1.8471 
G01 X1.2810 Y1.8470 
G01 X1.2819 Y1.8470 
G01 X1.2828 Y1.8467 
G01 X1.2838 Y1.8466 
G01 X1.2847 Y1.8463 
G01 X1.2856 Y1.8460 
G01 X1.2864 Y1.8455 
G01 X1.2937 Y1.8425 
G01 X1.3063 Y1.8425 
G01 X1.3178 Y1.8473 
G01 X1.3267 Y1.8562 
G01 X1.3315 Y1.8677 
G01 X1.3315 Y1.9323 
G01 X1.3267 Y1.9438 
G01 X1.3178 Y1.9527 
G01 X1.3063 Y1.9575 
G01 X1.2937 Y1.9575 
G01 X1.2822 Y1.9527 
G01 X1.2733 Y1.9438 
G01 X1.2685 Y1.9323 
G01 X1.2685 Y1.8945 
G01 X1.2675 Y1.8908 
G01 X1.2656 Y1.8875 
G01 X1.2541 Y1.8760 
G01 X1.2514 Y1.8733 
G01 X1.2481 Y1.8714 
G01 X1.2444 Y1.8704 
G01 X1.2406 Y1.8704 
G01 X1.2369 Y1.8714 
G01 X1.2336 Y1.8733 
G01 X1.2309 Y1.8760 
G01 X1.2290 Y1.8793 
G01 X1.2280 Y1.8830 
G01 X1.2280 Y2.1020 
G01 X1.2290 Y2.1057 
G01 X1.2309 Y2.1090 
G01 X1.2655 Y2.1436 
G01 X1.2661 Y2.1443 
G01 X1.2668 Y2.1449 
G01 X1.2675 Y2.1456 
G01 X1.2683 Y2.1461 
G01 X1.2691 Y2.1466 
G01 X1.2700 Y2.1470 
G01 X1.2708 Y2.1475 
G01 X1.2717 Y2.1477 
G01 X1.2726 Y2.1481 
G01 X1.2736 Y2.1482 
G01 X1.2745 Y2.1485 
G01 X1.2755 Y2.1485 
G01 X1.2764 Y2.1486 
G01 X1.2774 Y2.1485 
G01 X1.2783 Y2.1485 
G01 X1.2792 Y2.1482 
G01 X1.2802 Y2.1481 
G01 X1.2811 Y2.1477 
G01 X1.2820 Y2.1475 
G01 X1.2828 Y2.1470 
G01 X1.2937 Y2.1425 
G01 X1.3063 Y2.1425 
G01 X1.3178 Y2.1473 
G01 X1.3267 Y2.1562 
G01 X1.3315 Y2.1677 
G01 X1.3315 Y2.2323 
G01 X1.3267 Y2.2438 
G01 X1.3178 Y2.2527 
G01 X1.3063 Y2.2575 
G01 X1.2937 Y2.2575 
G01 X1.2822 Y2.2527 
G01 X1.2733 Y2.2438 
G01 X1.2685 Y2.2323 
G01 X1.2685 Y2.1945 
G01 X1.2675 Y2.1908 
G01 X1.2656 Y2.1875 
G01 X1.1994 Y2.1213 
G01 X1.1970 Y2.1156 
G01 X1.1970 Y1.0230 
G01 X1.1960 Y1.0193 
G01 X1.1941 Y1.0160 
G01 X1.1576 Y0.9795 
G01 X1.1549 Y0.9768 
G01 X1.1516 Y0.9749 
G01 X1.1481 Y0.9740 
G01 X1.1479 Y0.9739 
G01 X1.1441 Y0.9739 
G01 X1.1404 Y0.9749 
G01 X1.1371 Y0.9768 
G01 X1.1344 Y0.9795 
G01 X1.1344 Y0.9796 
G01 X1.1325 Y0.9828 
G01 X1.1315 Y0.9864 
G01 X1.1315 Y0.9865 
G01 X1.1315 Y1.0323 
G01 X1.1267 Y1.0438 
G01 X1.1211 Y1.0495 
G01 X1.1184 Y1.0522 
G01 X1.1165 Y1.0555 
G01 X1.1155 Y1.0591 
G01 X1.1155 Y1.2409 
G01 X1.1165 Y1.2445 
G01 X1.1184 Y1.2478 
G01 X1.1267 Y1.2562 
G01 X1.1315 Y1.2677 
G01 X1.1315 Y1.3323 
G01 X1.1267 Y1.3438 
G01 X1.1184 Y1.3522 
G01 X1.1165 Y1.3555 
G01 X1.1155 Y1.3591 
G01 X1.1155 Y1.5409 
G01 X1.1165 Y1.5445 
G01 X1.1184 Y1.5478 
G01 X1.1267 Y1.5562 
G01 X1.1315 Y1.5677 
G01 X1.1315 Y1.6323 
G01 X1.1267 Y1.6438 
G01 X1.1211 Y1.6495 
G01 X1.1184 Y1.6522 
G01 X1.1165 Y1.6555 
G01 X1.1155 Y1.6591 
G01 X1.1155 Y1.8409 
G01 X1.1165 Y1.8445 
G01 X1.1184 Y1.8478 
G01 X1.1267 Y1.8562 
G01 X1.1315 Y1.8677 
G01 X1.1315 Y1.9323 
G01 X1.1267 Y1.9438 
G01 X1.1211 Y1.9495 
G01 X1.1184 Y1.9522 
G01 X1.1165 Y1.9555 
G01 X1.1155 Y1.9591 
G01 X1.1155 Y2.1409 
G01 X1.1165 Y2.1445 
G01 X1.1184 Y2.1478 
G01 X1.1186 Y2.1480 
G01 X1.1211 Y2.1505 
G01 X1.1267 Y2.1562 
G01 X1.1315 Y2.1677 
G01 X1.1315 Y2.2323 
G01 X1.1267 Y2.2438 
G01 X1.1211 Y2.2495 
G01 X1.1184 Y2.2522 
G01 X1.1165 Y2.2555 
G01 X1.1155 Y2.2591 
G01 X1.1155 Y2.4409 
G01 X1.1165 Y2.4445 
G01 X1.1184 Y2.4478 
G01 X1.1267 Y2.4562 
G01 X1.1315 Y2.4677 
G01 X1.1315 Y2.5323 
G01 X1.1267 Y2.5438 
G01 X1.1211 Y2.5495 
G01 X1.1184 Y2.5522 
G01 X1.1165 Y2.5555 
G01 X1.1155 Y2.5591 
G01 X1.1155 Y2.7409 
G01 X1.1165 Y2.7445 
G01 X1.1184 Y2.7478 
G01 X1.1267 Y2.7562 
G01 X1.1315 Y2.7677 
G01 X1.1315 Y2.8323 
G01 X1.1267 Y2.8438 
G01 X1.1211 Y2.8495 
G01 X1.1184 Y2.8522 
G01 X1.1165 Y2.8555 
G01 X1.1155 Y2.8591 
G01 X1.1155 Y3.0409 
G01 X1.1165 Y3.0445 
G01 X1.1184 Y3.0478 
G01 X1.1267 Y3.0562 
G01 X1.1315 Y3.0677 
G01 X1.1315 Y3.1323 
G01 X1.1289 Y3.1386 
G01 X1.1284 Y3.1394 
G01 X1.1282 Y3.1403 
G01 X1.1278 Y3.1412 
G01 X1.1277 Y3.1422 
G01 X1.1274 Y3.1431 
G01 X1.1274 Y3.1440 
G01 X1.1273 Y3.1450 
G01 X1.1274 Y3.1460 
G01 X1.1274 Y3.1469 
G01 X1.1277 Y3.1478 
G01 X1.1278 Y3.1488 
G01 X1.1282 Y3.1497 
G01 X1.1284 Y3.1506 
G01 X1.1289 Y3.1514 
G01 X1.1293 Y3.1523 
G01 X1.1298 Y3.1531 
G01 X1.1303 Y3.1539 
G01 X1.1310 Y3.1546 
G01 X1.1316 Y3.1553 
G01 X1.1323 Y3.1559 
G01 X1.1330 Y3.1566 
G01 X1.1338 Y3.1571 
G01 X1.1346 Y3.1577 
G01 X1.1355 Y3.1580 
G01 X1.1363 Y3.1585 
G01 X1.1372 Y3.1588 
G01 X1.1381 Y3.1591 
G01 X1.1391 Y3.1593 
G01 X1.1400 Y3.1595 
G01 X1.1410 Y3.1595 
G01 X1.1419 Y3.1596 
G01 X1.1429 Y3.1595 
G01 X1.2571 Y3.1595 
G01 X1.2581 Y3.1596 
G01 X1.2590 Y3.1595 
G01 X1.2600 Y3.1595 
G01 X1.2609 Y3.1593 
G01 X1.2619 Y3.1591 
G01 X1.2628 Y3.1588 
G01 X1.2637 Y3.1585 
G01 X1.2645 Y3.1580 
G01 X1.2654 Y3.1577 
G01 X1.2662 Y3.1571 
G01 X1.2670 Y3.1566 
G01 X1.2677 Y3.1559 
G01 X1.2684 Y3.1553 
G01 X1.2690 Y3.1546 
G01 X1.2697 Y3.1539 
G01 X1.2702 Y3.1531 
G01 X1.2707 Y3.1523 
G01 X1.2711 Y3.1514 
G01 X1.2716 Y3.1506 
G01 X1.2718 Y3.1497 
G01 X1.2722 Y3.1488 
G01 X1.2723 Y3.1478 
G01 X1.2726 Y3.1469 
G01 X1.2726 Y3.1460 
G01 X1.2727 Y3.1450 
G01 X1.2726 Y3.1440 
G01 X1.2726 Y3.1431 
G01 X1.2723 Y3.1422 
G01 X1.2722 Y3.1412 
G01 X1.2718 Y3.1403 
G01 X1.2716 Y3.1394 
G01 X1.2711 Y3.1386 
G01 X1.2685 Y3.1323 
G01 X1.2685 Y3.0677 
G01 X1.2733 Y3.0562 
G01 X1.2822 Y3.0473 
G01 X1.2937 Y3.0425 
G01 X1.3063 Y3.0425 
G01 X1.3178 Y3.0473 
G01 X1.3267 Y3.0562 
G01 X1.3315 Y3.0677 
G01 X1.3315 Y3.0719 
G01 X1.3325 Y3.0756 
G01 X1.3344 Y3.0789 
G01 X1.3371 Y3.0816 
G01 X1.3404 Y3.0835 
G01 X1.3441 Y3.0845 
G01 X1.4559 Y3.0845 
G01 X1.4596 Y3.0835 
G01 X1.4629 Y3.0816 
G01 X1.4656 Y3.0789 
G01 X1.4675 Y3.0756 
G01 X1.4685 Y3.0719 
G01 X1.4685 Y3.0677 
G01 X1.4733 Y3.0562 
G01 X1.4822 Y3.0473 
G01 X1.4937 Y3.0425 
G01 X1.5063 Y3.0425 
G01 X1.5178 Y3.0473 
G01 X1.5267 Y3.0562 
G01 X1.5315 Y3.0677 
G01 X1.5315 Y3.1323 
G01 X1.5267 Y3.1438 
G01 X1.5178 Y3.1527 
G01 X1.5063 Y3.1575 
G01 X1.4937 Y3.1575 
G01 X1.4822 Y3.1527 
G01 X1.4733 Y3.1438 
G01 X1.4685 Y3.1323 
G01 X1.4685 Y3.1281 
G01 X1.4675 Y3.1244 
G01 X1.4656 Y3.1211 
G01 X1.4629 Y3.1184 
G01 X1.4596 Y3.1165 
G01 X1.4559 Y3.1155 
G01 X1.3781 Y3.1155 
G01 X1.3744 Y3.1165 
G01 X1.3711 Y3.1184 
G01 X1.3684 Y3.1211 
G01 X1.3665 Y3.1244 
G01 X1.3655 Y3.1281 
G01 X1.3655 Y3.1781 
G01 X1.3631 Y3.1838 
G01 X1.3385 Y3.2084 
G01 X1.3358 Y3.2111 
G01 X1.3339 Y3.2144 
G01 X1.3330 Y3.2179 
G01 X1.3329 Y3.2181 
G01 X1.3329 Y3.2219 
G01 X1.3339 Y3.2256 
G01 X1.3358 Y3.2289 
G01 X1.3385 Y3.2316 
G01 X1.3418 Y3.2335 
G01 X1.3454 Y3.2345 
G01 X1.3455 Y3.2345 
G01 X2.1895 Y3.2345 
G01 X2.1932 Y3.2335 
G01 X2.1965 Y3.2316 
G01 X2.2467 Y3.1814 
G01 X2.2475 Y3.1808 
G01 X2.2480 Y3.1800 
G01 X2.2487 Y3.1794 
G01 X2.2492 Y3.1785 
G01 X2.2498 Y3.1778 
G01 X2.2502 Y3.1769 
G01 X2.2506 Y3.1761 
G01 X2.2509 Y3.1751 
G01 X2.2512 Y3.1742 
G01 X2.2514 Y3.1733 
G01 X2.2516 Y3.1724 
G01 X2.2516 Y3.1714 
G01 X2.2517 Y3.1705 
G01 X2.2516 Y3.1695 
G01 X2.2516 Y3.1685 
G01 X2.2514 Y3.1676 
G01 X2.2512 Y3.1667 
G01 X2.2509 Y3.1658 
G01 X2.2506 Y3.1649 
G01 X2.2502 Y3.1640 
G01 X2.2498 Y3.1631 
G01 X2.2492 Y3.1624 
G01 X2.2487 Y3.1616 
G01 X2.2480 Y3.1609 
G01 X2.2475 Y3.1601 
G01 X2.2467 Y3.1595 
G01 X2.2460 Y3.1589 
G01 X2.2452 Y3.1584 
G01 X2.2444 Y3.1578 
G01 X2.2435 Y3.1574 
G01 X2.2427 Y3.1569 
G01 X2.2418 Y3.1567 
G01 X2.2322 Y3.1527 
G01 X2.2233 Y3.1438 
G01 X2.2185 Y3.1323 
G01 X2.2185 Y3.0945 
G01 X2.2175 Y3.0908 
G01 X2.2156 Y3.0875 
G01 X2.0994 Y2.9713 
G01 X2.0970 Y2.9656 
G01 X2.0970 Y2.8566 
G01 X2.0962 Y2.8536 
G01 X2.0960 Y2.8530 
G01 X2.0941 Y2.8496 
G01 X2.0927 Y2.8483 
G01 X2.0914 Y2.8470 
G01 X2.0892 Y2.8457 
G01 X2.0881 Y2.8450 
G01 X2.0867 Y2.8447 
G01 X2.0844 Y2.8441 
G01 X2.0806 Y2.8441 
G01 X2.0776 Y2.8449 
G01 X2.0769 Y2.8450 
G01 X2.0736 Y2.8470 
G01 X2.0718 Y2.8487 
G01 X2.0709 Y2.8497 
G01 X2.0702 Y2.8504 
G01 X2.0684 Y2.8522 
G01 X2.0672 Y2.8541 
G01 X2.0665 Y2.8555 
G01 X2.0661 Y2.8568 
G01 X2.0655 Y2.8591 
G01 X2.0655 Y3.0409 
G01 X2.0665 Y3.0445 
G01 X2.0684 Y3.0478 
G01 X2.0767 Y3.0562 
G01 X2.0815 Y3.0677 
G01 X2.0815 Y3.1323 
G01 X2.0767 Y3.1438 
G01 X2.0678 Y3.1527 
G01 X2.0563 Y3.1575 
G01 X2.0437 Y3.1575 
G01 X2.0322 Y3.1527 
G01 X2.0233 Y3.1438 
G01 X2.0185 Y3.1323 
G01 X2.0185 Y3.0677 
G01 X2.0233 Y3.0562 
G01 X2.0289 Y3.0505 
G01 X2.0316 Y3.0478 
G01 X2.0335 Y3.0445 
G01 X2.0345 Y3.0409 
G01 X2.0345 Y2.8591 
G01 X2.0335 Y2.8555 
G01 X2.0316 Y2.8522 
G01 X2.0233 Y2.8438 
G01 X2.0185 Y2.8323 
G01 X2.0185 Y2.7677 
G01 X2.0233 Y2.7562 
G01 X2.0289 Y2.7505 
G01 X2.0316 Y2.7478 
G01 X2.0335 Y2.7445 
G01 X2.0345 Y2.7409 
G01 X2.0345 Y2.5591 
G01 X2.0335 Y2.5555 
G01 X2.0316 Y2.5522 
G01 X2.0233 Y2.5438 
G01 X2.0185 Y2.5323 
G01 X2.0185 Y2.4677 
G01 X2.0233 Y2.4562 
G01 X2.0289 Y2.4505 
G01 X2.0316 Y2.4478 
G01 X2.0335 Y2.4445 
G01 X2.0345 Y2.4409 
G01 X2.0345 Y2.2591 
G01 X2.0335 Y2.2555 
G01 X2.0316 Y2.2522 
G01 X2.0314 Y2.2520 
G01 X2.0289 Y2.2495 
G01 X2.0233 Y2.2438 
G01 X2.0185 Y2.2323 
G01 X2.0185 Y2.1677 
G01 X2.0233 Y2.1562 
G01 X2.0289 Y2.1505 
G01 X2.0316 Y2.1478 
G01 X2.0335 Y2.1445 
G01 X2.0345 Y2.1409 
G01 X2.0345 Y1.9591 
G01 X2.0335 Y1.9555 
G01 X2.0316 Y1.9522 
G01 X2.0314 Y1.9520 
G01 X2.0289 Y1.9495 
G01 X2.0233 Y1.9438 
G01 X2.0185 Y1.9323 
G01 X2.0185 Y1.8677 
G01 X2.0233 Y1.8562 
G01 X2.0289 Y1.8505 
G01 X2.0316 Y1.8478 
G01 X2.0335 Y1.8445 
G01 X2.0345 Y1.8409 
G01 X2.0345 Y1.6591 
G01 X2.0335 Y1.6555 
G01 X2.0316 Y1.6522 
G01 X2.0233 Y1.6438 
G01 X2.0185 Y1.6323 
G01 X2.0185 Y1.5677 
G01 X2.0233 Y1.5562 
G01 X2.0289 Y1.5505 
G01 X2.0316 Y1.5478 
G01 X2.0335 Y1.5445 
G01 X2.0345 Y1.5409 
G01 X2.0345 Y1.3591 
G01 X2.0335 Y1.3555 
G01 X2.0316 Y1.3522 
G01 X2.0233 Y1.3438 
G01 X2.0185 Y1.3323 
G01 X2.0185 Y1.2677 
G01 X2.0233 Y1.2562 
G01 X2.0289 Y1.2505 
G01 X2.0316 Y1.2478 
G01 X2.0335 Y1.2445 
G01 X2.0345 Y1.2409 
G01 X2.0345 Y1.0591 
G01 X2.0335 Y1.0555 
G01 X2.0316 Y1.0522 
G01 X2.0233 Y1.0438 
G01 X2.0185 Y1.0323 
G01 X2.0185 Y0.9677 
G01 X2.0233 Y0.9562 
G01 X2.0289 Y0.9505 
G01 X2.0316 Y0.9478 
G01 X2.0335 Y0.9445 
G01 X2.0345 Y0.9409 
G01 X2.0345 Y0.7685 
G01 X2.0346 Y0.7675 
G01 X2.0345 Y0.7666 
G01 X2.0345 Y0.7656 
G01 X2.0343 Y0.7647 
G01 X2.0341 Y0.7637 
G01 X2.0338 Y0.7628 
G01 X2.0335 Y0.7619 
G01 X2.0330 Y0.7611 
G01 X2.0327 Y0.7602 
G01 X2.0321 Y0.7594 
G01 X2.0316 Y0.7586 
G01 X2.0309 Y0.7579 
G01 X2.0303 Y0.7572 
G01 X2.0296 Y0.7566 
G01 X2.0289 Y0.7559 
G01 X2.0281 Y0.7554 
G01 X2.0273 Y0.7548 
G01 X2.0264 Y0.7545 
G01 X2.0256 Y0.7540 
G01 X2.0247 Y0.7537 
G01 X2.0238 Y0.7534 
G01 X2.0228 Y0.7533 
G01 X2.0219 Y0.7530 
G01 X2.0210 Y0.7530 
G01 X2.0200 Y0.7529 
G01 X2.0190 Y0.7530 
G01 X2.0181 Y0.7530 
G01 X2.0172 Y0.7533 
G01 X2.0162 Y0.7534 
G01 X2.0153 Y0.7537 
G01 X2.0144 Y0.7540 
G01 X2.0136 Y0.7545 
G01 X2.0063 Y0.7575 
G01 X1.9937 Y0.7575 
G01 X1.9864 Y0.7545 
G01 X1.9856 Y0.7540 
G01 X1.9847 Y0.7537 
G01 X1.9838 Y0.7534 
G01 X1.9828 Y0.7533 
G01 X1.9819 Y0.7530 
G01 X1.9810 Y0.7530 
G01 X1.9800 Y0.7529 
G01 X1.9790 Y0.7530 
G01 X1.9781 Y0.7530 
G01 X1.9772 Y0.7533 
G01 X1.9762 Y0.7534 
G01 X1.9753 Y0.7537 
G01 X1.9744 Y0.7540 
G01 X1.9736 Y0.7545 
G01 X1.9727 Y0.7548 
G01 X1.9719 Y0.7554 
G01 X1.9711 Y0.7559 
G01 X1.9704 Y0.7566 
G01 X1.9697 Y0.7572 
G01 X1.9691 Y0.7579 
G01 X1.9684 Y0.7586 
G01 X1.9679 Y0.7594 
G01 X1.9673 Y0.7602 
G01 X1.9670 Y0.7611 
G01 X1.9665 Y0.7619 
G01 X1.9662 Y0.7628 
G01 X1.9659 Y0.7637 
G01 X1.9657 Y0.7647 
G01 X1.9655 Y0.7656 
G01 X1.9655 Y0.7666 
G01 X1.9654 Y0.7675 
G01 X1.9655 Y0.7685 
G01 X1.9655 Y2.1053 
G01 X1.9654 Y2.1063 
G01 X1.9655 Y2.1072 
G01 X1.9655 Y2.1082 
G01 X1.9657 Y2.1091 
G01 X1.9659 Y2.1100 
G01 X1.9662 Y2.1109 
G01 X1.9665 Y2.1119 
G01 X1.9670 Y2.1127 
G01 X1.9704 Y2.1209 
G01 X1.9704 Y2.1291 
G01 X1.9673 Y2.1365 
G01 X1.9615 Y2.1423 
G01 X1.9541 Y2.1454 
G01 X1.9455 Y2.1454 
G01 X1.9418 Y2.1464 
G01 X1.9385 Y2.1483 
G01 X1.9358 Y2.1510 
G01 X1.9339 Y2.1543 
G01 X1.9329 Y2.1580 
G01 X1.9329 Y2.1666 
G01 X1.9298 Y2.1740 
G01 X1.9240 Y2.1798 
G01 X1.9166 Y2.1829 
G01 X1.9084 Y2.1829 
G01 X1.9024 Y2.1804 
G01 X1.9016 Y2.1799 
G01 X1.9007 Y2.1797 
G01 X1.8998 Y2.1793 
G01 X1.8988 Y2.1792 
G01 X1.8979 Y2.1789 
G01 X1.8970 Y2.1789 
G01 X1.8960 Y2.1788 
G01 X1.8950 Y2.1789 
G01 X1.8941 Y2.1789 
G01 X1.8932 Y2.1792 
G01 X1.8922 Y2.1793 
G01 X1.8913 Y2.1797 
G01 X1.8904 Y2.1799 
G01 X1.8896 Y2.1804 
G01 X1.8887 Y2.1808 
G01 X1.8879 Y2.1813 
G01 X1.8871 Y2.1818 
G01 X1.8864 Y2.1825 
G01 X1.8857 Y2.1831 
G01 X1.8851 Y2.1838 
G01 X1.8844 Y2.1845 
G01 X1.8839 Y2.1854 
G01 X1.8833 Y2.1861 
G01 X1.8830 Y2.1870 
G01 X1.8825 Y2.1878 
G01 X1.8822 Y2.1888 
G01 X1.8819 Y2.1896 
G01 X1.8817 Y2.1906 
G01 X1.8815 Y2.1915 
G01 X1.8815 Y2.1925 
G01 X1.8814 Y2.1934 
G01 X1.8815 Y2.1944 
G01 X1.8815 Y2.2323 
G01 X1.8767 Y2.2438 
G01 X1.8711 Y2.2495 
G01 X1.8684 Y2.2522 
G01 X1.8665 Y2.2555 
G01 X1.8655 Y2.2591 
G01 X1.8655 Y2.4409 
G01 X1.8665 Y2.4445 
G01 X1.8684 Y2.4478 
G01 X1.8767 Y2.4562 
G01 X1.8815 Y2.4677 
G01 X1.8815 Y2.5323 
G01 X1.8767 Y2.5438 
G01 X1.8711 Y2.5495 
G01 X1.8684 Y2.5522 
G01 X1.8665 Y2.5555 
G01 X1.8655 Y2.5591 
G01 X1.8655 Y2.7409 
G01 X1.8665 Y2.7445 
G01 X1.8684 Y2.7478 
G01 X1.8767 Y2.7562 
G01 X1.8815 Y2.7677 
G01 X1.8815 Y2.8323 
G01 X1.8767 Y2.8438 
G01 X1.8711 Y2.8495 
G01 X1.8684 Y2.8522 
G01 X1.8665 Y2.8555 
G01 X1.8655 Y2.8591 
G01 X1.8655 Y3.0409 
G01 X1.8665 Y3.0445 
G01 X1.8684 Y3.0478 
G01 X1.8767 Y3.0562 
G01 X1.8815 Y3.0677 
G01 X1.8815 Y3.1323 
G01 X1.8767 Y3.1438 
G01 X1.8678 Y3.1527 
G01 X1.8563 Y3.1575 
G01 X1.8437 Y3.1575 
G01 X1.8322 Y3.1527 
G01 X1.8233 Y3.1438 
G01 X1.8185 Y3.1323 
G01 X1.8185 Y3.0677 
G01 X1.8233 Y3.0562 
G01 X1.8316 Y3.0478 
G01 X1.8335 Y3.0445 
G01 X1.8345 Y3.0409 
G01 X1.8345 Y2.8591 
G01 X1.8335 Y2.8555 
G01 X1.8316 Y2.8522 
G01 X1.8233 Y2.8438 
G01 X1.8185 Y2.8323 
G01 X1.8185 Y2.7677 
G01 X1.8233 Y2.7562 
G01 X1.8289 Y2.7505 
G01 X1.8316 Y2.7478 
G01 X1.8335 Y2.7445 
G01 X1.8345 Y2.7409 
G01 X1.8345 Y2.5591 
G01 X1.8335 Y2.5555 
G01 X1.8316 Y2.5522 
G01 X1.8314 Y2.5520 
G01 X1.8289 Y2.5495 
G01 X1.8233 Y2.5438 
G01 X1.8185 Y2.5323 
G01 X1.8185 Y2.4677 
G01 X1.8233 Y2.4562 
G01 X1.8289 Y2.4505 
G01 X1.8316 Y2.4478 
G01 X1.8335 Y2.4445 
G01 X1.8345 Y2.4409 
G01 X1.8345 Y2.2591 
G01 X1.8335 Y2.2555 
G01 X1.8316 Y2.2522 
G01 X1.8314 Y2.2520 
G01 X1.8289 Y2.2495 
G01 X1.8233 Y2.2438 
G01 X1.8185 Y2.2323 
G01 X1.8185 Y2.1677 
G01 X1.8233 Y2.1562 
G01 X1.8289 Y2.1505 
G01 X1.8316 Y2.1478 
G01 X1.8335 Y2.1445 
G01 X1.8345 Y2.1409 
G01 X1.8345 Y1.9591 
G01 X1.8335 Y1.9555 
G01 X1.8316 Y1.9522 
G01 X1.8314 Y1.9520 
G01 X1.8289 Y1.9495 
G01 X1.8233 Y1.9438 
G01 X1.8185 Y1.9323 
G01 X1.8185 Y1.8677 
G01 X1.8233 Y1.8562 
G01 X1.8289 Y1.8505 
G01 X1.8316 Y1.8478 
G01 X1.8335 Y1.8445 
G01 X1.8345 Y1.8409 
G01 X1.8345 Y1.6591 
G01 X1.8335 Y1.6555 
G01 X1.8316 Y1.6522 
G01 X1.8233 Y1.6438 
G01 X1.8185 Y1.6323 
G01 X1.8185 Y1.5677 
G01 X1.8233 Y1.5562 
G01 X1.8289 Y1.5505 
G01 X1.8316 Y1.5478 
G01 X1.8335 Y1.5445 
G01 X1.8345 Y1.5409 
G01 X1.8345 Y1.3591 
G01 X1.8335 Y1.3555 
G01 X1.8316 Y1.3522 
G01 X1.8233 Y1.3438 
G01 X1.8185 Y1.3323 
G01 X1.8185 Y1.2677 
G01 X1.8233 Y1.2562 
G01 X1.8316 Y1.2478 
G01 X1.8335 Y1.2445 
G01 X1.8345 Y1.2409 
G01 X1.8345 Y1.0591 
G01 X1.8335 Y1.0555 
G01 X1.8316 Y1.0522 
G01 X1.8314 Y1.0520 
G01 X1.8289 Y1.0495 
G01 X1.8233 Y1.0438 
G01 X1.8185 Y1.0323 
G01 X1.8185 Y0.9677 
G01 X1.8233 Y0.9562 
G01 X1.8322 Y0.9473 
G01 X1.8418 Y0.9433 
G01 X1.8427 Y0.9431 
G01 X1.8435 Y0.9426 
G01 X1.8444 Y0.9422 
G01 X1.8452 Y0.9416 
G01 X1.8460 Y0.9411 
G01 X1.8467 Y0.9405 
G01 X1.8475 Y0.9399 
G01 X1.8480 Y0.9391 
G01 X1.8487 Y0.9384 
G01 X1.8492 Y0.9376 
G01 X1.8498 Y0.9369 
G01 X1.8502 Y0.9360 
G01 X1.8506 Y0.9351 
G01 X1.8509 Y0.9342 
G01 X1.8512 Y0.9333 
G01 X1.8514 Y0.9324 
G01 X1.8516 Y0.9315 
G01 X1.8516 Y0.9305 
G01 X1.8517 Y0.9295 
G01 X1.8516 Y0.9286 
G01 X1.8516 Y0.9276 
G01 X1.8514 Y0.9267 
G01 X1.8512 Y0.9258 
G01 X1.8509 Y0.9249 
G01 X1.8506 Y0.9239 
G01 X1.8502 Y0.9231 
G01 X1.8498 Y0.9222 
G01 X1.8492 Y0.9215 
G01 X1.8487 Y0.9206 
G01 X1.8480 Y0.9200 
G01 X1.8475 Y0.9192 
G01 X1.8467 Y0.9186 
G01 X1.8369 Y0.9088 
G01 X1.8345 Y0.9031 
G01 X1.8345 Y0.7678 
G01 X1.8346 Y0.7663 
G01 X1.8345 Y0.7659 
G01 X1.8345 Y0.7655 
G01 X1.8341 Y0.7641 
G01 X1.8338 Y0.7626 
G01 X1.8336 Y0.7622 
G01 X1.8335 Y0.7618 
G01 X1.8327 Y0.7605 
G01 X1.8321 Y0.7592 
G01 X1.8318 Y0.7589 
G01 X1.8316 Y0.7585 
G01 X1.8305 Y0.7575 
G01 X1.8295 Y0.7563 
G01 X1.8292 Y0.7561 
G01 X1.8289 Y0.7558 
G01 X1.8276 Y0.7551 
G01 X1.8263 Y0.7542 
G01 X1.8259 Y0.7541 
G01 X1.8256 Y0.7539 
G01 X1.8241 Y0.7535 
G01 X1.8227 Y0.7531 
G01 X1.8223 Y0.7530 
G01 X1.8219 Y0.7529 
G01 X1.8204 Y0.7529 
G01 X1.8189 Y0.7529 
G01 X1.8185 Y0.7529 
G01 X1.8181 Y0.7529 
G01 X1.8166 Y0.7533 
G01 X1.8151 Y0.7537 
G01 X1.8148 Y0.7538 
G01 X1.8145 Y0.7539 
G01 X1.8145 Y0.7530 
G01 X1.8194 Y0.7497 
G01 X1.8237 Y0.7454 
G01 X1.8270 Y0.7404 
G01 X1.8293 Y0.7349 
G01 X1.8305 Y0.7290 
G01 X1.8305 Y0.6710 
G01 X1.8293 Y0.6651 
G01 X1.8270 Y0.6596 
G01 X1.8237 Y0.6546 
G01 X1.8194 Y0.6503 
G01 X1.8145 Y0.6470 
G01 X1.8145 Y0.6460 
G01 X1.8162 Y0.6469 
G01 X1.8166 Y0.6472 
G01 X1.8178 Y0.6477 
G01 X1.8190 Y0.6483 
G01 X1.8196 Y0.6485 
G01 X1.8201 Y0.6487 
G01 X1.8215 Y0.6489 
G01 X1.8228 Y0.6491 
G01 X1.8234 Y0.6491 
G01 X1.8239 Y0.6492 
G01 X1.8253 Y0.6490 
G01 X1.8266 Y0.6489 
G01 X1.8271 Y0.6488 
G01 X1.8277 Y0.6487 
G01 X1.8289 Y0.6482 
G01 X1.8302 Y0.6478 
G01 X1.8307 Y0.6474 
G01 X1.8312 Y0.6472 
G01 X1.8323 Y0.6464 
G01 X1.8334 Y0.6457 
G01 X1.8338 Y0.6453 
G01 X1.8343 Y0.6449 
G01 X1.8351 Y0.6438 
G01 X1.8360 Y0.6428 
G01 X1.8362 Y0.6423 
G01 X1.8366 Y0.6419 
G01 X1.8369 Y0.6412 
G01 X1.8419 Y0.6362 
G01 X1.8876 Y0.5905 
G01 X1.8884 Y0.5899 
G01 X1.8890 Y0.5891 
G01 X1.8896 Y0.5884 
G01 X1.8901 Y0.5876 
G01 X1.8907 Y0.5869 
G01 X1.8911 Y0.5860 
G01 X1.8915 Y0.5851 
G01 X1.8918 Y0.5842 
G01 X1.8952 Y0.5759 
G01 X1.9009 Y0.5702 
G01 X1.9084 Y0.5671 
G01 X1.9166 Y0.5671 
G01 X1.9240 Y0.5702 
G01 X1.9298 Y0.5759 
G01 X1.9313 Y0.5797 
G01 X1.9316 Y0.5806 
G01 X1.9321 Y0.5814 
G01 X1.9324 Y0.5823 
G01 X1.9330 Y0.5831 
G01 X1.9335 Y0.5839 
G01 X1.9342 Y0.5846 
G01 X1.9347 Y0.5853 
G01 X1.9355 Y0.5859 
G01 X1.9362 Y0.5866 
G01 X1.9370 Y0.5871 
G01 X1.9378 Y0.5877 
G01 X1.9387 Y0.5880 
G01 X1.9395 Y0.5885 
G01 X1.9404 Y0.5888 
G01 X1.9413 Y0.5891 
G01 X1.9422 Y0.5892 
G01 X1.9432 Y0.5895 
G01 X1.9441 Y0.5895 
G01 X1.9451 Y0.5896 
G01 X1.9460 Y0.5895 
G01 X1.9470 Y0.5895 
G01 X1.9479 Y0.5892 
G01 X1.9489 Y0.5891 
G01 X1.9498 Y0.5888 
G01 X1.9507 Y0.5885 
G01 X1.9515 Y0.5880 
G01 X1.9524 Y0.5877 
G01 X1.9532 Y0.5871 
G01 X1.9540 Y0.5866 
G01 X1.9547 Y0.5859 
G01 X1.9554 Y0.5853 
G01 X1.9560 Y0.5846 
G01 X1.9876 Y0.5530 
G01 X1.9884 Y0.5524 
G01 X1.9890 Y0.5516 
G01 X1.9896 Y0.5509 
G01 X1.9901 Y0.5501 
G01 X1.9907 Y0.5494 
G01 X1.9911 Y0.5485 
G01 X1.9915 Y0.5476 
G01 X1.9918 Y0.5467 
G01 X1.9952 Y0.5384 
G01 X2.0009 Y0.5327 
G01 X2.0084 Y0.5296 
G01 X2.0172 Y0.5296 
G01 X2.0181 Y0.5298 
G01 X2.0190 Y0.5298 
G01 X2.0200 Y0.5300 
G01 X2.0209 Y0.5298 
G01 X2.0219 Y0.5298 
G01 X2.0228 Y0.5296 
G01 X2.0238 Y0.5295 
G01 X2.0247 Y0.5291 
G01 X2.0256 Y0.5289 
G01 X2.0264 Y0.5284 
G01 X2.0273 Y0.5280 
G01 X2.0281 Y0.5274 
G01 X2.0289 Y0.5269 
G01 X2.0296 Y0.5263 
G01 X2.0303 Y0.5257 
G01 X2.0309 Y0.5249 
G01 X2.0316 Y0.5242 
G01 X2.0321 Y0.5234 
G01 X2.0327 Y0.5227 
G01 X2.0330 Y0.5218 
G01 X2.0335 Y0.5209 
G01 X2.0338 Y0.5200 
G01 X2.0341 Y0.5191 
G01 X2.0343 Y0.5182 
G01 X2.0345 Y0.5173 
G01 X2.0345 Y0.5163 
G01 X2.0346 Y0.5153 
G01 X2.0345 Y0.5144 
G01 X2.0345 Y0.4685 
G01 X2.0346 Y0.4675 
G01 X2.0345 Y0.4666 
G01 X2.0345 Y0.4656 
G01 X2.0343 Y0.4647 
G01 X2.0341 Y0.4637 
G01 X2.0338 Y0.4628 
G01 X2.0335 Y0.4619 
G01 X2.0330 Y0.4611 
G01 X2.0327 Y0.4602 
G01 X2.0321 Y0.4594 
G01 X2.0316 Y0.4586 
G01 X2.0309 Y0.4579 
G01 X2.0303 Y0.4572 
G01 X2.0296 Y0.4566 
G01 X2.0289 Y0.4559 
G01 X2.0281 Y0.4554 
G01 X2.0273 Y0.4548 
G01 X2.0264 Y0.4545 
G01 X2.0256 Y0.4540 
G01 X2.0247 Y0.4537 
G01 X2.0238 Y0.4534 
G01 X2.0228 Y0.4533 
G01 X2.0219 Y0.4530 
G01 X2.0210 Y0.4530 
G01 X2.0200 Y0.4529 
G01 X2.0190 Y0.4530 
G01 X2.0181 Y0.4530 
G01 X2.0172 Y0.4533 
G01 X2.0162 Y0.4534 
G01 X2.0153 Y0.4537 
G01 X2.0144 Y0.4540 
G01 X2.0136 Y0.4545 
G01 X2.0063 Y0.4575 
G01 X1.9937 Y0.4575 
G01 X1.9822 Y0.4527 
G01 X1.9733 Y0.4438 
G01 X1.9685 Y0.4323 
G01 X1.9685 Y0.3677 
G01 X1.9733 Y0.3562 
G01 X1.9822 Y0.3473 
G01 X1.9937 Y0.3425 
G01 X2.0063 Y0.3425 
G01 X2.0136 Y0.3455 
G01 X2.0144 Y0.3460 
G01 X2.0153 Y0.3463 
G01 X2.0162 Y0.3466 
G01 X2.0172 Y0.3467 
G01 X2.0181 Y0.3470 
G01 X2.0190 Y0.3470 
G01 X2.0200 Y0.3471 
G01 X2.0210 Y0.3470 
G01 X2.0219 Y0.3470 
G01 X2.0228 Y0.3467 
G01 X2.0238 Y0.3466 
G01 X2.0247 Y0.3463 
G01 X2.0256 Y0.3460 
G01 X2.0264 Y0.3455 
G01 X2.0273 Y0.3452 
G01 X2.0281 Y0.3446 
G01 X2.0289 Y0.3441 
G01 X2.0296 Y0.3434 
G01 X2.0303 Y0.3428 
G01 X2.0309 Y0.3421 
G01 X2.0316 Y0.3414 
G01 X2.0321 Y0.3406 
G01 X2.0327 Y0.3398 
G01 X2.0330 Y0.3389 
G01 X2.0335 Y0.3381 
G01 X2.0338 Y0.3372 
G01 X2.0341 Y0.3363 
G01 X2.0343 Y0.3353 
G01 X2.0345 Y0.3344 
G01 X2.0345 Y0.3334 
G01 X2.0346 Y0.3325 
G01 X2.0345 Y0.3315 
G01 X2.0345 Y0.2344 
G01 X2.0369 Y0.2287 
G01 X2.0419 Y0.2237 
G01 X2.0653 Y0.2003 
G01 X2.0680 Y0.1976 
G01 X2.0699 Y0.1943 
G01 X2.0709 Y0.1906 
G01 X2.0709 Y0.1674 
G01 X2.0744 Y0.1639 
G01 X2.0756 Y0.1636 
G01 X2.0770 Y0.1632 
G01 X2.0801 Y0.1614 
G01 X2.0803 Y0.1613 
G01 X2.0821 Y0.1595 
G01 X2.0830 Y0.1586 
G01 X2.0849 Y0.1553 
G01 X2.0856 Y0.1526 
G01 X2.0859 Y0.1516 
G01 X2.0859 Y0.1497 
G01 X2.0859 Y0.1478 
G01 X2.0853 Y0.1455 
G01 X2.0849 Y0.1441 
G01 X2.0831 Y0.1410 
G01 X2.0830 Y0.1408 
G01 X2.0812 Y0.1390 
G01 X2.0803 Y0.1381 
G01 X2.0770 Y0.1362 
G01 X2.0743 Y0.1354 
G01 X2.0730 Y0.1347 
G01 X2.0720 Y0.1337 
G01 X2.0713 Y0.1324 
G01 X2.0709 Y0.1310 
G01 X2.0709 Y0.1291 
G01 X2.0719 Y0.1291 
G01 X2.0719 Y0.1312 
G01 X2.0726 Y0.1329 
G01 X2.0738 Y0.1341 
G01 X2.0755 Y0.1348 
G01 X2.1245 Y0.1348 
G01 X2.1262 Y0.1341 
G01 X2.1274 Y0.1329 
G01 X2.1281 Y0.1312 
G01 X2.1281 Y0.1291 
G01 X2.1291 Y0.1291 
G01 X2.1291 Y0.1310 
G01 X2.1287 Y0.1324 
G01 X2.1280 Y0.1337 
G01 X2.1270 Y0.1347 
G01 X2.1257 Y0.1354 
G01 X2.1230 Y0.1362 
G01 X2.1197 Y0.1381 
G01 X2.1188 Y0.1390 
G01 X2.1170 Y0.1408 
G01 X2.1169 Y0.1410 
G01 X2.1151 Y0.1441 
G01 X2.1147 Y0.1456 
G01 X2.1141 Y0.1478 
G01 X2.1141 Y0.1497 
G01 X2.1141 Y0.1516 
G01 X2.1144 Y0.1526 
G01 X2.1151 Y0.1553 
G01 X2.1170 Y0.1586 
G01 X2.1179 Y0.1595 
G01 X2.1197 Y0.1613 
G01 X2.1200 Y0.1614 
G01 X2.1230 Y0.1632 
G01 X2.1245 Y0.1636 
G01 X2.1256 Y0.1639 
G01 X2.1281 Y0.1664 
G01 X2.1308 Y0.1691 
G01 X2.1341 Y0.1710 
G01 X2.1378 Y0.1720 
G01 X2.1865 Y0.1720 
G01 X2.1901 Y0.1710 
G01 X2.1934 Y0.1691 
G01 X2.1952 Y0.1674 
G01 X2.2036 Y0.1639 
G01 X2.2042 Y0.1638 
G01 X2.2054 Y0.1631 
G01 X2.2066 Y0.1626 
G01 X2.2071 Y0.1623 
G01 X2.2076 Y0.1620 
G01 X2.2086 Y0.1611 
G01 X2.2096 Y0.1603 
G01 X2.2100 Y0.1599 
G01 X2.2104 Y0.1595 
G01 X2.2111 Y0.1583 
G01 X2.2120 Y0.1573 
G01 X2.2122 Y0.1568 
G01 X2.2125 Y0.1563 
G01 X2.2129 Y0.1550 
G01 X2.2134 Y0.1538 
G01 X2.2135 Y0.1532 
G01 X2.2137 Y0.1526 
G01 X2.2137 Y0.1513 
G01 X2.2139 Y0.1500 
G01 X2.2138 Y0.1494 
G01 X2.2139 Y0.1488 
G01 X2.2136 Y0.1475 
G01 X2.2134 Y0.1462 
G01 X2.2132 Y0.1457 
G01 X2.2131 Y0.1451 
G01 X2.2125 Y0.1439 
G01 X2.2120 Y0.1427 
G01 X2.2116 Y0.1422 
G01 X2.2113 Y0.1417 
G01 X2.2104 Y0.1407 
G01 X2.2096 Y0.1396 
G01 X2.2092 Y0.1393 
G01 X2.2088 Y0.1389 
G01 X2.2077 Y0.1381 
G01 X2.2066 Y0.1373 
G01 X2.2061 Y0.1371 
G01 X2.2056 Y0.1368 
G01 X2.2043 Y0.1364 
G01 X2.2031 Y0.1358 
G01 X2.2025 Y0.1358 
G01 X2.2022 Y0.1357 
G01 X2.1968 Y0.1329 
G01 X2.1919 Y0.1294 
G01 X2.1876 Y0.1251 
G01 X2.1841 Y0.1202 
G01 X2.1817 Y0.1155 
G01 X2.1828 Y0.1155 
G01 X2.1838 Y0.1178 
G01 X2.1879 Y0.1239 
G01 X2.1931 Y0.1291 
G01 X2.1992 Y0.1332 
G01 X2.2061 Y0.1361 
G01 X2.2133 Y0.1375 
G01 X2.2867 Y0.1375 
G01 X2.2939 Y0.1361 
G01 X2.3008 Y0.1332 
G01 X2.3069 Y0.1291 
G01 X2.3121 Y0.1239 
G01 X2.3162 Y0.1178 
G01 X2.3172 Y0.1155 
G01 X2.3183 Y0.1155 
G01 X2.3159 Y0.1202 
G01 X2.3124 Y0.1251 
G01 X2.3081 Y0.1294 
G01 X2.3032 Y0.1329 
G01 X2.2978 Y0.1357 
G01 X2.2975 Y0.1358 
G01 X2.2969 Y0.1358 
G01 X2.2957 Y0.1364 
G01 X2.2944 Y0.1368 
G01 X2.2939 Y0.1371 
G01 X2.2934 Y0.1373 
G01 X2.2923 Y0.1381 
G01 X2.2912 Y0.1389 
G01 X2.2908 Y0.1393 
G01 X2.2904 Y0.1396 
G01 X2.2896 Y0.1407 
G01 X2.2887 Y0.1417 
G01 X2.2884 Y0.1422 
G01 X2.2880 Y0.1427 
G01 X2.2875 Y0.1439 
G01 X2.2869 Y0.1451 
G01 X2.2868 Y0.1457 
G01 X2.2866 Y0.1462 
G01 X2.2864 Y0.1475 
G01 X2.2861 Y0.1488 
G01 X2.2862 Y0.1494 
G01 X2.2861 Y0.1500 
G01 X2.2863 Y0.1513 
G01 X2.2863 Y0.1526 
G01 X2.2865 Y0.1532 
G01 X2.2866 Y0.1538 
G01 X2.2871 Y0.1550 
G01 X2.2875 Y0.1563 
G01 X2.2878 Y0.1568 
G01 X2.2880 Y0.1573 
G01 X2.2889 Y0.1583 
G01 X2.2896 Y0.1595 
G01 X2.2900 Y0.1599 
G01 X2.2904 Y0.1603 
G01 X2.2914 Y0.1611 
G01 X2.2924 Y0.1620 
G01 X2.2929 Y0.1623 
G01 X2.2934 Y0.1626 
G01 X2.2946 Y0.1631 
G01 X2.2958 Y0.1638 
G01 X2.2964 Y0.1639 
G01 X2.3048 Y0.1674 
G01 X2.3156 Y0.1782 
G01 X2.3215 Y0.1923 
G01 X2.3215 Y0.2077 
G01 X2.3156 Y0.2218 
G01 X2.3048 Y0.2326 
G01 X2.2907 Y0.2385 
G01 X2.2093 Y0.2385 
G01 X2.1952 Y0.2326 
G01 X2.1844 Y0.2218 
G01 X2.1806 Y0.2128 
G01 X2.1804 Y0.2119 
G01 X2.1799 Y0.2111 
G01 X2.1795 Y0.2102 
G01 X2.1790 Y0.2094 
G01 X2.1785 Y0.2086 
G01 X2.1778 Y0.2079 
G01 X2.1772 Y0.2072 
G01 X2.1765 Y0.2066 
G01 X2.1758 Y0.2059 
G01 X2.1750 Y0.2054 
G01 X2.1742 Y0.2048 
G01 X2.1733 Y0.2045 
G01 X2.1725 Y0.2040 
G01 X2.1716 Y0.2037 
G01 X2.1707 Y0.2034 
G01 X2.1697 Y0.2032 
G01 X2.1688 Y0.2030 
G01 X2.1678 Y0.2030 
G01 X2.1669 Y0.2029 
G01 X2.1659 Y0.2030 
G01 X2.1337 Y0.2030 
G01 X2.1300 Y0.2040 
G01 X2.1275 Y0.2054 
G01 X2.1267 Y0.2059 
G01 X2.1259 Y0.2067 
G01 X2.1068 Y0.2067 
G01 X2.1031 Y0.2077 
G01 X2.0998 Y0.2096 
G01 X2.0711 Y0.2383 
G01 X2.0684 Y0.2410 
G01 X2.0665 Y0.2443 
G01 X2.0655 Y0.2480 
G01 X2.0655 Y0.3315 
G01 X2.0654 Y0.3325 
G01 X2.0655 Y0.3334 
G01 X2.0655 Y0.3344 
G01 X2.0657 Y0.3353 
G01 X2.0659 Y0.3363 
G01 X2.0662 Y0.3372 
G01 X2.0665 Y0.3381 
G01 X2.0670 Y0.3389 
G01 X2.0673 Y0.3398 
G01 X2.0679 Y0.3406 
G01 X2.0684 Y0.3414 
G01 X2.0691 Y0.3421 
G01 X2.0697 Y0.3428 
G01 X2.0704 Y0.3434 
G01 X2.0711 Y0.3441 
G01 X2.0719 Y0.3446 
G01 X2.0727 Y0.3452 
G01 X2.0736 Y0.3455 
G01 X2.0744 Y0.3460 
G01 X2.0753 Y0.3463 
G01 X2.0762 Y0.3466 
G01 X2.0772 Y0.3467 
G01 X2.0781 Y0.3470 
G01 X2.0790 Y0.3470 
G01 X2.0800 Y0.3471 
G01 X2.0810 Y0.3470 
G01 X2.0819 Y0.3470 
G01 X2.0828 Y0.3467 
G01 X2.0838 Y0.3466 
G01 X2.0847 Y0.3463 
G01 X2.0856 Y0.3460 
G01 X2.0864 Y0.3455 
G01 X2.0937 Y0.3425 
G01 X2.1063 Y0.3425 
G01 X2.1178 Y0.3473 
G01 X2.1267 Y0.3562 
G01 X2.1315 Y0.3677 
G01 X2.1315 Y0.4055 
G01 X2.1318 Y0.4064 
G01 X2.1325 Y0.4092 
G01 X2.1344 Y0.4125 
G01 X2.1424 Y0.4205 
G01 X2.1451 Y0.4232 
G01 X2.1484 Y0.4251 
G01 X2.1521 Y0.4261 
G01 X2.1559 Y0.4261 
G01 X2.1569 Y0.4258 
G01 X2.1596 Y0.4251 
G01 X2.1629 Y0.4232 
G01 X2.1656 Y0.4205 
G01 X2.1675 Y0.4172 
G01 X2.1685 Y0.4135 
G01 X2.1685 Y0.3677 
G01 X2.1733 Y0.3562 
G01 X2.1822 Y0.3473 
G01 X2.1937 Y0.3425 
G01 X2.2063 Y0.3425 
G01 X2.2178 Y0.3473 
G01 X2.2267 Y0.3562 
G01 X2.2315 Y0.3677 
G01 X2.2315 Y0.4055 
G01 X2.2318 Y0.4064 
G01 X2.2325 Y0.4092 
G01 X2.2344 Y0.4125 
G01 X2.2424 Y0.4205 
G01 X2.2451 Y0.4232 
G01 X2.2484 Y0.4251 
G01 X2.2521 Y0.4261 
G01 X2.2559 Y0.4261 
G01 X2.2569 Y0.4258 
G01 X2.2596 Y0.4251 
G01 X2.2629 Y0.4232 
G01 X2.2656 Y0.4205 
G01 X2.2675 Y0.4172 
G01 X2.2685 Y0.4135 
G01 X2.2685 Y0.3677 
G01 X2.2733 Y0.3562 
G01 X2.2822 Y0.3473 
G01 X2.2937 Y0.3425 
G01 X2.3063 Y0.3425 
G01 X2.3178 Y0.3473 
G01 X2.3267 Y0.3562 
G01 X2.3315 Y0.3677 
G01 X2.3315 Y0.4055 
G01 X2.3325 Y0.4092 
G01 X2.3344 Y0.4125 
G01 X2.3424 Y0.4205 
G01 X2.3451 Y0.4232 
G01 X2.3484 Y0.4251 
G01 X2.3521 Y0.4261 
G01 X2.3559 Y0.4261 
G01 X2.3596 Y0.4251 
G01 X2.3629 Y0.4232 
G01 X2.3656 Y0.4205 
G01 X2.3675 Y0.4172 
G01 X2.3685 Y0.4135 
G01 X2.3685 Y0.3677 
G01 X2.3733 Y0.3562 
G01 X2.3822 Y0.3473 
G01 X2.3937 Y0.3425 
G01 X2.4063 Y0.3425 
G01 X2.4178 Y0.3473 
G01 X2.4267 Y0.3562 
G01 X2.4315 Y0.3677 
G01 X2.4315 Y0.4055 
G01 X2.4325 Y0.4092 
G01 X2.4344 Y0.4125 
G01 X2.4451 Y0.4232 
G01 X2.4484 Y0.4251 
G01 X2.4521 Y0.4261 
G01 X2.4559 Y0.4261 
G01 X2.4596 Y0.4251 
G01 X2.4629 Y0.4232 
G01 X2.4656 Y0.4205 
G01 X2.4675 Y0.4172 
G01 X2.4685 Y0.4135 
G01 X2.4685 Y0.3677 
G01 X2.4733 Y0.3562 
G01 X2.4822 Y0.3473 
G01 X2.4937 Y0.3425 
G01 X2.5063 Y0.3425 
G01 X2.5178 Y0.3473 
G01 X2.5267 Y0.3562 
G01 X2.5315 Y0.3677 
G01 X2.5315 Y0.4323 
G01 X2.5267 Y0.4438 
G01 X2.5178 Y0.4527 
G01 X2.5063 Y0.4575 
G01 X2.4937 Y0.4575 
G01 X2.4864 Y0.4545 
G01 X2.4856 Y0.4540 
G01 X2.4847 Y0.4537 
G01 X2.4838 Y0.4534 
G01 X2.4828 Y0.4533 
G01 X2.4819 Y0.4530 
G01 X2.4810 Y0.4530 
G01 X2.4800 Y0.4529 
G01 X2.4790 Y0.4530 
G01 X2.4781 Y0.4530 
G01 X2.4772 Y0.4533 
G01 X2.4762 Y0.4534 
G01 X2.4753 Y0.4537 
G01 X2.4744 Y0.4540 
G01 X2.4736 Y0.4545 
G01 X2.4727 Y0.4548 
G01 X2.4719 Y0.4554 
G01 X2.4711 Y0.4559 
G01 X2.4704 Y0.4566 
G01 X2.4697 Y0.4572 
G01 X2.4691 Y0.4579 
G01 X2.4684 Y0.4586 
G01 X2.4679 Y0.4594 
G01 X2.4673 Y0.4602 
G01 X2.4670 Y0.4611 
G01 X2.4665 Y0.4619 
G01 X2.4662 Y0.4628 
G01 X2.4659 Y0.4637 
G01 X2.4657 Y0.4647 
G01 X2.4655 Y0.4656 
G01 X2.4655 Y0.4666 
G01 X2.4654 Y0.4675 
G01 X2.4655 Y0.4685 
G01 X2.4655 Y0.6315 
G01 X2.4654 Y0.6325 
G01 X2.4655 Y0.6334 
G01 X2.4655 Y0.6344 
G01 X2.4657 Y0.6353 
G01 X2.4659 Y0.6363 
G01 X2.4662 Y0.6372 
G01 X2.4665 Y0.6381 
G01 X2.4670 Y0.6389 
G01 X2.4673 Y0.6398 
G01 X2.4679 Y0.6406 
G01 X2.4684 Y0.6414 
G01 X2.4691 Y0.6421 
G01 X2.4697 Y0.6428 
G01 X2.4704 Y0.6434 
G01 X2.4711 Y0.6441 
G01 X2.4719 Y0.6446 
G01 X2.4727 Y0.6452 
G01 X2.4736 Y0.6455 
G01 X2.4744 Y0.6460 
G01 X2.4753 Y0.6463 
G01 X2.4762 Y0.6466 
G01 X2.4772 Y0.6467 
G01 X2.4781 Y0.6470 
G01 X2.4790 Y0.6470 
G01 X2.4800 Y0.6471 
G01 X2.4810 Y0.6470 
G01 X2.4819 Y0.6470 
G01 X2.4828 Y0.6467 
G01 X2.4838 Y0.6466 
G01 X2.4847 Y0.6463 
G01 X2.4856 Y0.6460 
G01 X2.4864 Y0.6455 
G01 X2.4937 Y0.6425 
G01 X2.5063 Y0.6425 
G01 X2.5178 Y0.6473 
G01 X2.5267 Y0.6562 
G01 X2.5315 Y0.6677 
G01 X2.5315 Y0.7323 
G01 X2.5267 Y0.7438 
G01 X2.5178 Y0.7527 
G01 X2.5063 Y0.7575 
G01 X2.4937 Y0.7575 
G01 X2.4864 Y0.7545 
G01 X2.4856 Y0.7540 
G01 X2.4847 Y0.7537 
G01 X2.4838 Y0.7534 
G01 X2.4828 Y0.7533 
G01 X2.4819 Y0.7530 
G01 X2.4810 Y0.7530 
G01 X2.4800 Y0.7529 
G01 X2.4790 Y0.7530 
G01 X2.4781 Y0.7530 
G01 X2.4772 Y0.7533 
G01 X2.4762 Y0.7534 
G01 X2.4753 Y0.7537 
G01 X2.4744 Y0.7540 
G01 X2.4736 Y0.7545 
G01 X2.4727 Y0.7548 
G01 X2.4719 Y0.7554 
G01 X2.4711 Y0.7559 
G01 X2.4704 Y0.7566 
G01 X2.4697 Y0.7572 
G01 X2.4691 Y0.7579 
G01 X2.4684 Y0.7586 
G01 X2.4679 Y0.7594 
G01 X2.4673 Y0.7602 
G01 X2.4670 Y0.7611 
G01 X2.4665 Y0.7619 
G01 X2.4662 Y0.7628 
G01 X2.4659 Y0.7637 
G01 X2.4657 Y0.7647 
G01 X2.4655 Y0.7656 
G01 X2.4655 Y0.7666 
G01 X2.4654 Y0.7675 
G01 X2.4655 Y0.7685 
G01 X2.4655 Y0.8295 
G01 X2.4665 Y0.8332 
G01 X2.4684 Y0.8365 
G01 X2.4711 Y0.8392 
G01 X2.4744 Y0.8411 
G01 X2.4781 Y0.8421 
G01 X2.4819 Y0.8421 
G01 X2.4856 Y0.8411 
G01 X2.4889 Y0.8392 
G01 X2.5690 Y0.7591 
G01 X2.5697 Y0.7585 
G01 X2.5703 Y0.7578 
G01 X2.5710 Y0.7571 
G01 X2.5715 Y0.7562 
G01 X2.5721 Y0.7555 
G01 X2.5724 Y0.7546 
G01 X2.5729 Y0.7538 
G01 X2.5732 Y0.7528 
G01 X2.5735 Y0.7520 
G01 X2.5736 Y0.7510 
G01 X2.5739 Y0.7501 
G01 X2.5739 Y0.7491 
G01 X2.5740 Y0.7482 
G01 X2.5739 Y0.7472 
G01 X2.5739 Y0.7463 
G01 X2.5736 Y0.7453 
G01 X2.5735 Y0.7444 
G01 X2.5732 Y0.7435 
G01 X2.5729 Y0.7426 
G01 X2.5724 Y0.7418 
G01 X2.5685 Y0.7323 
G01 X2.5685 Y0.6677 
G01 X2.5733 Y0.6562 
G01 X2.5822 Y0.6473 
G01 X2.5937 Y0.6425 
G01 X2.6063 Y0.6425 
G01 X2.6136 Y0.6455 
G01 X2.6144 Y0.6460 
G01 X2.6153 Y0.6463 
G01 X2.6162 Y0.6466 
G01 X2.6172 Y0.6467 
G01 X2.6181 Y0.6470 
G01 X2.6190 Y0.6470 
G01 X2.6200 Y0.6471 
G01 X2.6210 Y0.6470 
G01 X2.6219 Y0.6470 
G01 X2.6228 Y0.6467 
G01 X2.6238 Y0.6466 
G01 X2.6247 Y0.6463 
G01 X2.6256 Y0.6460 
G01 X2.6264 Y0.6455 
G01 X2.6273 Y0.6452 
G01 X2.6281 Y0.6446 
G01 X2.6289 Y0.6441 
G01 X2.6296 Y0.6434 
G01 X2.6303 Y0.6428 
G01 X2.6309 Y0.6421 
G01 X2.6316 Y0.6414 
G01 X2.6321 Y0.6406 
G01 X2.6327 Y0.6398 
G01 X2.6330 Y0.6389 
G01 X2.6335 Y0.6381 
G01 X2.6338 Y0.6372 
G01 X2.6341 Y0.6363 
G01 X2.6343 Y0.6353 
G01 X2.6345 Y0.6344 
G01 X2.6345 Y0.6334 
G01 X2.6346 Y0.6325 
G01 X2.6345 Y0.6315 
G01 X2.6345 Y0.4678 
G01 X2.6346 Y0.4663 
G01 X2.6345 Y0.4659 
G01 X2.6345 Y0.4655 
G01 X2.6341 Y0.4640 
G01 X2.6338 Y0.4626 
G01 X2.6336 Y0.4622 
G01 X2.6335 Y0.4618 
G01 X2.6327 Y0.4605 
G01 X2.6321 Y0.4592 
G01 X2.6318 Y0.4589 
G01 X2.6316 Y0.4585 
G01 X2.6305 Y0.4575 
G01 X2.6295 Y0.4563 
G01 X2.6292 Y0.4561 
G01 X2.6289 Y0.4558 
G01 X2.6276 Y0.4551 
G01 X2.6263 Y0.4542 
G01 X2.6259 Y0.4541 
G01 X2.6256 Y0.4539 
G01 X2.6241 Y0.4535 
G01 X2.6227 Y0.4531 
G01 X2.6223 Y0.4530 
G01 X2.6219 Y0.4529 
G01 X2.6204 Y0.4529 
G01 X2.6189 Y0.4529 
G01 X2.6185 Y0.4529 
G01 X2.6181 Y0.4529 
G01 X2.6166 Y0.4533 
G01 X2.6151 Y0.4537 
G01 X2.6148 Y0.4538 
G01 X2.6145 Y0.4539 
G01 X2.6145 Y0.4530 
G01 X2.6194 Y0.4497 
G01 X2.6237 Y0.4454 
G01 X2.6270 Y0.4404 
G01 X2.6293 Y0.4349 
G01 X2.6305 Y0.4290 
G01 X2.6305 Y0.3710 
G01 X2.6293 Y0.3651 
G01 X2.6270 Y0.3596 
G01 X2.6237 Y0.3546 
G01 X2.6194 Y0.3503 
G01 X2.6145 Y0.3470 
G01 X2.6145 Y0.3461 
G01 X2.6148 Y0.3462 
G01 X2.6151 Y0.3463 
G01 X2.6166 Y0.3467 
G01 X2.6181 Y0.3471 
G01 X2.6185 Y0.3471 
G01 X2.6189 Y0.3471 
G01 X2.6204 Y0.3471 
G01 X2.6219 Y0.3471 
G01 X2.6223 Y0.3470 
G01 X2.6227 Y0.3469 
G01 X2.6241 Y0.3465 
G01 X2.6256 Y0.3461 
G01 X2.6259 Y0.3459 
G01 X2.6263 Y0.3458 
G01 X2.6276 Y0.3449 
G01 X2.6289 Y0.3442 
G01 X2.6292 Y0.3439 
G01 X2.6295 Y0.3437 
G01 X2.6305 Y0.3425 
G01 X2.6316 Y0.3415 
G01 X2.6318 Y0.3411 
G01 X2.6321 Y0.3408 
G01 X2.6327 Y0.3395 
G01 X2.6335 Y0.3382 
G01 X2.6336 Y0.3378 
G01 X2.6338 Y0.3374 
G01 X2.6341 Y0.3359 
G01 X2.6345 Y0.3345 
G01 X2.6345 Y0.3341 
G01 X2.6346 Y0.3337 
G01 X2.6345 Y0.3322 
G01 X2.6345 Y0.3094 
G01 X2.6369 Y0.3037 
G01 X2.6412 Y0.2994 
G01 X2.6469 Y0.2970 
G01 X2.9406 Y0.2970 
G01 X2.9463 Y0.2994 
G01 X2.9513 Y0.3044 
G01 X3.0131 Y0.3662 
G01 X3.0155 Y0.3719 
G01 X3.0155 Y0.4531 
G01 X3.0131 Y0.4588 
G01 X3.0081 Y0.4638 
G01 X2.9911 Y0.4808 
G01 X2.9884 Y0.4835 
G01 X2.9865 Y0.4868 
G01 X2.9855 Y0.4905 
G01 X2.9855 Y0.5147 
G01 X2.9647 Y0.5355 
G01 X2.9439 Y0.5355 
G01 X2.9435 Y0.5354 
G01 X2.9420 Y0.5355 
G01 X2.9405 Y0.5355 
G01 X2.9401 Y0.5356 
G01 X2.9397 Y0.5356 
G01 X2.9383 Y0.5361 
G01 X2.9368 Y0.5365 
G01 X2.9364 Y0.5367 
G01 X2.9360 Y0.5368 
G01 X2.9348 Y0.5377 
G01 X2.9335 Y0.5384 
G01 X2.9332 Y0.5387 
G01 X2.9328 Y0.5390 
G01 X2.9319 Y0.5401 
G01 X2.9308 Y0.5411 
G01 X2.9306 Y0.5415 
G01 X2.9303 Y0.5418 
G01 X2.9297 Y0.5431 
G01 X2.9289 Y0.5444 
G01 X2.9288 Y0.5448 
G01 X2.9286 Y0.5452 
G01 X2.9283 Y0.5467 
G01 X2.9279 Y0.5481 
G01 X2.9279 Y0.5485 
G01 X2.9278 Y0.5490 
G01 X2.9279 Y0.5504 
G01 X2.9279 Y0.5519 
G01 X2.9280 Y0.5523 
G01 X2.9281 Y0.5528 
G01 X2.9285 Y0.5542 
G01 X2.9289 Y0.5556 
G01 X2.9291 Y0.5560 
G01 X2.9293 Y0.5564 
G01 X2.9301 Y0.5576 
G01 X2.9308 Y0.5589 
G01 X2.9311 Y0.5592 
G01 X2.9314 Y0.5596 
G01 X2.9325 Y0.5606 
G01 X2.9335 Y0.5616 
G01 X2.9339 Y0.5618 
G01 X2.9342 Y0.5621 
G01 X2.9356 Y0.5628 
G01 X2.9368 Y0.5635 
G01 X2.9373 Y0.5636 
G01 X2.9376 Y0.5638 
G01 X2.9391 Y0.5641 
G01 X2.9405 Y0.5645 
G01 X2.9410 Y0.5645 
G01 X2.9414 Y0.5646 
G01 X2.9429 Y0.5645 
G01 X2.9647 Y0.5645 
G01 X2.9855 Y0.5853 
G01 X2.9855 Y0.6147 
G01 X2.9647 Y0.6355 
G01 X2.9353 Y0.6355 
G01 X2.9145 Y0.6147 
G01 X2.9145 Y0.5929 
G01 X2.9146 Y0.5914 
G01 X2.9145 Y0.5910 
G01 X2.9145 Y0.5905 
G01 X2.9141 Y0.5891 
G01 X2.9138 Y0.5876 
G01 X2.9136 Y0.5873 
G01 X2.9135 Y0.5868 
G01 X2.9128 Y0.5856 
G01 X2.9121 Y0.5842 
G01 X2.9118 Y0.5839 
G01 X2.9116 Y0.5835 
G01 X2.9106 Y0.5825 
G01 X2.9096 Y0.5814 
G01 X2.9092 Y0.5811 
G01 X2.9089 Y0.5808 
G01 X2.9076 Y0.5801 
G01 X2.9064 Y0.5793 
G01 X2.9060 Y0.5791 
G01 X2.9056 Y0.5789 
G01 X2.9042 Y0.5785 
G01 X2.9028 Y0.5781 
G01 X2.9023 Y0.5780 
G01 X2.9019 Y0.5779 
G01 X2.9004 Y0.5779 
G01 X2.8990 Y0.5778 
G01 X2.8985 Y0.5779 
G01 X2.8981 Y0.5779 
G01 X2.8967 Y0.5783 
G01 X2.8952 Y0.5786 
G01 X2.8948 Y0.5788 
G01 X2.8944 Y0.5789 
G01 X2.8931 Y0.5797 
G01 X2.8918 Y0.5803 
G01 X2.8915 Y0.5806 
G01 X2.8911 Y0.5808 
G01 X2.8901 Y0.5819 
G01 X2.8890 Y0.5828 
G01 X2.8887 Y0.5832 
G01 X2.8884 Y0.5835 
G01 X2.8877 Y0.5848 
G01 X2.8868 Y0.5860 
G01 X2.8867 Y0.5864 
G01 X2.8865 Y0.5868 
G01 X2.8861 Y0.5883 
G01 X2.8856 Y0.5897 
G01 X2.8856 Y0.5901 
G01 X2.8855 Y0.5905 
G01 X2.8855 Y0.5920 
G01 X2.8854 Y0.5935 
G01 X2.8855 Y0.5939 
G01 X2.8855 Y0.6147 
G01 X2.8711 Y0.6291 
G01 X2.8684 Y0.6318 
G01 X2.8665 Y0.6351 
G01 X2.8655 Y0.6388 
G01 X2.8655 Y0.6612 
G01 X2.8665 Y0.6649 
G01 X2.8684 Y0.6682 
G01 X2.8855 Y0.6853 
G01 X2.8855 Y0.7147 
G01 X2.8647 Y0.7355 
G01 X2.8353 Y0.7355 
G01 X2.8291 Y0.7293 
G01 X2.8264 Y0.7266 
G01 X2.8231 Y0.7247 
G01 X2.8194 Y0.7237 
G01 X2.8156 Y0.7237 
G01 X2.8148 Y0.7239 
G01 X2.8119 Y0.7247 
G01 X2.8086 Y0.7266 
G01 X2.8059 Y0.7293 
G01 X2.8040 Y0.7326 
G01 X2.8030 Y0.7363 
G01 X2.8030 Y0.7519 
G01 X2.8029 Y0.7528 
G01 X2.8030 Y0.7538 
G01 X2.8030 Y0.7548 
G01 X2.8032 Y0.7557 
G01 X2.8034 Y0.7566 
G01 X2.8037 Y0.7575 
G01 X2.8040 Y0.7584 
G01 X2.8045 Y0.7593 
G01 X2.8048 Y0.7602 
G01 X2.8054 Y0.7609 
G01 X2.8059 Y0.7617 
G01 X2.8066 Y0.7624 
G01 X2.8072 Y0.7632 
G01 X2.8079 Y0.7638 
G01 X2.8086 Y0.7644 
G01 X2.8094 Y0.7649 
G01 X2.8102 Y0.7655 
G01 X2.8111 Y0.7659 
G01 X2.8119 Y0.7664 
G01 X2.8128 Y0.7666 
G01 X2.8137 Y0.7670 
G01 X2.8147 Y0.7671 
G01 X2.8156 Y0.7673 
G01 X2.8166 Y0.7673 
G01 X2.8175 Y0.7675 
G01 X2.8185 Y0.7673 
G01 X2.8194 Y0.7673 
G01 X2.8203 Y0.7671 
G01 X2.8291 Y0.7671 
G01 X2.8365 Y0.7702 
G01 X2.8423 Y0.7759 
G01 X2.8454 Y0.7834 
G01 X2.8454 Y0.7916 
G01 X2.8420 Y0.7998 
G01 X2.8415 Y0.8006 
G01 X2.8412 Y0.8016 
G01 X2.8409 Y0.8025 
G01 X2.8407 Y0.8034 
G01 X2.8405 Y0.8043 
G01 X2.8405 Y0.8053 
G01 X2.8404 Y0.8062 
G01 X2.8405 Y0.8072 
G01 X2.8405 Y0.8145 
G01 X2.8415 Y0.8182 
G01 X2.8434 Y0.8215 
G01 X2.9065 Y0.8846 
G01 X2.9071 Y0.8853 
G01 X2.9078 Y0.8859 
G01 X2.9085 Y0.8866 
G01 X2.9093 Y0.8871 
G01 X2.9101 Y0.8876 
G01 X2.9110 Y0.8880 
G01 X2.9118 Y0.8885 
G01 X2.9127 Y0.8887 
G01 X2.9136 Y0.8891 
G01 X2.9146 Y0.8892 
G01 X2.9155 Y0.8895 
G01 X2.9165 Y0.8895 
G01 X2.9174 Y0.8896 
G01 X2.9184 Y0.8895 
G01 X2.9193 Y0.8895 
G01 X2.9202 Y0.8892 
G01 X2.9212 Y0.8891 
G01 X2.9221 Y0.8887 
G01 X2.9230 Y0.8885 
G01 X2.9238 Y0.8880 
G01 X2.9247 Y0.8876 
G01 X2.9255 Y0.8871 
G01 X2.9263 Y0.8866 
G01 X2.9270 Y0.8859 
G01 X2.9277 Y0.8853 
G01 X2.9283 Y0.8846 
G01 X2.9290 Y0.8839 
G01 X2.9295 Y0.8831 
G01 X2.9301 Y0.8823 
G01 X2.9304 Y0.8814 
G01 X2.9309 Y0.8806 
G01 X2.9312 Y0.8796 
G01 X2.9315 Y0.8788 
G01 X2.9317 Y0.8778 
G01 X2.9319 Y0.8769 
G01 X2.9319 Y0.8759 
G01 X2.9320 Y0.8750 
G01 X2.9319 Y0.8740 
G01 X2.9319 Y0.8731 
G01 X2.9317 Y0.8721 
G01 X2.9315 Y0.8712 
G01 X2.9312 Y0.8703 
G01 X2.9309 Y0.8694 
G01 X2.9304 Y0.8686 
G01 X2.9296 Y0.8666 
G01 X2.9296 Y0.8584 
G01 X2.9327 Y0.8509 
G01 X2.9384 Y0.8452 
G01 X2.9459 Y0.8421 
G01 X2.9541 Y0.8421 
G01 X2.9615 Y0.8452 
G01 X2.9673 Y0.8509 
G01 X2.9707 Y0.8592 
G01 X2.9710 Y0.8601 
G01 X2.9714 Y0.8610 
G01 X2.9718 Y0.8619 
G01 X2.9724 Y0.8626 
G01 X2.9729 Y0.8634 
G01 X2.9735 Y0.8641 
G01 X2.9741 Y0.8649 
G01 X2.9749 Y0.8655 
G01 X3.0084 Y0.8990 
G01 X3.0111 Y0.9017 
G01 X3.0144 Y0.9036 
G01 X3.0181 Y0.9046 
G01 X3.0219 Y0.9046 
G01 X3.0256 Y0.9036 
G01 X3.0289 Y0.9017 
G01 X3.0316 Y0.8990 
G01 X3.0335 Y0.8957 
G01 X3.0345 Y0.8920 
G01 X3.0345 Y0.8105 
G01 X3.0335 Y0.8068 
G01 X3.0316 Y0.8035 
G01 X3.0289 Y0.8008 
G01 X2.9692 Y0.7411 
G01 X2.9665 Y0.7384 
G01 X2.9632 Y0.7365 
G01 X2.9595 Y0.7355 
G01 X2.9353 Y0.7355 
G01 X2.9145 Y0.7147 
G01 X2.9145 Y0.6853 
G01 X2.9353 Y0.6645 
G01 X2.9647 Y0.6645 
G01 X2.9855 Y0.6853 
G01 X2.9855 Y0.7095 
G01 X2.9865 Y0.7132 
G01 X2.9884 Y0.7165 
G01 X3.0554 Y0.7835 
G01 X3.0631 Y0.7912 
G01 X3.0655 Y0.7969 
G01 X3.0655 Y2.8406 
G01 X3.0631 Y2.8463 
G01 X2.9915 Y2.9179 
G01 X2.9838 Y2.9256 
G01 X2.9781 Y2.9280 
G01 X2.7844 Y2.9280 
G01 X2.7787 Y2.9256 
G01 X2.7744 Y2.9213 
G01 X2.7720 Y2.9156 
G01 X2.7720 Y2.5094 
G01 X2.7744 Y2.5037 
G01 X2.8035 Y2.4746 
G01 X2.8043 Y2.4740 
G01 X2.8049 Y2.4732 
G01 X2.8056 Y2.4725 
G01 X2.8060 Y2.4717 
G01 X2.8066 Y2.4709 
G01 X2.8070 Y2.4701 
G01 X2.8075 Y2.4692 
G01 X2.8077 Y2.4683 
G01 X2.8081 Y2.4674 
G01 X2.8082 Y2.4665 
G01 X2.8084 Y2.4655 
G01 X2.8084 Y2.4646 
G01 X2.8086 Y2.4636 
G01 X2.8084 Y2.4627 
G01 X2.8084 Y2.4617 
G01 X2.8082 Y2.4608 
G01 X2.8081 Y2.4598 
G01 X2.8077 Y2.4590 
G01 X2.8075 Y2.4582 
G01 X2.8075 Y2.4415 
G01 X2.8140 Y2.4259 
G01 X2.8259 Y2.4140 
G01 X2.8276 Y2.4133 
G01 X2.8291 Y2.4127 
G01 X2.8300 Y2.4119 
G01 X2.8321 Y2.4103 
G01 X2.8338 Y2.4082 
G01 X2.8344 Y2.4073 
G01 X2.8352 Y2.4054 
G01 X2.8359 Y2.4038 
G01 X2.8361 Y2.4020 
G01 X2.8364 Y2.4000 
G01 X2.8361 Y2.3980 
G01 X2.8359 Y2.3962 
G01 X2.8352 Y2.3945 
G01 X2.8344 Y2.3927 
G01 X2.8337 Y2.3917 
G01 X2.8321 Y2.3897 
G01 X2.8299 Y2.3880 
G01 X2.8291 Y2.3873 
G01 X2.8267 Y2.3864 
G01 X2.8259 Y2.3860 
G01 X2.8140 Y2.3741 
G01 X2.8075 Y2.3585 
G01 X2.8075 Y2.3415 
G01 X2.8140 Y2.3259 
G01 X2.8259 Y2.3140 
G01 X2.8276 Y2.3133 
G01 X2.8291 Y2.3127 
G01 X2.8300 Y2.3119 
G01 X2.8321 Y2.3103 
G01 X2.8338 Y2.3082 
G01 X2.8344 Y2.3073 
G01 X2.8352 Y2.3054 
G01 X2.8359 Y2.3038 
G01 X2.8361 Y2.3020 
G01 X2.8364 Y2.3000 
G01 X2.8361 Y2.2980 
G01 X2.8359 Y2.2962 
G01 X2.8352 Y2.2945 
G01 X2.8344 Y2.2927 
G01 X2.8337 Y2.2917 
G01 X2.8321 Y2.2897 
G01 X2.8299 Y2.2880 
G01 X2.8291 Y2.2873 
G01 X2.8267 Y2.2864 
G01 X2.8259 Y2.2860 
G01 X2.8140 Y2.2741 
G01 X2.8075 Y2.2585 
G01 X2.8075 Y2.2415 
G01 X2.8140 Y2.2259 
G01 X2.8259 Y2.2140 
G01 X2.8276 Y2.2133 
G01 X2.8291 Y2.2127 
G01 X2.8300 Y2.2119 
G01 X2.8321 Y2.2103 
G01 X2.8338 Y2.2082 
G01 X2.8344 Y2.2073 
G01 X2.8352 Y2.2054 
G01 X2.8359 Y2.2038 
G01 X2.8361 Y2.2020 
G01 X2.8364 Y2.2000 
G01 X2.8361 Y2.1980 
G01 X2.8359 Y2.1962 
G01 X2.8352 Y2.1945 
G01 X2.8344 Y2.1927 
G01 X2.8337 Y2.1917 
G01 X2.8321 Y2.1897 
G01 X2.8299 Y2.1880 
G01 X2.8291 Y2.1873 
G01 X2.8267 Y2.1864 
G01 X2.8259 Y2.1860 
G01 X2.8140 Y2.1741 
G01 X2.8075 Y2.1585 
G01 X2.8075 Y2.1415 
G01 X2.8140 Y2.1259 
G01 X2.8259 Y2.1140 
G01 X2.8268 Y2.1136 
G01 X2.8291 Y2.1127 
G01 X2.8300 Y2.1119 
G01 X2.8321 Y2.1103 
G01 X2.8338 Y2.1082 
G01 X2.8344 Y2.1073 
G01 X2.8352 Y2.1054 
G01 X2.8359 Y2.1038 
G01 X2.8361 Y2.1020 
G01 X2.8364 Y2.1000 
G01 X2.8361 Y2.0980 
G01 X2.8359 Y2.0962 
G01 X2.8352 Y2.0945 
G01 X2.8344 Y2.0927 
G01 X2.8337 Y2.0917 
G01 X2.8321 Y2.0897 
G01 X2.8299 Y2.0880 
G01 X2.8291 Y2.0873 
G01 X2.8275 Y2.0867 
G01 X2.8259 Y2.0860 
G01 X2.8140 Y2.0741 
G01 X2.8075 Y2.0585 
G01 X2.8075 Y2.0418 
G01 X2.8077 Y2.0410 
G01 X2.8081 Y2.0402 
G01 X2.8082 Y2.0392 
G01 X2.8084 Y2.0383 
G01 X2.8084 Y2.0373 
G01 X2.8086 Y2.0364 
G01 X2.8084 Y2.0354 
G01 X2.8084 Y2.0345 
G01 X2.8082 Y2.0335 
G01 X2.8081 Y2.0326 
G01 X2.8077 Y2.0317 
G01 X2.8075 Y2.0308 
G01 X2.8070 Y2.0299 
G01 X2.8066 Y2.0291 
G01 X2.8060 Y2.0283 
G01 X2.8056 Y2.0275 
G01 X2.8049 Y2.0268 
G01 X2.8043 Y2.0260 
G01 X2.8035 Y2.0254 
G01 X2.7369 Y1.9588 
G01 X2.7345 Y1.9531 
G01 X2.7345 Y0.7678 
G01 X2.7346 Y0.7663 
G01 X2.7345 Y0.7659 
G01 X2.7345 Y0.7655 
G01 X2.7341 Y0.7641 
G01 X2.7338 Y0.7626 
G01 X2.7336 Y0.7622 
G01 X2.7335 Y0.7618 
G01 X2.7327 Y0.7605 
G01 X2.7321 Y0.7592 
G01 X2.7318 Y0.7589 
G01 X2.7316 Y0.7585 
G01 X2.7305 Y0.7575 
G01 X2.7295 Y0.7563 
G01 X2.7292 Y0.7561 
G01 X2.7289 Y0.7558 
G01 X2.7276 Y0.7551 
G01 X2.7263 Y0.7542 
G01 X2.7259 Y0.7541 
G01 X2.7256 Y0.7539 
G01 X2.7241 Y0.7535 
G01 X2.7227 Y0.7531 
G01 X2.7223 Y0.7530 
G01 X2.7219 Y0.7529 
G01 X2.7204 Y0.7529 
G01 X2.7189 Y0.7529 
G01 X2.7185 Y0.7529 
G01 X2.7181 Y0.7529 
G01 X2.7166 Y0.7533 
G01 X2.7151 Y0.7537 
G01 X2.7148 Y0.7538 
G01 X2.7145 Y0.7539 
G01 X2.7145 Y0.7530 
G01 X2.7194 Y0.7497 
G01 X2.7237 Y0.7454 
G01 X2.7270 Y0.7404 
G01 X2.7293 Y0.7349 
G01 X2.7305 Y0.7290 
G01 X2.7305 Y0.6710 
G01 X2.7293 Y0.6651 
G01 X2.7270 Y0.6596 
G01 X2.7237 Y0.6546 
G01 X2.7194 Y0.6503 
G01 X2.7145 Y0.6470 
G01 X2.7145 Y0.6461 
G01 X2.7148 Y0.6462 
G01 X2.7151 Y0.6463 
G01 X2.7166 Y0.6467 
G01 X2.7181 Y0.6471 
G01 X2.7185 Y0.6471 
G01 X2.7189 Y0.6471 
G01 X2.7204 Y0.6471 
G01 X2.7219 Y0.6471 
G01 X2.7223 Y0.6470 
G01 X2.7227 Y0.6469 
G01 X2.7241 Y0.6465 
G01 X2.7256 Y0.6461 
G01 X2.7259 Y0.6459 
G01 X2.7263 Y0.6458 
G01 X2.7276 Y0.6449 
G01 X2.7289 Y0.6442 
G01 X2.7292 Y0.6439 
G01 X2.7295 Y0.6437 
G01 X2.7305 Y0.6425 
G01 X2.7316 Y0.6415 
G01 X2.7318 Y0.6411 
G01 X2.7321 Y0.6408 
G01 X2.7327 Y0.6395 
G01 X2.7335 Y0.6382 
G01 X2.7336 Y0.6378 
G01 X2.7338 Y0.6374 
G01 X2.7341 Y0.6359 
G01 X2.7345 Y0.6345 
G01 X2.7345 Y0.6341 
G01 X2.7346 Y0.6337 
G01 X2.7345 Y0.6322 
G01 X2.7345 Y0.4678 
G01 X2.7346 Y0.4663 
G01 X2.7345 Y0.4659 
G01 X2.7345 Y0.4655 
G01 X2.7341 Y0.4641 
G01 X2.7338 Y0.4626 
G01 X2.7336 Y0.4622 
G01 X2.7335 Y0.4618 
G01 X2.7327 Y0.4605 
G01 X2.7321 Y0.4592 
G01 X2.7318 Y0.4589 
G01 X2.7316 Y0.4585 
G01 X2.7305 Y0.4575 
G01 X2.7295 Y0.4563 
G01 X2.7292 Y0.4561 
G01 X2.7289 Y0.4558 
G01 X2.7276 Y0.4551 
G01 X2.7263 Y0.4542 
G01 X2.7259 Y0.4541 
G01 X2.7256 Y0.4539 
G01 X2.7241 Y0.4535 
G01 X2.7227 Y0.4531 
G01 X2.7223 Y0.4530 
G01 X2.7219 Y0.4529 
G01 X2.7204 Y0.4529 
G01 X2.7189 Y0.4529 
G01 X2.7185 Y0.4529 
G01 X2.7181 Y0.4529 
G01 X2.7166 Y0.4533 
G01 X2.7151 Y0.4537 
G01 X2.7148 Y0.4538 
G01 X2.7145 Y0.4539 
G01 X2.7145 Y0.4530 
G01 X2.7194 Y0.4497 
G01 X2.7237 Y0.4454 
G01 X2.7270 Y0.4404 
G01 X2.7293 Y0.4349 
G01 X2.7305 Y0.4290 
G01 X2.7305 Y0.3710 
G01 X2.7293 Y0.3651 
G01 X2.7270 Y0.3596 
G01 X2.7237 Y0.3546 
G01 X2.7194 Y0.3503 
G01 X2.7144 Y0.3470 
G01 X2.7089 Y0.3447 
G01 X2.7030 Y0.3435 
G01 X2.6970 Y0.3435 
G01 X2.6911 Y0.3447 
G01 X2.6856 Y0.3470 
G01 X2.6806 Y0.3503 
G01 X2.6763 Y0.3546 
G01 X2.6730 Y0.3596 
G01 X2.6707 Y0.3651 
G01 X2.6695 Y0.3710 
G01 X2.6695 Y0.4290 
G01 X2.6707 Y0.4349 
G01 X2.6730 Y0.4404 
G01 X2.6763 Y0.4454 
G01 X2.6806 Y0.4497 
G01 X2.6855 Y0.4530 
G01 X2.6855 Y0.4539 
G01 X2.6852 Y0.4538 
G01 X2.6849 Y0.4537 
G01 X2.6834 Y0.4533 
G01 X2.6819 Y0.4529 
G01 X2.6815 Y0.4529 
G01 X2.6811 Y0.4529 
G01 X2.6796 Y0.4529 
G01 X2.6781 Y0.4529 
G01 X2.6777 Y0.4530 
G01 X2.6773 Y0.4531 
G01 X2.6759 Y0.4535 
G01 X2.6744 Y0.4539 
G01 X2.6741 Y0.4541 
G01 X2.6737 Y0.4542 
G01 X2.6724 Y0.4551 
G01 X2.6711 Y0.4558 
G01 X2.6708 Y0.4561 
G01 X2.6705 Y0.4563 
G01 X2.6695 Y0.4575 
G01 X2.6684 Y0.4585 
G01 X2.6682 Y0.4589 
G01 X2.6679 Y0.4592 
G01 X2.6673 Y0.4605 
G01 X2.6665 Y0.4618 
G01 X2.6664 Y0.4622 
G01 X2.6662 Y0.4626 
G01 X2.6659 Y0.4641 
G01 X2.6655 Y0.4655 
G01 X2.6655 Y0.4659 
G01 X2.6654 Y0.4663 
G01 X2.6655 Y0.4678 
G01 X2.6655 Y0.6322 
G01 X2.6654 Y0.6337 
G01 X2.6655 Y0.6341 
G01 X2.6655 Y0.6345 
G01 X2.6659 Y0.6359 
G01 X2.6662 Y0.6374 
G01 X2.6664 Y0.6378 
G01 X2.6665 Y0.6382 
G01 X2.6673 Y0.6395 
G01 X2.6679 Y0.6408 
G01 X2.6682 Y0.6411 
G01 X2.6684 Y0.6415 
G01 X2.6695 Y0.6425 
G01 X2.6705 Y0.6437 
G01 X2.6708 Y0.6439 
G01 X2.6711 Y0.6442 
G01 X2.6724 Y0.6449 
G01 X2.6737 Y0.6458 
G01 X2.6741 Y0.6459 
G01 X2.6744 Y0.6461 
G01 X2.6759 Y0.6465 
G01 X2.6773 Y0.6469 
G01 X2.6777 Y0.6470 
G01 X2.6781 Y0.6471 
G01 X2.6796 Y0.6471 
G01 X2.6811 Y0.6471 
G01 X2.6815 Y0.6471 
G01 X2.6819 Y0.6471 
G01 X2.6834 Y0.6467 
G01 X2.6849 Y0.6463 
G01 X2.6852 Y0.6462 
G01 X2.6855 Y0.6461 
G01 X2.6855 Y0.6470 
G01 X2.6806 Y0.6503 
G01 X2.6763 Y0.6546 
G01 X2.6730 Y0.6596 
G01 X2.6707 Y0.6651 
G01 X2.6695 Y0.6710 
G01 X2.6695 Y0.7290 
G01 X2.6707 Y0.7349 
G01 X2.6730 Y0.7404 
G01 X2.6763 Y0.7454 
G01 X2.6806 Y0.7497 
G01 X2.6855 Y0.7530 
G01 X2.6855 Y0.7539 
G01 X2.6852 Y0.7538 
G01 X2.6849 Y0.7537 
G01 X2.6834 Y0.7533 
G01 X2.6819 Y0.7529 
G01 X2.6815 Y0.7529 
G01 X2.6811 Y0.7529 
G01 X2.6796 Y0.7529 
G01 X2.6781 Y0.7529 
G01 X2.6777 Y0.7530 
G01 X2.6773 Y0.7531 
G01 X2.6759 Y0.7535 
G01 X2.6744 Y0.7539 
G01 X2.6741 Y0.7541 
G01 X2.6737 Y0.7542 
G01 X2.6724 Y0.7551 
G01 X2.6711 Y0.7558 
G01 X2.6708 Y0.7561 
G01 X2.6705 Y0.7563 
G01 X2.6695 Y0.7575 
G01 X2.6684 Y0.7585 
G01 X2.6682 Y0.7589 
G01 X2.6679 Y0.7592 
G01 X2.6673 Y0.7605 
G01 X2.6665 Y0.7618 
G01 X2.6664 Y0.7622 
G01 X2.6662 Y0.7626 
G01 X2.6659 Y0.7641 
G01 X2.6655 Y0.7655 
G01 X2.6655 Y0.7659 
G01 X2.6654 Y0.7663 
G01 X2.6655 Y0.7678 
G01 X2.6655 Y1.4303 
G01 X2.6654 Y1.4313 
G01 X2.6655 Y1.4322 
G01 X2.6655 Y1.4332 
G01 X2.6657 Y1.4341 
G01 X2.6659 Y1.4350 
G01 X2.6662 Y1.4359 
G01 X2.6665 Y1.4369 
G01 X2.6670 Y1.4377 
G01 X2.6704 Y1.4459 
G01 X2.6704 Y1.4541 
G01 X2.6673 Y1.4615 
G01 X2.6615 Y1.4673 
G01 X2.6541 Y1.4704 
G01 X2.6459 Y1.4704 
G01 X2.6384 Y1.4673 
G01 X2.6327 Y1.4615 
G01 X2.6296 Y1.4541 
G01 X2.6296 Y1.4459 
G01 X2.6330 Y1.4377 
G01 X2.6335 Y1.4369 
G01 X2.6338 Y1.4359 
G01 X2.6341 Y1.4350 
G01 X2.6343 Y1.4341 
G01 X2.6345 Y1.4332 
G01 X2.6345 Y1.4322 
G01 X2.6346 Y1.4313 
G01 X2.6345 Y1.4303 
G01 X2.6345 Y0.7705 
G01 X2.6338 Y0.7678 
G01 X2.6335 Y0.7668 
G01 X2.6316 Y0.7635 
G01 X2.6289 Y0.7608 
G01 X2.6261 Y0.7592 
G01 X2.6256 Y0.7589 
G01 X2.6242 Y0.7585 
G01 X2.6219 Y0.7579 
G01 X2.6181 Y0.7579 
G01 X2.6153 Y0.7587 
G01 X2.6144 Y0.7589 
G01 X2.6111 Y0.7608 
G01 X2.6054 Y0.7665 
G01 X2.5124 Y0.8595 
G01 X2.5116 Y0.8601 
G01 X2.5110 Y0.8609 
G01 X2.5104 Y0.8616 
G01 X2.5099 Y0.8624 
G01 X2.5093 Y0.8631 
G01 X2.5089 Y0.8640 
G01 X2.5085 Y0.8649 
G01 X2.5082 Y0.8658 
G01 X2.5048 Y0.8740 
G01 X2.4990 Y0.8798 
G01 X2.4916 Y0.8829 
G01 X2.4828 Y0.8829 
G01 X2.4819 Y0.8827 
G01 X2.4810 Y0.8827 
G01 X2.4800 Y0.8825 
G01 X2.4791 Y0.8827 
G01 X2.4781 Y0.8827 
G01 X2.4772 Y0.8829 
G01 X2.4762 Y0.8830 
G01 X2.4753 Y0.8834 
G01 X2.4744 Y0.8836 
G01 X2.4736 Y0.8841 
G01 X2.4727 Y0.8845 
G01 X2.4719 Y0.8851 
G01 X2.4711 Y0.8856 
G01 X2.4704 Y0.8862 
G01 X2.4697 Y0.8868 
G01 X2.4691 Y0.8876 
G01 X2.4684 Y0.8883 
G01 X2.4679 Y0.8891 
G01 X2.4673 Y0.8898 
G01 X2.4670 Y0.8907 
G01 X2.4665 Y0.8916 
G01 X2.4662 Y0.8925 
G01 X2.4659 Y0.8934 
G01 X2.4657 Y0.8943 
G01 X2.4655 Y0.8952 
G01 X2.4655 Y0.8962 
G01 X2.4654 Y0.8972 
G01 X2.4655 Y0.8981 
G01 X2.4655 Y0.9031 
G01 X2.4631 Y0.9088 
G01 X2.4533 Y0.9186 
G01 X2.4525 Y0.9192 
G01 X2.4520 Y0.9200 
G01 X2.4513 Y0.9206 
G01 X2.4508 Y0.9215 
G01 X2.4502 Y0.9222 
G01 X2.4498 Y0.9231 
G01 X2.4494 Y0.9239 
G01 X2.4491 Y0.9249 
G01 X2.4488 Y0.9258 
G01 X2.4486 Y0.9267 
G01 X2.4484 Y0.9276 
G01 X2.4484 Y0.9286 
G01 X2.4483 Y0.9295 
G01 X2.4484 Y0.9305 
G01 X2.4484 Y0.9315 
G01 X2.4486 Y0.9324 
G01 X2.4488 Y0.9333 
G01 X2.4491 Y0.9342 
G01 X2.4494 Y0.9351 
G01 X2.4498 Y0.9360 
G01 X2.4502 Y0.9369 
G01 X2.4508 Y0.9376 
G01 X2.4513 Y0.9384 
G01 X2.4520 Y0.9391 
G01 X2.4525 Y0.9399 
G01 X2.4533 Y0.9405 
G01 X2.4540 Y0.9411 
G01 X2.4548 Y0.9416 
G01 X2.4556 Y0.9422 
G01 X2.4565 Y0.9426 
G01 X2.4573 Y0.9431 
G01 X2.4582 Y0.9433 
G01 X2.4678 Y0.9473 
G01 X2.4767 Y0.9562 
G01 X2.4815 Y0.9677 
G01 X2.4815 Y1.0323 
G01 X2.4767 Y1.0438 
G01 X2.4678 Y1.0527 
G01 X2.4563 Y1.0575 
G01 X2.4437 Y1.0575 
G01 X2.4364 Y1.0545 
G01 X2.4356 Y1.0540 
G01 X2.4347 Y1.0537 
G01 X2.4338 Y1.0534 
G01 X2.4328 Y1.0533 
G01 X2.4319 Y1.0530 
G01 X2.4310 Y1.0530 
G01 X2.4300 Y1.0529 
G01 X2.4290 Y1.0530 
G01 X2.4281 Y1.0530 
G01 X2.4272 Y1.0533 
G01 X2.4262 Y1.0534 
G01 X2.4253 Y1.0537 
G01 X2.4244 Y1.0540 
G01 X2.4236 Y1.0545 
G01 X2.4227 Y1.0548 
G01 X2.4219 Y1.0554 
G01 X2.4211 Y1.0559 
G01 X2.4204 Y1.0566 
G01 X2.4197 Y1.0572 
G01 X2.4191 Y1.0579 
G01 X2.4184 Y1.0586 
G01 X2.4179 Y1.0594 
G01 X2.4173 Y1.0602 
G01 X2.4170 Y1.0611 
G01 X2.4165 Y1.0619 
G01 X2.4162 Y1.0628 
G01 X2.4159 Y1.0637 
G01 X2.4157 Y1.0647 
G01 X2.4155 Y1.0656 
G01 X2.4155 Y1.0666 
G01 X2.4154 Y1.0675 
G01 X2.4155 Y1.0685 
G01 X2.4155 Y1.2315 
G01 X2.4154 Y1.2325 
G01 X2.4155 Y1.2334 
G01 X2.4155 Y1.2344 
G01 X2.4157 Y1.2353 
G01 X2.4159 Y1.2363 
G01 X2.4162 Y1.2372 
G01 X2.4165 Y1.2381 
G01 X2.4170 Y1.2389 
G01 X2.4173 Y1.2398 
G01 X2.4179 Y1.2406 
G01 X2.4184 Y1.2414 
G01 X2.4191 Y1.2421 
G01 X2.4197 Y1.2428 
G01 X2.4204 Y1.2434 
G01 X2.4211 Y1.2441 
G01 X2.4219 Y1.2446 
G01 X2.4227 Y1.2452 
G01 X2.4236 Y1.2455 
G01 X2.4244 Y1.2460 
G01 X2.4253 Y1.2463 
G01 X2.4262 Y1.2466 
G01 X2.4272 Y1.2467 
G01 X2.4281 Y1.2470 
G01 X2.4290 Y1.2470 
G01 X2.4300 Y1.2471 
G01 X2.4310 Y1.2470 
G01 X2.4319 Y1.2470 
G01 X2.4328 Y1.2467 
G01 X2.4338 Y1.2466 
G01 X2.4347 Y1.2463 
G01 X2.4356 Y1.2460 
G01 X2.4364 Y1.2455 
G01 X2.4437 Y1.2425 
G01 X2.4563 Y1.2425 
G01 X2.4678 Y1.2473 
G01 X2.4767 Y1.2562 
G01 X2.4815 Y1.2677 
G01 X2.4815 Y1.3323 
G01 X2.4767 Y1.3438 
G01 X2.4678 Y1.3527 
G01 X2.4563 Y1.3575 
G01 X2.4437 Y1.3575 
G01 X2.4364 Y1.3545 
G01 X2.4356 Y1.3540 
G01 X2.4347 Y1.3537 
G01 X2.4338 Y1.3534 
G01 X2.4328 Y1.3533 
G01 X2.4319 Y1.3530 
G01 X2.4310 Y1.3530 
G01 X2.4300 Y1.3529 
G01 X2.4290 Y1.3530 
G01 X2.4281 Y1.3530 
G01 X2.4272 Y1.3533 
G01 X2.4262 Y1.3534 
G01 X2.4253 Y1.3537 
G01 X2.4244 Y1.3540 
G01 X2.4236 Y1.3545 
G01 X2.4227 Y1.3548 
G01 X2.4219 Y1.3554 
G01 X2.4211 Y1.3559 
G01 X2.4204 Y1.3566 
G01 X2.4197 Y1.3572 
G01 X2.4191 Y1.3579 
G01 X2.4184 Y1.3586 
G01 X2.4179 Y1.3594 
G01 X2.4173 Y1.3602 
G01 X2.4170 Y1.3611 
G01 X2.4165 Y1.3619 
G01 X2.4162 Y1.3628 
G01 X2.4159 Y1.3637 
G01 X2.4157 Y1.3647 
G01 X2.4155 Y1.3656 
G01 X2.4155 Y1.3666 
G01 X2.4154 Y1.3675 
G01 X2.4155 Y1.3685 
G01 X2.4155 Y1.5315 
G01 X2.4154 Y1.5325 
G01 X2.4155 Y1.5334 
G01 X2.4155 Y1.5344 
G01 X2.4157 Y1.5353 
G01 X2.4159 Y1.5363 
G01 X2.4162 Y1.5372 
G01 X2.4165 Y1.5381 
G01 X2.4170 Y1.5389 
G01 X2.4173 Y1.5398 
G01 X2.4179 Y1.5406 
G01 X2.4184 Y1.5414 
G01 X2.4191 Y1.5421 
G01 X2.4197 Y1.5428 
G01 X2.4204 Y1.5434 
G01 X2.4211 Y1.5441 
G01 X2.4219 Y1.5446 
G01 X2.4227 Y1.5452 
G01 X2.4236 Y1.5455 
G01 X2.4244 Y1.5460 
G01 X2.4253 Y1.5463 
G01 X2.4262 Y1.5466 
G01 X2.4272 Y1.5467 
G01 X2.4281 Y1.5470 
G01 X2.4290 Y1.5470 
G01 X2.4300 Y1.5471 
G01 X2.4310 Y1.5470 
G01 X2.4319 Y1.5470 
G01 X2.4328 Y1.5467 
G01 X2.4338 Y1.5466 
G01 X2.4347 Y1.5463 
G01 X2.4356 Y1.5460 
G01 X2.4364 Y1.5455 
G01 X2.4437 Y1.5425 
G01 X2.4563 Y1.5425 
G01 X2.4678 Y1.5473 
G01 X2.4767 Y1.5562 
G01 X2.4815 Y1.5677 
G01 X2.4815 Y1.6323 
G01 X2.4767 Y1.6438 
G01 X2.4678 Y1.6527 
G01 X2.4563 Y1.6575 
G01 X2.4437 Y1.6575 
G01 X2.4364 Y1.6545 
G01 X2.4356 Y1.6540 
G01 X2.4347 Y1.6537 
G01 X2.4338 Y1.6534 
G01 X2.4328 Y1.6533 
G01 X2.4319 Y1.6530 
G01 X2.4310 Y1.6530 
G01 X2.4300 Y1.6529 
G01 X2.4290 Y1.6530 
G01 X2.4281 Y1.6530 
G01 X2.4272 Y1.6533 
G01 X2.4262 Y1.6534 
G01 X2.4253 Y1.6537 
G01 X2.4244 Y1.6540 
G01 X2.4236 Y1.6545 
G01 X2.4227 Y1.6548 
G01 X2.4219 Y1.6554 
G01 X2.4211 Y1.6559 
G01 X2.4204 Y1.6566 
G01 X2.4197 Y1.6572 
G01 X2.4191 Y1.6579 
G01 X2.4184 Y1.6586 
G01 X2.4179 Y1.6594 
G01 X2.4173 Y1.6602 
G01 X2.4170 Y1.6611 
G01 X2.4165 Y1.6619 
G01 X2.4162 Y1.6628 
G01 X2.4159 Y1.6637 
G01 X2.4157 Y1.6647 
G01 X2.4155 Y1.6656 
G01 X2.4155 Y1.6666 
G01 X2.4154 Y1.6675 
G01 X2.4155 Y1.6685 
G01 X2.4155 Y1.7531 
G01 X2.4131 Y1.7588 
G01 X2.2871 Y1.8848 
G01 X2.2844 Y1.8875 
G01 X2.2825 Y1.8908 
G01 X2.2815 Y1.8945 
G01 X2.2815 Y1.9323 
G01 X2.2767 Y1.9438 
G01 X2.2678 Y1.9527 
G01 X2.2563 Y1.9575 
G01 X2.2437 Y1.9575 
G01 X2.2364 Y1.9545 
G01 X2.2356 Y1.9540 
G01 X2.2347 Y1.9537 
G01 X2.2338 Y1.9534 
G01 X2.2328 Y1.9533 
G01 X2.2319 Y1.9530 
G01 X2.2310 Y1.9530 
G01 X2.2300 Y1.9529 
G01 X2.2290 Y1.9530 
G01 X2.2281 Y1.9530 
G01 X2.2272 Y1.9533 
G01 X2.2262 Y1.9534 
G01 X2.2253 Y1.9537 
G01 X2.2244 Y1.9540 
G01 X2.2236 Y1.9545 
G01 X2.2227 Y1.9548 
G01 X2.2219 Y1.9554 
G01 X2.2211 Y1.9559 
G01 X2.2204 Y1.9566 
G01 X2.2197 Y1.9572 
G01 X2.2191 Y1.9579 
G01 X2.2184 Y1.9586 
G01 X2.2179 Y1.9594 
G01 X2.2173 Y1.9602 
G01 X2.2170 Y1.9611 
G01 X2.2165 Y1.9619 
G01 X2.2162 Y1.9628 
G01 X2.2159 Y1.9637 
G01 X2.2157 Y1.9647 
G01 X2.2155 Y1.9656 
G01 X2.2155 Y1.9666 
G01 X2.2154 Y1.9675 
G01 X2.2155 Y1.9685 
G01 X2.2155 Y2.1315 
G01 X2.2154 Y2.1325 
G01 X2.2155 Y2.1334 
G01 X2.2155 Y2.1344 
G01 X2.2157 Y2.1353 
G01 X2.2159 Y2.1363 
G01 X2.2162 Y2.1372 
G01 X2.2165 Y2.1381 
G01 X2.2170 Y2.1389 
G01 X2.2173 Y2.1398 
G01 X2.2179 Y2.1406 
G01 X2.2184 Y2.1414 
G01 X2.2191 Y2.1421 
G01 X2.2197 Y2.1428 
G01 X2.2204 Y2.1434 
G01 X2.2211 Y2.1441 
G01 X2.2219 Y2.1446 
G01 X2.2227 Y2.1452 
G01 X2.2236 Y2.1455 
G01 X2.2244 Y2.1460 
G01 X2.2253 Y2.1463 
G01 X2.2262 Y2.1466 
G01 X2.2272 Y2.1467 
G01 X2.2281 Y2.1470 
G01 X2.2290 Y2.1470 
G01 X2.2300 Y2.1471 
G01 X2.2310 Y2.1470 
G01 X2.2319 Y2.1470 
G01 X2.2328 Y2.1467 
G01 X2.2338 Y2.1466 
G01 X2.2347 Y2.1463 
G01 X2.2356 Y2.1460 
G01 X2.2364 Y2.1455 
G01 X2.2437 Y2.1425 
G01 X2.2563 Y2.1425 
G01 X2.2678 Y2.1473 
G01 X2.2767 Y2.1562 
G01 X2.2815 Y2.1677 
G01 X2.2815 Y2.2323 
G01 X2.2767 Y2.2438 
G01 X2.2678 Y2.2527 
G01 X2.2563 Y2.2575 
G01 X2.2437 Y2.2575 
G01 X2.2364 Y2.2545 
G01 X2.2356 Y2.2540 
G01 X2.2347 Y2.2537 
G01 X2.2338 Y2.2534 
G01 X2.2328 Y2.2533 
G01 X2.2319 Y2.2530 
G01 X2.2310 Y2.2530 
G01 X2.2300 Y2.2529 
G01 X2.2290 Y2.2530 
G01 X2.2281 Y2.2530 
G01 X2.2272 Y2.2533 
G01 X2.2262 Y2.2534 
G01 X2.2253 Y2.2537 
G01 X2.2244 Y2.2540 
G01 X2.2236 Y2.2545 
G01 X2.2227 Y2.2548 
G01 X2.2219 Y2.2554 
G01 X2.2211 Y2.2559 
G01 X2.2204 Y2.2566 
G01 X2.2197 Y2.2572 
G01 X2.2191 Y2.2579 
G01 X2.2184 Y2.2586 
G01 X2.2179 Y2.2594 
G01 X2.2173 Y2.2602 
G01 X2.2170 Y2.2611 
G01 X2.2165 Y2.2619 
G01 X2.2162 Y2.2628 
G01 X2.2159 Y2.2637 
G01 X2.2157 Y2.2647 
G01 X2.2155 Y2.2656 
G01 X2.2155 Y2.2666 
G01 X2.2154 Y2.2675 
G01 X2.2155 Y2.2685 
G01 X2.2155 Y2.4315 
G01 X2.2154 Y2.4325 
G01 X2.2155 Y2.4334 
G01 X2.2155 Y2.4344 
G01 X2.2157 Y2.4353 
G01 X2.2159 Y2.4363 
G01 X2.2162 Y2.4372 
G01 X2.2165 Y2.4381 
G01 X2.2170 Y2.4389 
G01 X2.2173 Y2.4398 
G01 X2.2179 Y2.4406 
G01 X2.2184 Y2.4414 
G01 X2.2191 Y2.4421 
G01 X2.2197 Y2.4428 
G01 X2.2204 Y2.4434 
G01 X2.2211 Y2.4441 
G01 X2.2219 Y2.4446 
G01 X2.2227 Y2.4452 
G01 X2.2236 Y2.4455 
G01 X2.2244 Y2.4460 
G01 X2.2253 Y2.4463 
G01 X2.2262 Y2.4466 
G01 X2.2272 Y2.4467 
G01 X2.2281 Y2.4470 
G01 X2.2290 Y2.4470 
G01 X2.2300 Y2.4471 
G01 X2.2310 Y2.4470 
G01 X2.2319 Y2.4470 
G01 X2.2328 Y2.4467 
G01 X2.2338 Y2.4466 
G01 X2.2347 Y2.4463 
G01 X2.2356 Y2.4460 
G01 X2.2364 Y2.4455 
G01 X2.2437 Y2.4425 
G01 X2.2563 Y2.4425 
G01 X2.2678 Y2.4473 
G01 X2.2767 Y2.4562 
G01 X2.2815 Y2.4677 
G01 X2.2815 Y2.5323 
G01 X2.2767 Y2.5438 
G01 X2.2678 Y2.5527 
G01 X2.2563 Y2.5575 
G01 X2.2437 Y2.5575 
G01 X2.2364 Y2.5545 
G01 X2.2356 Y2.5540 
G01 X2.2347 Y2.5537 
G01 X2.2338 Y2.5534 
G01 X2.2328 Y2.5533 
G01 X2.2319 Y2.5530 
G01 X2.2310 Y2.5530 
G01 X2.2300 Y2.5529 
G01 X2.2290 Y2.5530 
G01 X2.2281 Y2.5530 
G01 X2.2272 Y2.5533 
G01 X2.2262 Y2.5534 
G01 X2.2253 Y2.5537 
G01 X2.2244 Y2.5540 
G01 X2.2236 Y2.5545 
G01 X2.2227 Y2.5548 
G01 X2.2219 Y2.5554 
G01 X2.2211 Y2.5559 
G01 X2.2204 Y2.5566 
G01 X2.2197 Y2.5572 
G01 X2.2191 Y2.5579 
G01 X2.2184 Y2.5586 
G01 X2.2179 Y2.5594 
G01 X2.2173 Y2.5602 
G01 X2.2170 Y2.5611 
G01 X2.2165 Y2.5619 
G01 X2.2162 Y2.5628 
G01 X2.2159 Y2.5637 
G01 X2.2157 Y2.5647 
G01 X2.2155 Y2.5656 
G01 X2.2155 Y2.5666 
G01 X2.2154 Y2.5675 
G01 X2.2155 Y2.5685 
G01 X2.2155 Y2.7315 
G01 X2.2154 Y2.7325 
G01 X2.2155 Y2.7334 
G01 X2.2155 Y2.7344 
G01 X2.2157 Y2.7353 
G01 X2.2159 Y2.7363 
G01 X2.2162 Y2.7372 
G01 X2.2165 Y2.7381 
G01 X2.2170 Y2.7389 
G01 X2.2173 Y2.7398 
G01 X2.2179 Y2.7406 
G01 X2.2184 Y2.7414 
G01 X2.2191 Y2.7421 
G01 X2.2197 Y2.7428 
G01 X2.2204 Y2.7434 
G01 X2.2211 Y2.7441 
G01 X2.2219 Y2.7446 
G01 X2.2227 Y2.7452 
G01 X2.2236 Y2.7455 
G01 X2.2244 Y2.7460 
G01 X2.2253 Y2.7463 
G01 X2.2262 Y2.7466 
G01 X2.2272 Y2.7467 
G01 X2.2281 Y2.7470 
G01 X2.2290 Y2.7470 
G01 X2.2300 Y2.7471 
G01 X2.2310 Y2.7470 
G01 X2.2319 Y2.7470 
G01 X2.2328 Y2.7467 
G01 X2.2338 Y2.7466 
G01 X2.2347 Y2.7463 
G01 X2.2356 Y2.7460 
G01 X2.2364 Y2.7455 
G01 X2.2437 Y2.7425 
G01 X2.2563 Y2.7425 
G01 X2.2636 Y2.7455 
G01 X2.2644 Y2.7460 
G01 X2.2653 Y2.7463 
G01 X2.2662 Y2.7466 
G01 X2.2672 Y2.7467 
G01 X2.2681 Y2.7470 
G01 X2.2690 Y2.7470 
G01 X2.2700 Y2.7471 
G01 X2.2710 Y2.7470 
G01 X2.2719 Y2.7470 
G01 X2.2728 Y2.7467 
G01 X2.2738 Y2.7466 
G01 X2.2747 Y2.7463 
G01 X2.2756 Y2.7460 
G01 X2.2764 Y2.7455 
G01 X2.2773 Y2.7452 
G01 X2.2781 Y2.7446 
G01 X2.2789 Y2.7441 
G01 X2.2796 Y2.7434 
G01 X2.2803 Y2.7428 
G01 X2.2809 Y2.7421 
G01 X2.2816 Y2.7414 
G01 X2.2821 Y2.7406 
G01 X2.2827 Y2.7398 
G01 X2.2830 Y2.7389 
G01 X2.2835 Y2.7381 
G01 X2.2838 Y2.7372 
G01 X2.2841 Y2.7363 
G01 X2.2843 Y2.7353 
G01 X2.2845 Y2.7344 
G01 X2.2845 Y2.7334 
G01 X2.2846 Y2.7325 
G01 X2.2845 Y2.7315 
G01 X2.2845 Y2.6469 
G01 X2.2869 Y2.6412 
G01 X2.2919 Y2.6362 
G01 X2.4129 Y2.5152 
G01 X2.4156 Y2.5125 
G01 X2.4175 Y2.5092 
G01 X2.4185 Y2.5055 
G01 X2.4185 Y2.4677 
G01 X2.4233 Y2.4562 
G01 X2.4322 Y2.4473 
G01 X2.4437 Y2.4425 
G01 X2.4563 Y2.4425 
G01 X2.4636 Y2.4455 
G01 X2.4644 Y2.4460 
G01 X2.4653 Y2.4463 
G01 X2.4662 Y2.4466 
G01 X2.4672 Y2.4467 
G01 X2.4681 Y2.4470 
G01 X2.4690 Y2.4470 
G01 X2.4700 Y2.4471 
G01 X2.4710 Y2.4470 
G01 X2.4719 Y2.4470 
G01 X2.4728 Y2.4467 
